;FLAVOR:Marlin
;TIME:2463
;Filament used: 2.1635m
;Layer height: 0.2
;MINX:99.35
;MINY:71.1
;MINZ:0.2
;MAXX:135.637
;MAXY:163.9
;MAXZ:8
;Generated with Cura_SteamEngine 4.1.0
M140 S60
M105
M190 S60
M104 S200
M105
M109 S200
M82 ;absolute extrusion mode
; Ender 3 Custom Start G-code
G28 ; Home all axes
G92 E0 ; Reset Extruder
G1 Z2.0 F3000 ; Move Z Axis up little to prevent scratching of Heat Bed
G1 X0.1 Y20 Z0.3 F5000.0 ; Move to start position
G1 X0.1 Y200.0 Z0.3 F1500.0 E15 ; Draw the first line
G1 X0.4 Y200.0 Z0.3 F5000.0 ; Move to side a little
G1 X0.4 Y20 Z0.3 F1500.0 E30 ; Draw the second line
G92 E0 ; Reset Extruder
G1 Z2.0 F3000 ; Move Z Axis up little to prevent scratching of Heat Bed
; End of custom start GCode
G92 E0
G92 E0
G1 F2400 E-5
;LAYER_COUNT:40
;LAYER:0
M107
M204 S500
M205 X10 Y10
G0 F3600 X101.509 Y75.847 Z0.2
;TYPE:SKIRT
G1 F2400 E0
G1 F1800 X101.816 Y75.436 E0.01706
G1 X101.946 Y75.276 E0.02392
G1 X102.168 Y75.017 E0.03527
G1 X102.473 Y74.68 E0.05038
G1 X102.838 Y74.309 E0.06769
G1 X102.985 Y74.171 E0.0744
G1 X103.224 Y73.957 E0.08507
G1 X103.561 Y73.671 E0.09977
G1 X103.945 Y73.37 E0.116
G1 X104.116 Y73.246 E0.12302
G1 X104.382 Y73.063 E0.13376
G1 X104.76 Y72.817 E0.14876
G1 X105.432 Y72.435 E0.17447
G1 X106.017 Y72.148 E0.19614
G1 X106.563 Y71.911 E0.21594
G1 X106.763 Y71.835 E0.22306
G1 X107.064 Y71.729 E0.23367
G1 X107.487 Y71.592 E0.24846
G1 X108.196 Y71.407 E0.27283
G1 X108.822 Y71.281 E0.29407
G1 X109.622 Y71.172 E0.32092
G1 X110.077 Y71.139 E0.3361
G1 X110.419 Y71.123 E0.34748
G1 X111.532 Y71.102 E0.38451
G1 X111.652 Y71.101 E0.3885
G1 X119.819 Y71.1 E0.66014
G1 X119.925 Y71.101 E0.66366
G1 X121.079 Y71.12 E0.70205
G1 X121.701 Y71.16 E0.72278
G1 X122.357 Y71.235 E0.74474
G1 X122.682 Y71.281 E0.75566
G1 X122.88 Y71.314 E0.76233
G1 X123.617 Y71.482 E0.78748
G1 X124.242 Y71.664 E0.80913
G1 X124.855 Y71.877 E0.83071
G1 X125.055 Y71.958 E0.83789
G1 X125.321 Y72.073 E0.84753
G1 X125.72 Y72.256 E0.86213
G1 X126.359 Y72.594 E0.88617
G1 X126.914 Y72.929 E0.90773
G1 X127.437 Y73.281 E0.9287
G1 X127.603 Y73.405 E0.93559
G1 X127.839 Y73.59 E0.94556
G1 X128.155 Y73.85 E0.95917
G1 X128.53 Y74.184 E0.97588
G1 X128.695 Y74.343 E0.9835
G1 X128.941 Y74.593 E0.99516
G1 X129.258 Y74.934 E1.01065
G1 X129.732 Y75.507 E1.03538
G1 X130.109 Y76.021 E1.05658
G1 X130.436 Y76.513 E1.07623
G1 X130.553 Y76.708 E1.0838
G1 X130.715 Y76.995 E1.09476
G1 X130.914 Y77.369 E1.10885
G1 X131.141 Y77.84 E1.12624
G1 X131.232 Y78.051 E1.13388
G1 X131.347 Y78.337 E1.14413
G1 X131.493 Y78.726 E1.15795
G1 X131.661 Y79.239 E1.17591
G1 X131.723 Y79.459 E1.18351
G1 X131.798 Y79.752 E1.19357
G1 X131.898 Y80.184 E1.20832
G1 X131.974 Y80.564 E1.22121
G1 X132.072 Y81.149 E1.24093
G1 X132.569 Y83.841 E1.33198
G1 X133.126 Y86.451 E1.42075
G1 X133.741 Y88.976 E1.50719
G1 X134.45 Y91.563 E1.5964
G1 X134.726 Y92.473 E1.62803
G1 X134.743 Y92.529 E1.62998
G1 X135.144 Y93.894 E1.6773
G1 X135.231 Y94.224 E1.68865
G1 X135.293 Y94.486 E1.6976
G1 X135.324 Y94.622 E1.70224
G1 X135.383 Y94.898 E1.71163
G1 X135.458 Y95.32 E1.72588
G1 X135.519 Y95.742 E1.74006
G1 X135.54 Y95.903 E1.74547
G1 X135.564 Y96.105 E1.75223
G1 X135.598 Y96.485 E1.76492
G1 X135.619 Y96.843 E1.77685
G1 X135.627 Y97.028 E1.78301
G1 X135.635 Y97.298 E1.79199
G1 X135.636 Y97.648 E1.80363
G1 X135.628 Y97.967 E1.81425
G1 X135.62 Y98.159 E1.82064
G1 X135.605 Y98.431 E1.8297
G1 X135.575 Y98.795 E1.84185
G1 X135.532 Y99.177 E1.85463
G1 X135.506 Y99.381 E1.86147
G1 X135.471 Y99.622 E1.86957
G1 X135.444 Y99.787 E1.87513
G1 X135.306 Y100.589 E1.9022
G1 X135.287 Y100.693 E1.90571
G1 X135.156 Y101.384 E1.92911
G1 X134.738 Y103.993 E2.01699
G1 X134.391 Y106.635 E2.10562
G1 X134.12 Y109.271 E2.19375
G1 X133.923 Y111.942 E2.28283
G1 X133.804 Y114.545 E2.3695
G1 X133.758 Y117.183 E2.45725
G1 X133.786 Y119.866 E2.54649
G1 X133.89 Y122.507 E2.6344
G1 X134.066 Y125.114 E2.72131
G1 X134.321 Y127.774 E2.81019
G1 X134.649 Y130.402 E2.89827
G1 X135.053 Y133.031 E2.98674
G1 X135.36 Y134.732 E3.04423
G1 X135.376 Y134.822 E3.04727
G1 X135.467 Y135.371 E3.06578
G1 X135.49 Y135.522 E3.07086
G1 X135.531 Y135.812 E3.0806
G1 X135.574 Y136.203 E3.09368
G1 X135.607 Y136.62 E3.1076
G1 X135.62 Y136.821 E3.11429
G1 X135.631 Y137.052 E3.12199
G1 X135.637 Y137.468 E3.13582
G1 X135.628 Y137.984 E3.15299
G1 X135.603 Y138.445 E3.16834
G1 X135.562 Y138.901 E3.18357
G1 X135.543 Y139.088 E3.18982
G1 X135.518 Y139.297 E3.19682
G1 X135.464 Y139.66 E3.20903
G1 X135.415 Y139.935 E3.21832
G1 X135.376 Y140.135 E3.2251
G1 X135.312 Y140.438 E3.2354
G1 X135.234 Y140.765 E3.24658
G1 X135.151 Y141.076 E3.25729
G1 X135.097 Y141.265 E3.26382
G1 X134.72 Y142.523 E3.3075
G1 X133.977 Y145.13 E3.39767
G1 X133.329 Y147.673 E3.48495
G1 X132.742 Y150.282 E3.57389
G1 X132.025 Y154.096 E3.70297
G1 X131.934 Y154.638 E3.72125
G1 X131.767 Y155.368 E3.74616
G1 X131.587 Y155.987 E3.7676
G1 X131.376 Y156.597 E3.78907
G1 X131.294 Y156.8 E3.79635
G1 X131.183 Y157.059 E3.80572
G1 X131.001 Y157.458 E3.82031
G1 X130.655 Y158.114 E3.84497
G1 X130.32 Y158.668 E3.86651
G1 X129.963 Y159.196 E3.88771
G1 X129.837 Y159.364 E3.89469
G1 X129.653 Y159.597 E3.90456
G1 X129.384 Y159.923 E3.91862
G1 X129.048 Y160.3 E3.93542
G1 X128.899 Y160.454 E3.94255
G1 X128.65 Y160.697 E3.95412
G1 X128.307 Y161.015 E3.96967
G1 X127.751 Y161.475 E3.99368
G1 X127.25 Y161.844 E4.01437
G1 X126.792 Y162.152 E4.03273
G1 X126.612 Y162.262 E4.03974
G1 X126.294 Y162.444 E4.05193
G1 X125.894 Y162.658 E4.06702
G1 X125.396 Y162.898 E4.08541
G1 X125.179 Y162.991 E4.09326
G1 X124.898 Y163.103 E4.10332
G1 X124.51 Y163.248 E4.1171
G1 X123.99 Y163.417 E4.13528
G1 X123.775 Y163.477 E4.14271
G1 X123.495 Y163.549 E4.15232
G1 X123.062 Y163.649 E4.1671
G1 X122.501 Y163.752 E4.18607
G1 X122.299 Y163.78 E4.19286
G1 X122.027 Y163.812 E4.20196
G1 X121.576 Y163.855 E4.21703
G1 X121.07 Y163.883 E4.23389
G1 X120.437 Y163.893 E4.25494
G1 X120.34 Y163.894 E4.25817
G1 X111.673 Y163.9 E4.54644
G1 X111.562 Y163.899 E4.55013
G1 X110.422 Y163.88 E4.58805
G1 X109.805 Y163.84 E4.60862
G1 X109.146 Y163.765 E4.63068
G1 X108.818 Y163.719 E4.64169
G1 X108.62 Y163.686 E4.64837
G1 X107.883 Y163.518 E4.67351
G1 X107.258 Y163.336 E4.69516
G1 X106.645 Y163.123 E4.71674
G1 X106.445 Y163.042 E4.72392
G1 X106.179 Y162.927 E4.73356
G1 X105.78 Y162.744 E4.74816
G1 X105.142 Y162.407 E4.77216
G1 X104.585 Y162.071 E4.79379
G1 X104.051 Y161.711 E4.81521
G1 X103.879 Y161.582 E4.82236
G1 X103.631 Y161.386 E4.83288
G1 X103.301 Y161.112 E4.84714
G1 X102.769 Y160.617 E4.87131
G1 X102.307 Y160.135 E4.89352
G1 X101.761 Y159.483 E4.92181
G1 X101.383 Y158.966 E4.94311
G1 X101.049 Y158.462 E4.96322
G1 X100.93 Y158.262 E4.97096
G1 X100.78 Y157.996 E4.98111
G1 X100.582 Y157.624 E4.99513
G1 X100.349 Y157.138 E5.01306
G1 X100.262 Y156.935 E5.0204
G1 X100.148 Y156.65 E5.03061
G1 X100 Y156.253 E5.0447
G1 X99.839 Y155.76 E5.06195
G1 X99.779 Y155.548 E5.06928
G1 X99.701 Y155.245 E5.07969
G1 X99.601 Y154.812 E5.09447
G1 X99.498 Y154.251 E5.11344
G1 X99.47 Y154.049 E5.12022
G1 X99.438 Y153.777 E5.12933
G1 X99.395 Y153.326 E5.1444
G1 X99.367 Y152.822 E5.16119
G1 X99.357 Y152.203 E5.18178
G1 X99.356 Y152.101 E5.18517
G1 X99.35 Y83.386 E7.47064
G1 X99.35 Y83.318 E7.4729
G1 X99.357 Y82.645 E7.49529
G1 X99.364 Y82.417 E7.50288
G1 X99.396 Y81.723 E7.52598
G1 X99.441 Y81.204 E7.54331
G1 X99.491 Y80.814 E7.55639
G1 X99.581 Y80.287 E7.57417
G1 X99.671 Y79.867 E7.58846
G1 X99.874 Y79.136 E7.61369
G1 X100.082 Y78.528 E7.63506
G1 X100.313 Y77.946 E7.65589
G1 X100.411 Y77.731 E7.66375
G1 X100.533 Y77.479 E7.67306
G1 X100.718 Y77.116 E7.68661
G1 X100.957 Y76.688 E7.70291
G1 X101.076 Y76.493 E7.71051
G1 X101.265 Y76.202 E7.72205
G1 X101.509 Y75.847 E7.73638
G0 F3600 X101.838 Y76.073
G1 F1800 X102.126 Y75.688 E7.75237
G1 X102.256 Y75.528 E7.75923
G1 X102.464 Y75.286 E7.76984
G1 X102.769 Y74.949 E7.78496
G1 X103.111 Y74.601 E7.80119
G1 X103.258 Y74.463 E7.80789
G1 X103.483 Y74.262 E7.81793
G1 X103.82 Y73.976 E7.83263
G1 X104.18 Y73.694 E7.84784
G1 X104.351 Y73.57 E7.85487
G1 X104.6 Y73.398 E7.86493
G1 X104.978 Y73.152 E7.87993
G1 X105.608 Y72.794 E7.90403
G1 X106.193 Y72.507 E7.9257
G1 X106.705 Y72.285 E7.94427
G1 X106.905 Y72.209 E7.95138
G1 X107.187 Y72.11 E7.96132
G1 X107.61 Y71.973 E7.97611
G1 X108.275 Y71.799 E7.99897
G1 X108.901 Y71.673 E8.02021
G1 X109.651 Y71.571 E8.04539
G1 X110.106 Y71.538 E8.06056
G1 X110.427 Y71.523 E8.07125
G1 X111.54 Y71.502 E8.10827
G1 X111.652 Y71.501 E8.112
G1 X119.819 Y71.5 E8.38363
G1 X119.919 Y71.501 E8.38696
G1 X121.073 Y71.52 E8.42535
G1 X121.656 Y71.558 E8.44478
G1 X122.312 Y71.633 E8.46674
G1 X122.616 Y71.676 E8.47695
G1 X122.814 Y71.709 E8.48363
G1 X123.506 Y71.866 E8.50723
G1 X124.131 Y72.048 E8.52888
G1 X124.705 Y72.248 E8.5491
G1 X124.905 Y72.329 E8.55627
G1 X125.154 Y72.436 E8.56529
G1 X125.553 Y72.619 E8.57989
G1 X126.153 Y72.936 E8.60246
G1 X126.708 Y73.271 E8.62402
G1 X127.198 Y73.601 E8.64367
G1 X127.364 Y73.725 E8.65056
G1 X127.585 Y73.899 E8.65991
G1 X127.901 Y74.159 E8.67353
G1 X128.252 Y74.472 E8.68917
G1 X128.417 Y74.631 E8.69679
G1 X128.648 Y74.866 E8.70775
G1 X128.965 Y75.207 E8.72323
G1 X129.409 Y75.743 E8.74638
G1 X129.786 Y76.257 E8.76758
G1 X130.093 Y76.719 E8.78603
G1 X130.21 Y76.914 E8.7936
G1 X130.362 Y77.183 E8.80387
G1 X130.561 Y77.557 E8.81796
G1 X130.773 Y77.999 E8.83427
G1 X130.864 Y78.21 E8.84191
G1 X130.972 Y78.478 E8.85152
G1 X131.118 Y78.867 E8.86534
G1 X131.276 Y79.347 E8.88215
G1 X131.338 Y79.567 E8.88975
G1 X131.408 Y79.842 E8.89919
G1 X131.508 Y80.274 E8.91394
G1 X131.58 Y80.631 E8.92605
G1 X131.695 Y81.314 E8.94909
G1 X132.17 Y83.892 E9.03628
G1 X132.731 Y86.516 E9.12552
G1 X133.363 Y89.113 E9.21442
G1 X134.064 Y91.67 E9.3026
G1 X134.343 Y92.589 E9.33455
G1 X134.359 Y92.642 E9.33639
G1 X134.76 Y94.007 E9.38371
G1 X134.842 Y94.316 E9.39434
G1 X134.904 Y94.578 E9.4033
G1 X134.932 Y94.706 E9.40765
G1 X134.991 Y94.982 E9.41704
G1 X135.062 Y95.378 E9.43042
G1 X135.123 Y95.8 E9.4446
G1 X135.143 Y95.95 E9.44964
G1 X135.167 Y96.152 E9.4564
G1 X135.199 Y96.509 E9.46832
G1 X135.22 Y96.867 E9.48025
G1 X135.227 Y97.04 E9.48601
G1 X135.235 Y97.31 E9.49499
G1 X135.236 Y97.638 E9.5059
G1 X135.228 Y97.957 E9.51652
G1 X135.221 Y98.137 E9.52251
G1 X135.206 Y98.409 E9.53157
G1 X135.177 Y98.75 E9.54295
G1 X135.134 Y99.132 E9.55574
G1 X135.11 Y99.323 E9.56214
G1 X135.075 Y99.564 E9.57024
G1 X135.05 Y99.719 E9.57546
G1 X134.912 Y100.521 E9.60253
G1 X134.894 Y100.619 E9.60584
G1 X134.761 Y101.324 E9.6297
G1 X134.341 Y103.943 E9.71793
G1 X133.995 Y106.579 E9.80635
G1 X133.722 Y109.237 E9.89522
G1 X133.525 Y111.893 E9.9838
G1 X133.403 Y114.556 E10.07247
G1 X133.358 Y117.183 E10.15986
G1 X133.386 Y119.886 E10.24976
G1 X133.49 Y122.514 E10.33724
G1 X133.668 Y125.143 E10.42488
G1 X133.925 Y127.825 E10.51449
G1 X134.252 Y130.445 E10.60231
G1 X134.662 Y133.122 E10.69238
G1 X134.966 Y134.803 E10.7492
G1 X134.981 Y134.888 E10.75207
G1 X135.072 Y135.437 E10.77058
G1 X135.094 Y135.578 E10.77533
G1 X135.135 Y135.868 E10.78507
G1 X135.175 Y136.235 E10.79735
G1 X135.208 Y136.652 E10.81126
G1 X135.22 Y136.84 E10.81753
G1 X135.231 Y137.071 E10.82522
G1 X135.237 Y137.461 E10.83819
G1 X135.228 Y137.977 E10.85536
G1 X135.205 Y138.409 E10.86975
G1 X135.164 Y138.865 E10.88497
G1 X135.146 Y139.041 E10.89086
G1 X135.121 Y139.25 E10.89786
G1 X135.07 Y139.59 E10.90929
G1 X135.021 Y139.865 E10.91858
G1 X134.984 Y140.052 E10.92492
G1 X134.92 Y140.355 E10.93522
G1 X134.847 Y140.662 E10.94572
G1 X134.764 Y140.973 E10.95643
G1 X134.714 Y141.15 E10.96254
G1 X134.321 Y142.46 E11.00803
G1 X133.592 Y145.018 E11.0965
G1 X132.935 Y147.6 E11.18511
G1 X132.354 Y150.177 E11.27298
G1 X131.637 Y153.994 E11.40215
G1 X131.54 Y154.572 E11.42164
G1 X131.383 Y155.256 E11.44499
G1 X131.203 Y155.875 E11.46643
G1 X131.005 Y156.447 E11.48656
G1 X130.923 Y156.65 E11.49384
G1 X130.819 Y156.893 E11.50263
G1 X130.637 Y157.292 E11.51722
G1 X130.312 Y157.907 E11.54035
G1 X129.977 Y158.461 E11.56189
G1 X129.643 Y158.956 E11.58175
G1 X129.517 Y159.124 E11.58873
G1 X129.345 Y159.343 E11.59799
G1 X129.076 Y159.669 E11.61205
G1 X128.76 Y160.022 E11.62781
G1 X128.611 Y160.176 E11.63494
G1 X128.378 Y160.404 E11.64578
G1 X128.035 Y160.722 E11.66134
G1 X127.514 Y161.153 E11.68383
G1 X127.013 Y161.522 E11.70452
G1 X126.584 Y161.811 E11.72172
G1 X126.404 Y161.921 E11.72874
G1 X126.105 Y162.091 E11.74018
G1 X125.705 Y162.305 E11.75527
G1 X125.239 Y162.53 E11.77248
G1 X125.022 Y162.623 E11.78033
G1 X124.758 Y162.728 E11.78978
G1 X124.37 Y162.873 E11.80356
G1 X123.883 Y163.032 E11.8206
G1 X123.668 Y163.092 E11.82802
G1 X123.405 Y163.159 E11.83705
G1 X122.972 Y163.259 E11.85183
G1 X122.446 Y163.356 E11.86962
G1 X122.244 Y163.384 E11.8764
G1 X121.989 Y163.414 E11.88494
G1 X121.538 Y163.457 E11.90001
G1 X121.064 Y163.483 E11.9158
G1 X120.431 Y163.493 E11.93686
G1 X120.34 Y163.494 E11.93988
G1 X111.673 Y163.5 E12.22815
G1 X111.569 Y163.499 E12.23161
G1 X110.429 Y163.48 E12.26953
G1 X109.851 Y163.443 E12.28879
G1 X109.192 Y163.368 E12.31085
G1 X108.884 Y163.324 E12.3212
G1 X108.686 Y163.291 E12.32788
G1 X107.994 Y163.134 E12.35148
G1 X107.369 Y162.952 E12.37313
G1 X106.795 Y162.752 E12.39335
G1 X106.595 Y162.671 E12.40052
G1 X106.346 Y162.564 E12.40954
G1 X105.947 Y162.381 E12.42414
G1 X105.349 Y162.065 E12.44663
G1 X104.792 Y161.729 E12.46827
G1 X104.291 Y161.391 E12.48837
G1 X104.119 Y161.262 E12.49552
G1 X103.886 Y161.078 E12.5054
G1 X103.556 Y160.804 E12.51966
G1 X103.057 Y160.34 E12.54232
G1 X102.595 Y159.858 E12.56453
G1 X102.084 Y159.247 E12.59102
G1 X101.706 Y158.73 E12.61232
G1 X101.393 Y158.257 E12.63119
G1 X101.274 Y158.057 E12.63893
G1 X101.134 Y157.808 E12.64843
G1 X100.936 Y157.436 E12.66245
G1 X100.717 Y156.981 E12.67924
G1 X100.63 Y156.778 E12.68659
G1 X100.523 Y156.51 E12.69619
G1 X100.375 Y156.113 E12.71028
G1 X100.224 Y155.651 E12.72644
G1 X100.164 Y155.439 E12.73377
G1 X100.091 Y155.155 E12.74353
G1 X99.991 Y154.722 E12.75831
G1 X99.894 Y154.196 E12.7761
G1 X99.866 Y153.994 E12.78288
G1 X99.836 Y153.739 E12.79142
G1 X99.793 Y153.288 E12.80649
G1 X99.767 Y152.816 E12.82221
G1 X99.757 Y152.197 E12.8428
G1 X99.756 Y152.101 E12.84599
G1 X99.75 Y83.386 E15.13146
G1 X99.75 Y83.323 E15.13356
G1 X99.757 Y82.65 E15.15594
G1 X99.763 Y82.436 E15.16306
G1 X99.795 Y81.742 E15.18617
G1 X99.838 Y81.255 E15.20243
G1 X99.888 Y80.865 E15.21551
G1 X99.972 Y80.371 E15.23218
G1 X100.062 Y79.951 E15.24646
G1 X100.252 Y79.266 E15.27011
G1 X100.46 Y78.658 E15.29148
G1 X100.677 Y78.111 E15.31105
G1 X100.775 Y77.896 E15.31891
G1 X100.889 Y77.661 E15.3276
G1 X101.074 Y77.298 E15.34115
G1 X101.298 Y76.896 E15.35645
G1 X101.417 Y76.701 E15.36405
G1 X101.594 Y76.428 E15.37487
G1 X101.838 Y76.073 E15.3892
G0 F3600 X102.168 Y76.3
G1 F1800 X102.437 Y75.941 E15.40412
G1 X102.567 Y75.781 E15.41098
G1 X102.761 Y75.554 E15.42091
G1 X103.066 Y75.217 E15.43603
G1 X103.385 Y74.892 E15.45117
G1 X103.532 Y74.754 E15.45788
G1 X103.741 Y74.567 E15.46721
G1 X104.078 Y74.281 E15.48191
G1 X104.415 Y74.017 E15.49615
G1 X104.586 Y73.893 E15.50317
G1 X104.818 Y73.733 E15.51255
G1 X105.196 Y73.487 E15.52755
G1 X105.784 Y73.153 E15.55004
G1 X106.369 Y72.866 E15.57171
G1 X106.847 Y72.659 E15.58904
G1 X107.047 Y72.583 E15.59615
G1 X107.311 Y72.49 E15.60546
G1 X107.734 Y72.353 E15.62025
G1 X108.354 Y72.191 E15.64156
G1 X108.98 Y72.065 E15.6628
G1 X109.68 Y71.97 E15.6863
G1 X110.135 Y71.937 E15.70147
G1 X110.434 Y71.923 E15.71143
G1 X111.547 Y71.902 E15.74845
G1 X111.652 Y71.901 E15.75194
G1 X119.819 Y71.9 E16.02358
G1 X119.912 Y71.901 E16.02667
G1 X121.066 Y71.92 E16.06506
G1 X121.61 Y71.955 E16.08319
G1 X122.266 Y72.03 E16.10515
G1 X122.551 Y72.07 E16.11472
G1 X122.749 Y72.103 E16.1214
G1 X123.394 Y72.25 E16.1434
G1 X124.019 Y72.432 E16.16505
G1 X124.555 Y72.619 E16.18394
G1 X124.755 Y72.7 E16.19111
G1 X124.988 Y72.8 E16.19955
G1 X125.387 Y72.983 E16.21415
G1 X125.946 Y73.279 E16.23518
G1 X126.501 Y73.614 E16.25675
G1 X126.958 Y73.922 E16.27508
G1 X127.124 Y74.046 E16.28197
G1 X127.331 Y74.208 E16.29071
G1 X127.647 Y74.468 E16.30432
G1 X127.975 Y74.76 E16.31893
G1 X128.14 Y74.919 E16.32655
