;FLAVOR:Marlin
;TIME:2651
;Filament used: 2.0342m
;Layer height: 0.2
;MINX:107.1
;MINY:75.112
;MINZ:0.2
;MAXX:127.9
;MAXY:159.888
;MAXZ:20
;Generated with Cura_SteamEngine 4.1.0
M140 S60
M105
M190 S60
M104 S200
M105
M109 S200
M82 ;absolute extrusion mode
; Ender 3 Custom Start G-code
G28 ; Home all axes
G92 E0 ; Reset Extruder
G1 Z2.0 F3000 ; Move Z Axis up little to prevent scratching of Heat Bed
G1 X0.1 Y20 Z0.3 F5000.0 ; Move to start position
G1 X0.1 Y200.0 Z0.3 F1500.0 E15 ; Draw the first line
G1 X0.4 Y200.0 Z0.3 F5000.0 ; Move to side a little
G1 X0.4 Y20 Z0.3 F1500.0 E30 ; Draw the second line
G92 E0 ; Reset Extruder
G1 Z2.0 F3000 ; Move Z Axis up little to prevent scratching of Heat Bed
; End of custom start GCode
G92 E0
G92 E0
G1 F2400 E-5
;LAYER_COUNT:100
;LAYER:0
M107
M204 S500
M205 X10 Y10
G0 F3600 X108.134 Y78.049 Z0.2
;TYPE:SKIRT
G1 F2400 E0
G1 F1800 X108.555 Y77.471 E0.02378
G1 X109.038 Y76.943 E0.04758
G1 X109.577 Y76.473 E0.07137
G1 X110.165 Y76.066 E0.09515
G1 X110.795 Y75.726 E0.11897
G1 X111.459 Y75.46 E0.14276
G1 X112.148 Y75.269 E0.16654
G1 X112.854 Y75.156 E0.19032
G1 X113.321 Y75.125 E0.20588
G1 X113.626 Y75.116 E0.21603
G1 X113.814 Y75.113 E0.22229
G1 X120.786 Y75.112 E0.45418
G1 X120.878 Y75.113 E0.45724
G1 X121.581 Y75.123 E0.48062
G1 X122.295 Y75.173 E0.50443
G1 X122.998 Y75.302 E0.5282
G1 X123.683 Y75.509 E0.552
G1 X124.34 Y75.792 E0.57579
G1 X124.961 Y76.145 E0.59955
G1 X125.54 Y76.566 E0.62336
G1 X126.067 Y77.049 E0.64714
G1 X126.538 Y77.588 E0.67094
G1 X126.945 Y78.176 E0.69473
G1 X127.285 Y78.805 E0.71851
G1 X127.552 Y79.469 E0.74231
G1 X127.743 Y80.158 E0.76609
G1 X127.856 Y80.864 E0.78987
G1 X127.887 Y81.329 E0.80538
G1 X127.896 Y81.627 E0.81529
G1 X127.899 Y81.82 E0.82171
G1 X127.9 Y152.751 E3.18089
G1 X127.9 Y152.83 E3.18351
G1 X127.891 Y153.557 E3.2077
G1 X127.842 Y154.271 E3.2315
G1 X127.714 Y154.975 E3.2553
G1 X127.508 Y155.66 E3.27909
G1 X127.227 Y156.317 E3.30286
G1 X126.874 Y156.94 E3.32667
G1 X126.454 Y157.519 E3.35046
G1 X125.972 Y158.047 E3.37424
G1 X125.435 Y158.519 E3.39802
G1 X124.847 Y158.927 E3.42182
G1 X124.218 Y159.268 E3.44562
G1 X123.555 Y159.536 E3.46941
G1 X122.866 Y159.728 E3.4932
G1 X122.16 Y159.843 E3.51699
G1 X121.679 Y159.875 E3.53302
G1 X121.373 Y159.884 E3.5432
G1 X121.186 Y159.887 E3.54942
G1 X114.214 Y159.888 E3.78131
G1 X114.121 Y159.887 E3.78441
G1 X113.429 Y159.877 E3.80742
G1 X112.715 Y159.827 E3.83123
G1 X112.012 Y159.697 E3.85501
G1 X111.327 Y159.49 E3.87881
G1 X110.67 Y159.208 E3.90259
G1 X110.048 Y158.854 E3.92639
G1 X109.47 Y158.433 E3.95018
G1 X108.943 Y157.95 E3.97395
G1 X108.472 Y157.411 E3.99776
G1 X108.065 Y156.823 E4.02154
G1 X107.726 Y156.193 E4.04534
G1 X107.459 Y155.53 E4.06911
G1 X107.268 Y154.84 E4.09292
G1 X107.132 Y153.854 E4.12603
G1 X107.111 Y153.497 E4.13792
G1 X107.1 Y153.121 E4.15043
G1 X107.1 Y82.211 E6.50891
G1 X107.101 Y82.118 E6.512
G1 X107.111 Y81.429 E6.53492
G1 X107.161 Y80.716 E6.5587
G1 X107.291 Y80.012 E6.58251
G1 X107.498 Y79.328 E6.60628
G1 X107.78 Y78.671 E6.63006
G1 X108.134 Y78.049 E6.65386
G0 F3600 X108.531 Y78.174
G1 F1800 X108.95 Y77.623 E6.67688
G1 X109.429 Y77.123 E6.69991
G1 X109.964 Y76.682 E6.72297
G1 X110.545 Y76.306 E6.74599
G1 X111.166 Y75.999 E6.76903
G1 X111.818 Y75.766 E6.79206
G1 X112.492 Y75.609 E6.81508
G1 X113.333 Y75.525 E6.84319
G1 X113.638 Y75.516 E6.85334
G1 X113.814 Y75.513 E6.85919
G1 X120.786 Y75.512 E7.09108
G1 X120.872 Y75.513 E7.09394
G1 X121.575 Y75.523 E7.11733
G1 X122.266 Y75.572 E7.14037
G1 X122.946 Y75.701 E7.16339
G1 X123.607 Y75.908 E7.18642
G1 X124.24 Y76.189 E7.20946
G1 X124.836 Y76.542 E7.2325
G1 X125.388 Y76.961 E7.25555
G1 X125.888 Y77.44 E7.27858
G1 X126.329 Y77.974 E7.30161
G1 X126.705 Y78.555 E7.32463
G1 X127.012 Y79.176 E7.34767
G1 X127.246 Y79.828 E7.37071
G1 X127.403 Y80.503 E7.39376
G1 X127.487 Y81.341 E7.42177
G1 X127.496 Y81.639 E7.43169
G1 X127.499 Y81.82 E7.43771
G1 X127.5 Y152.751 E9.79688
G1 X127.5 Y152.825 E9.79934
G1 X127.491 Y153.552 E9.82353
G1 X127.442 Y154.243 E9.84657
G1 X127.314 Y154.924 E9.86961
G1 X127.109 Y155.585 E9.89263
G1 X126.829 Y156.218 E9.91565
G1 X126.477 Y156.815 E9.9387
G1 X126.06 Y157.368 E9.96174
G1 X125.581 Y157.868 E9.98477
G1 X125.048 Y158.31 E10.0078
G1 X124.467 Y158.688 E10.03085
G1 X123.847 Y158.996 E10.05388
G1 X123.196 Y159.231 E10.0769
G1 X122.521 Y159.389 E10.09996
G1 X121.667 Y159.475 E10.12851
G1 X121.361 Y159.484 E10.13869
G1 X121.186 Y159.487 E10.14451
G1 X114.214 Y159.488 E10.3764
G1 X114.126 Y159.487 E10.37933
G1 X113.434 Y159.477 E10.40234
G1 X112.744 Y159.427 E10.42535
G1 X112.063 Y159.298 E10.44841
G1 X111.402 Y159.091 E10.47144
G1 X110.77 Y158.81 E10.49445
G1 X110.173 Y158.457 E10.51752
G1 X109.622 Y158.038 E10.54054
G1 X109.122 Y157.559 E10.56357
G1 X108.682 Y157.025 E10.58658
G1 X108.305 Y156.443 E10.60965
G1 X107.998 Y155.823 E10.63266
G1 X107.765 Y155.171 E10.65569
G1 X107.608 Y154.496 E10.67874
G1 X107.531 Y153.83 E10.70103
G1 X107.51 Y153.473 E10.71293
G1 X107.5 Y153.121 E10.72464
G1 X107.5 Y82.211 E13.08312
G1 X107.501 Y82.124 E13.08601
G1 X107.511 Y81.435 E13.10893
G1 X107.561 Y80.744 E13.13197
G1 X107.69 Y80.064 E13.15499
G1 X107.897 Y79.403 E13.17803
G1 X108.178 Y78.77 E13.20107
G1 X108.531 Y78.174 E13.2241
G0 F3600 X108.927 Y78.304
G1 F1800 X109.344 Y77.78 E13.24638
G1 X109.82 Y77.31 E13.26863
G1 X110.348 Y76.9 E13.29086
G1 X110.922 Y76.556 E13.31312
G1 X111.533 Y76.283 E13.33538
G1 X112.172 Y76.084 E13.35764
G1 X112.83 Y75.963 E13.37989
G1 X113.345 Y75.924 E13.39707
G1 X113.65 Y75.915 E13.40722
G1 X113.814 Y75.913 E13.41267
G1 X120.786 Y75.912 E13.64456
G1 X120.867 Y75.913 E13.64725
G1 X121.57 Y75.923 E13.67064
G1 X122.237 Y75.972 E13.69288
G1 X122.893 Y76.101 E13.71512
G1 X123.53 Y76.307 E13.73739
G1 X124.137 Y76.587 E13.75962
G1 X124.707 Y76.938 E13.78188
G1 X125.231 Y77.355 E13.80416
G1 X125.701 Y77.83 E13.82638
G1 X126.111 Y78.359 E13.84864
G1 X126.455 Y78.933 E13.8709
G1 X126.729 Y79.543 E13.89314
G1 X126.927 Y80.182 E13.91539
G1 X127.048 Y80.84 E13.93764
G1 X127.087 Y81.353 E13.95476
G1 X127.096 Y81.651 E13.96467
G1 X127.099 Y81.82 E13.97029
G1 X127.1 Y152.751 E16.32947
G1 X127.1 Y152.82 E16.33176
G1 X127.091 Y153.547 E16.35595
G1 X127.042 Y154.215 E16.37822
G1 X126.915 Y154.871 E16.40045
G1 X126.71 Y155.508 E16.4227
G1 X126.431 Y156.116 E16.44495
G1 X126.081 Y156.686 E16.4672
G1 X125.665 Y157.211 E16.48948
G1 X125.19 Y157.682 E16.51173
G1 X124.663 Y158.093 E16.53396
G1 X124.09 Y158.439 E16.55622
G1 X123.48 Y158.713 E16.57846
G1 X122.841 Y158.913 E16.60073
G1 X122.183 Y159.035 E16.62299
G1 X121.656 Y159.076 E16.64057
G1 X121.35 Y159.085 E16.65075
G1 X121.186 Y159.087 E16.65621
G1 X114.214 Y159.088 E16.8881
G1 X114.132 Y159.087 E16.89082
G1 X113.44 Y159.077 E16.91384
G1 X112.773 Y159.028 E16.93609
G1 X112.116 Y158.899 E16.95836
G1 X111.48 Y158.693 E16.98059
G1 X110.873 Y158.412 E17.00284
G1 X110.303 Y158.061 E17.0251
G1 X109.779 Y157.645 E17.04736
G1 X109.309 Y157.169 E17.06961
G1 X108.899 Y156.64 E17.09187
G1 X108.555 Y156.066 E17.11412
G1 X108.282 Y155.456 E17.13635
G1 X108.083 Y154.817 E17.15861
G1 X107.963 Y154.159 E17.18086
G1 X107.931 Y153.807 E17.19261
G1 X107.91 Y153.45 E17.20451
G1 X107.9 Y153.121 E17.21545
G1 X107.9 Y82.211 E19.57393
G1 X107.901 Y82.13 E19.57663
G1 X107.911 Y81.441 E19.59954
G1 X107.96 Y80.774 E19.62179
G1 X108.089 Y80.117 E19.64406
G1 X108.295 Y79.481 E19.66629
G1 X108.576 Y78.873 E19.68857
G1 X108.927 Y78.304 E19.71081
G0 F3600 X109.323 Y78.438
G1 F1800 X109.737 Y77.944 E19.73224
G1 X110.208 Y77.505 E19.75366
G1 X110.731 Y77.127 E19.77512
G1 X111.296 Y76.817 E19.79656
G1 X111.895 Y76.579 E19.81799
G1 X112.519 Y76.417 E19.83944
G1 X113.357 Y76.324 E19.86748
G1 X113.662 Y76.315 E19.87763
G1 X113.814 Y76.313 E19.88268
G1 X120.786 Y76.312 E20.11457
G1 X120.861 Y76.313 E20.11707
G1 X121.564 Y76.323 E20.14045
G1 X122.207 Y76.372 E20.1619
G1 X122.839 Y76.5 E20.18335
G1 X123.45 Y76.705 E20.20478
G1 X124.031 Y76.985 E20.22624
G1 X124.572 Y77.334 E20.24765
G1 X125.067 Y77.748 E20.26911
G1 X125.506 Y78.219 E20.29053
G1 X125.884 Y78.742 E20.31199
G1 X126.195 Y79.307 E20.33344
G1 X126.432 Y79.906 E20.35487
G1 X126.594 Y80.53 E20.37631
G1 X126.688 Y81.365 E20.40426
G1 X126.697 Y81.663 E20.41417
G1 X126.699 Y81.82 E20.41939
G1 X126.7 Y152.751 E22.77857
G1 X126.7 Y152.815 E22.7807
G1 X126.691 Y153.542 E22.80488
G1 X126.643 Y154.185 E22.82632
G1 X126.516 Y154.817 E22.84777
G1 X126.311 Y155.429 E22.86923
G1 X126.033 Y156.01 E22.89065
G1 X125.685 Y156.553 E22.91211
G1 X125.272 Y157.048 E22.93355
G1 X124.801 Y157.488 E22.95498
G1 X124.279 Y157.867 E22.97644
G1 X123.715 Y158.178 E22.99786
G1 X123.116 Y158.417 E23.01931
G1 X122.493 Y158.581 E23.04074
G1 X121.644 Y158.676 E23.06915
G1 X121.338 Y158.685 E23.07933
G1 X121.186 Y158.687 E23.08439
G1 X114.214 Y158.688 E23.31628
G1 X114.138 Y158.687 E23.31881
G1 X113.446 Y158.677 E23.34183
G1 X112.803 Y158.628 E23.36328
G1 X112.171 Y158.5 E23.38472
G1 X111.56 Y158.294 E23.40617
G1 X110.979 Y158.015 E23.4276
G1 X110.438 Y157.665 E23.44904
G1 X109.943 Y157.252 E23.47048
G1 X109.504 Y156.78 E23.49192
G1 X109.126 Y156.257 E23.51338
G1 X108.816 Y155.692 E23.53481
G1 X108.578 Y155.093 E23.55625
G1 X108.416 Y154.469 E23.57769
G1 X108.33 Y153.783 E23.60069
G1 X108.309 Y153.426 E23.61258
G1 X108.3 Y153.121 E23.62273
G1 X108.3 Y82.211 E25.98121
G1 X108.301 Y82.136 E25.9837
G1 X108.311 Y81.447 E26.00662
G1 X108.36 Y80.804 E26.02807
G1 X108.488 Y80.172 E26.04952
G1 X108.694 Y79.561 E26.07096
G1 X108.974 Y78.98 E26.09241
G1 X109.323 Y78.438 E26.11386
G1 F2400 E21.11386
;MESH:EndY.stl
G0 F3600 X112.835 Y82.127
G0 X114.114 Y82.127
G0 X114.3 Y152.787
G0 X114.3 Y152.888
;TYPE:WALL-INNER
G1 F2400 E26.11386
G1 F1800 X114.1 Y152.888 E26.12051
G1 X114.1 Y152.688 E26.12481
G1 X114.1 Y82.113 E28.47215
G1 X120.7 Y82.112 E28.69167
G1 X120.9 Y82.112 E28.69832
G1 X120.9 Y82.312 E28.70263
G1 X120.9 Y152.887 E31.04996
G1 X114.3 Y152.888 E31.26948
G0 F3600 X113.9 Y153.288
;TYPE:WALL-OUTER
G1 F1800 X113.7 Y153.288 E31.27613
G1 X113.7 Y153.088 E31.28044
G1 X113.7 Y81.713 E33.65438
G1 X121.1 Y81.712 E33.9005
G1 X121.3 Y81.712 E33.90715
G1 X121.3 Y81.912 E33.91146
G1 X121.3 Y153.287 E36.2854
G1 X113.9 Y153.288 E36.53153
G0 F3600 X113.7 Y153.288
G0 X114.17 Y152.818
G0 X114.49 Y152.498
;TYPE:SKIN
G1 F1800 X114.49 Y82.503 E38.85957
G1 X120.51 Y82.502 E39.0598
G1 X120.51 Y152.497 E41.38784
G1 X114.49 Y152.498 E41.58807
G0 F3600 X114.981 Y152.317
G1 F1800 X114.669 Y152.004 E41.60277
G0 F3600 X114.669 Y151.438
G1 F1800 X115.547 Y152.317 E41.64409
G0 F3600 X116.113 Y152.317
G1 F1800 X114.669 Y150.873 E41.71201
G0 F3600 X114.669 Y150.307
G1 F1800 X116.678 Y152.317 E41.80653
G0 F3600 X117.244 Y152.317
G1 F1800 X114.669 Y149.741 E41.92767
G0 F3600 X114.669 Y149.176
G1 F1800 X117.809 Y152.316 E42.07537
G0 F3600 X118.375 Y152.316
G1 F1800 X114.669 Y148.61 E42.24969
G0 F3600 X114.669 Y148.044
G1 F1800 X118.941 Y152.316 E42.45063
G0 F3600 X119.506 Y152.316
G1 F1800 X114.669 Y147.479 E42.67815
G0 F3600 X114.669 Y146.913
G1 F1800 X120.072 Y152.316 E42.93229
G0 F3600 X120.329 Y152.008
G1 F1800 X114.669 Y146.347 E43.19854
G0 F3600 X114.669 Y145.782
G1 F1800 X120.329 Y151.442 E43.46477
G0 F3600 X120.329 Y150.876
G1 F1800 X114.669 Y145.216 E43.731
G0 F3600 X114.669 Y144.65
G1 F1800 X120.329 Y150.311 E43.99725
G0 F3600 X120.329 Y149.745
G1 F1800 X114.669 Y144.085 E44.26348
G0 F3600 X114.669 Y143.519
G1 F1800 X120.329 Y149.179 E44.52971
G0 F3600 X120.329 Y148.614
G1 F1800 X114.669 Y142.953 E44.79596
G0 F3600 X114.669 Y142.387
G1 F1800 X120.329 Y148.048 E45.06222
G0 F3600 X120.329 Y147.482
G1 F1800 X114.669 Y141.822 E45.32844
G0 F3600 X114.669 Y141.256
G1 F1800 X120.329 Y146.916 E45.59467
G0 F3600 X120.329 Y146.351
G1 F1800 X114.669 Y140.69 E45.86093
G0 F3600 X114.669 Y140.125
G1 F1800 X120.329 Y145.785 E46.12715
G0 F3600 X120.329 Y145.219
G1 F1800 X114.669 Y139.559 E46.39338
G0 F3600 X114.669 Y138.993
G1 F1800 X120.329 Y144.654 E46.65964
G0 F3600 X120.329 Y144.088
G1 F1800 X114.669 Y138.428 E46.92587
G0 F3600 X114.669 Y137.862
G1 F1800 X120.329 Y143.522 E47.19209
G0 F3600 X120.329 Y142.957
G1 F1800 X114.669 Y137.296 E47.45835
G0 F3600 X114.669 Y136.731
G1 F1800 X120.329 Y142.391 E47.72458
G0 F3600 X120.329 Y141.825
G1 F1800 X114.669 Y136.165 E47.99081
G0 F3600 X114.669 Y135.599
G1 F1800 X120.329 Y141.26 E48.25706
G0 F3600 X120.329 Y140.694
G1 F1800 X114.669 Y135.034 E48.52329
G0 F3600 X114.669 Y134.468
G1 F1800 X120.329 Y140.128 E48.78952
G0 F3600 X120.329 Y139.563
G1 F1800 X114.669 Y133.902 E49.05577
G0 F3600 X114.669 Y133.337
G1 F1800 X120.329 Y138.997 E49.322
G0 F3600 X120.329 Y138.431
G1 F1800 X114.669 Y132.771 E49.58823
G0 F3600 X114.669 Y132.205
G1 F1800 X120.329 Y137.866 E49.85448
G0 F3600 X120.329 Y137.3
G1 F1800 X114.669 Y131.639 E50.12073
G0 F3600 X114.669 Y131.074
G1 F1800 X120.329 Y136.734 E50.38696
G0 F3600 X120.329 Y136.168
G1 F1800 X114.669 Y130.508 E50.65319
G0 F3600 X114.669 Y129.942
G1 F1800 X120.329 Y135.603 E50.91944
G0 F3600 X120.329 Y135.037
G1 F1800 X114.669 Y129.377 E51.18567
G0 F3600 X114.669 Y128.811
G1 F1800 X120.329 Y134.471 E51.4519
G0 F3600 X120.329 Y133.906
G1 F1800 X114.669 Y128.245 E51.71815
G0 F3600 X114.669 Y127.68
G1 F1800 X120.329 Y133.34 E51.98438
G0 F3600 X120.329 Y132.774
G1 F1800 X114.669 Y127.114 E52.25061
G0 F3600 X114.669 Y126.548
G1 F1800 X120.329 Y132.209 E52.51686
G0 F3600 X120.329 Y131.643
G1 F1800 X114.669 Y125.983 E52.78309
G0 F3600 X114.669 Y125.417
G1 F1800 X120.329 Y131.077 E53.04932
G0 F3600 X120.329 Y130.512
G1 F1800 X114.669 Y124.851 E53.31557
G0 F3600 X114.669 Y124.286
G1 F1800 X120.329 Y129.946 E53.5818
G0 F3600 X120.329 Y129.38
G1 F1800 X114.669 Y123.72 E53.84803
G0 F3600 X114.669 Y123.154
G1 F1800 X120.329 Y128.815 E54.11428
G0 F3600 X120.329 Y128.249
G1 F1800 X114.669 Y122.588 E54.38054
G0 F3600 X114.669 Y122.023
G1 F1800 X120.329 Y127.683 E54.64677
G0 F3600 X120.329 Y127.118
G1 F1800 X114.669 Y121.457 E54.91302
G0 F3600 X114.669 Y120.891
G1 F1800 X120.329 Y126.552 E55.17927
G0 F3600 X120.329 Y125.986
G1 F1800 X114.669 Y120.326 E55.4455
G0 F3600 X114.669 Y119.76
G1 F1800 X120.329 Y125.42 E55.71173
G0 F3600 X120.329 Y124.855
G1 F1800 X114.669 Y119.194 E55.97798
G0 F3600 X114.669 Y118.629
G1 F1800 X120.329 Y124.289 E56.24421
G0 F3600 X120.329 Y123.723
G1 F1800 X114.669 Y118.063 E56.51044
G0 F3600 X114.669 Y117.497
G1 F1800 X120.329 Y123.158 E56.77669
G0 F3600 X120.329 Y122.592
G1 F1800 X114.669 Y116.932 E57.04292
G0 F3600 X114.669 Y116.366
G1 F1800 X120.329 Y122.026 E57.30915
G0 F3600 X120.329 Y121.461
G1 F1800 X114.669 Y115.8 E57.5754
G0 F3600 X114.669 Y115.235
G1 F1800 X120.329 Y120.895 E57.84163
G0 F3600 X120.329 Y120.329
G1 F1800 X114.669 Y114.669 E58.10786
G0 F3600 X114.669 Y114.103
G1 F1800 X120.329 Y119.764 E58.37411
G0 F3600 X120.329 Y119.198
G1 F1800 X114.669 Y113.538 E58.64034
G0 F3600 X114.669 Y112.972
G1 F1800 X120.329 Y118.632 E58.90657
G0 F3600 X120.329 Y118.067
G1 F1800 X114.669 Y112.406 E59.17282
G0 F3600 X114.669 Y111.84
G1 F1800 X120.329 Y117.501 E59.43908
G0 F3600 X120.329 Y116.935
G1 F1800 X114.669 Y111.275 E59.70531
G0 F3600 X114.669 Y110.709
G1 F1800 X120.329 Y116.369 E59.97154
G0 F3600 X120.329 Y115.804
G1 F1800 X114.669 Y110.143 E60.23779
G0 F3600 X114.669 Y109.578
G1 F1800 X120.329 Y115.238 E60.50402
G0 F3600 X120.329 Y114.672
G1 F1800 X114.669 Y109.012 E60.77025
G0 F3600 X114.669 Y108.446
G1 F1800 X120.329 Y114.107 E61.0365
G0 F3600 X120.329 Y113.541
G1 F1800 X114.669 Y107.881 E61.30273
G0 F3600 X114.669 Y107.315
G1 F1800 X120.329 Y112.975 E61.56896
G0 F3600 X120.329 Y112.41
G1 F1800 X114.669 Y106.749 E61.83521
G0 F3600 X114.669 Y106.184
G1 F1800 X120.329 Y111.844 E62.10144
G0 F3600 X120.329 Y111.278
G1 F1800 X114.669 Y105.618 E62.36767
G0 F3600 X114.669 Y105.052
G1 F1800 X120.329 Y110.713 E62.63392
G0 F3600 X120.329 Y110.147
G1 F1800 X114.669 Y104.487 E62.90015
G0 F3600 X114.669 Y103.921
G1 F1800 X120.329 Y109.581 E63.16638
G0 F3600 X120.329 Y109.016
G1 F1800 X114.669 Y103.355 E63.43263
G0 F3600 X114.669 Y102.789
G1 F1800 X120.329 Y108.45 E63.69888
G0 F3600 X120.329 Y107.884
