;FLAVOR:Marlin
;TIME:3351
;Filament used: 1.86268m
;Layer height: 0.2
;MINX:99.027
;MINY:85.106
;MINZ:0.2
;MAXX:139.15
;MAXY:149.884
;MAXZ:30
;Generated with Cura_SteamEngine 4.1.0
M140 S60
M105
M190 S60
M104 S200
M105
M109 S200
M82 ;absolute extrusion mode
; Ender 3 Custom Start G-code
G28 ; Home all axes
G92 E0 ; Reset Extruder
G1 Z2.0 F3000 ; Move Z Axis up little to prevent scratching of Heat Bed
G1 X0.1 Y20 Z0.3 F5000.0 ; Move to start position
G1 X0.1 Y200.0 Z0.3 F1500.0 E15 ; Draw the first line
G1 X0.4 Y200.0 Z0.3 F5000.0 ; Move to side a little
G1 X0.4 Y20 Z0.3 F1500.0 E30 ; Draw the second line
G92 E0 ; Reset Extruder
G1 Z2.0 F3000 ; Move Z Axis up little to prevent scratching of Heat Bed
; End of custom start GCode
G92 E0
G92 E0
G1 F2400 E-5
;LAYER_COUNT:150
;LAYER:0
M107
M204 S500
M205 X10 Y10
G0 F3600 X110.35 Y87.762 Z0.2
;TYPE:SKIRT
G1 F2400 E0
G1 F1800 X110.801 Y87.207 E0.02379
G1 X111.312 Y86.706 E0.04759
G1 X111.875 Y86.265 E0.07137
G1 X112.484 Y85.89 E0.09516
G1 X113.131 Y85.585 E0.11895
G1 X113.808 Y85.354 E0.14274
G1 X114.506 Y85.2 E0.16652
G1 X115.42 Y85.118 E0.19704
G1 X115.989 Y85.108 E0.21597
G1 X116.1 Y85.107 E0.21966
G1 X127.06 Y85.106 E0.58419
G1 X127.072 Y85.106 E0.58459
G1 X132.089 Y85.115 E0.75146
G1 X132.175 Y85.116 E0.75432
G1 X132.836 Y85.126 E0.7763
G1 X133.549 Y85.176 E0.80008
G1 X134.253 Y85.307 E0.82389
G1 X134.937 Y85.514 E0.84766
G1 X135.594 Y85.797 E0.87146
G1 X136.215 Y86.151 E0.89523
G1 X136.793 Y86.573 E0.91903
G1 X137.32 Y87.056 E0.94281
G1 X137.791 Y87.595 E0.96662
G1 X138.197 Y88.184 E0.99041
G1 X138.536 Y88.814 E1.01421
G1 X138.803 Y89.477 E1.03798
G1 X138.993 Y90.167 E1.06178
G1 X139.106 Y90.873 E1.08556
G1 X139.139 Y91.455 E1.10495
G1 X139.15 Y92.46 E1.13838
G1 X139.15 Y142.747 E2.81093
G1 X139.149 Y142.835 E2.81386
G1 X139.139 Y143.562 E2.83804
G1 X139.09 Y144.276 E2.86184
G1 X138.961 Y144.979 E2.88562
G1 X138.754 Y145.664 E2.90942
G1 X138.472 Y146.321 E2.9332
G1 X138.118 Y146.943 E2.957
G1 X137.698 Y147.521 E2.98076
G1 X137.215 Y148.049 E3.00457
G1 X136.677 Y148.52 E3.02835
G1 X136.089 Y148.928 E3.05215
G1 X135.459 Y149.268 E3.07596
G1 X134.796 Y149.535 E3.09973
G1 X134.107 Y149.726 E3.12351
G1 X133.401 Y149.84 E3.1473
G1 X132.929 Y149.871 E3.16303
G1 X132.625 Y149.88 E3.17315
G1 X132.436 Y149.883 E3.17944
G1 X115.46 Y149.884 E3.74406
G1 X115.369 Y149.883 E3.74709
G1 X114.669 Y149.873 E3.77037
G1 X113.955 Y149.823 E3.79418
G1 X113.252 Y149.694 E3.81795
G1 X112.567 Y149.487 E3.84175
G1 X111.91 Y149.204 E3.86554
G1 X111.288 Y148.85 E3.88935
G1 X110.71 Y148.43 E3.91311
G1 X110.182 Y147.947 E3.93691
G1 X109.712 Y147.408 E3.9607
G1 X109.304 Y146.82 E3.9845
G1 X108.865 Y145.966 E4.01644
G1 X108.52 Y145.15 E4.0459
G1 X108.478 Y145.047 E4.0496
G1 X108.144 Y144.216 E4.07939
G1 X107.084 Y141.785 E4.1676
G1 X105.96 Y139.39 E4.25559
G1 X104.749 Y136.992 E4.34494
G1 X104.31 Y136.182 E4.37559
G1 X104.265 Y136.098 E4.37876
G1 X103.873 Y135.348 E4.4069
G1 X103.782 Y135.167 E4.41364
G1 X103.61 Y134.811 E4.42679
G1 X103.473 Y134.507 E4.43788
G1 X103.336 Y134.181 E4.44964
G1 X103.201 Y133.831 E4.46212
G1 X102.967 Y133.168 E4.48551
G1 X102.944 Y133.102 E4.48783
G1 X102.55 Y131.944 E4.52851
G1 X101.606 Y129.412 E4.61839
G1 X100.624 Y126.986 E4.70544
G1 X100.504 Y126.714 E4.71533
G1 X100.458 Y126.608 E4.71917
G1 X100 Y125.517 E4.75853
G1 X99.76 Y124.843 E4.78232
G1 X99.602 Y124.174 E4.80519
G1 X99.508 Y123.652 E4.82283
G1 X99.474 Y123.443 E4.82987
G1 X99.441 Y123.217 E4.83747
G1 X99.414 Y123.008 E4.84447
G1 X99.321 Y122.182 E4.87212
G1 X99.288 Y121.77 E4.88587
G1 X99.216 Y120.257 E4.93625
G1 X99.157 Y119.363 E4.96605
G1 X99.152 Y119.285 E4.96865
G1 X99.042 Y117.24 E5.03676
G1 X99.035 Y117.053 E5.04299
G1 X99.027 Y116.726 E5.05387
G1 X99.029 Y116.346 E5.0665
G1 X99.046 Y115.859 E5.08271
G1 X99.054 Y115.683 E5.08857
G1 X99.079 Y115.283 E5.1019
G1 X99.201 Y114.379 E5.13224
G1 X99.29 Y113.951 E5.14678
G1 X99.447 Y113.347 E5.16754
G1 X99.511 Y113.142 E5.17468
G1 X99.789 Y112.41 E5.20072
G1 X99.913 Y112.136 E5.21073
G1 X99.972 Y112.01 E5.21535
G1 X100.143 Y111.653 E5.22852
G1 X100.306 Y111.337 E5.24035
G1 X100.774 Y110.485 E5.27268
G1 X100.822 Y110.398 E5.27598
G1 X101.203 Y109.729 E5.30159
G1 X102.433 Y107.423 E5.38852
G1 X103.623 Y105.029 E5.47743
G1 X104.729 Y102.638 E5.56506
G1 X105.777 Y100.191 E5.65359
G1 X106.741 Y97.755 E5.74073
G1 X107.651 Y95.25 E5.82937
G1 X108.483 Y92.739 E5.91735
G1 X109.402 Y89.677 E6.02368
G1 X109.646 Y89.004 E6.04749
G1 X109.963 Y88.363 E6.07128
G1 X110.35 Y87.762 E6.09505
G0 F3600 X110.713 Y87.943
G1 F1800 X111.157 Y87.411 E6.1181
G1 X111.659 Y86.935 E6.14111
G1 X112.213 Y86.519 E6.16415
G1 X112.811 Y86.17 E6.18718
G1 X113.445 Y85.892 E6.21021
G1 X114.107 Y85.689 E6.23324
G1 X114.788 Y85.563 E6.25627
G1 X115.427 Y85.518 E6.27758
G1 X115.996 Y85.508 E6.2965
G1 X116.1 Y85.507 E6.29996
G1 X127.06 Y85.506 E6.66449
G1 X127.072 Y85.506 E6.66489
G1 X132.089 Y85.515 E6.83176
G1 X132.169 Y85.516 E6.83442
G1 X132.83 Y85.526 E6.85641
G1 X133.52 Y85.576 E6.87942
G1 X134.201 Y85.706 E6.90248
G1 X134.862 Y85.913 E6.92552
G1 X135.494 Y86.195 E6.94853
G1 X136.09 Y86.548 E6.97157
G1 X136.641 Y86.967 E6.9946
G1 X137.14 Y87.447 E7.01762
G1 X137.581 Y87.982 E7.04069
G1 X137.957 Y88.563 E7.0637
G1 X138.263 Y89.184 E7.08673
G1 X138.496 Y89.836 E7.10976
G1 X138.653 Y90.511 E7.13281
G1 X138.739 Y91.459 E7.16447
G1 X138.75 Y92.464 E7.1979
G1 X138.75 Y142.747 E8.87032
G1 X138.749 Y142.83 E8.87308
G1 X138.739 Y143.557 E8.89726
G1 X138.69 Y144.247 E8.92027
G1 X138.561 Y144.928 E8.94332
G1 X138.355 Y145.589 E8.96635
G1 X138.074 Y146.222 E8.98938
G1 X137.722 Y146.818 E9.0124
G1 X137.303 Y147.37 E9.03545
G1 X136.824 Y147.87 E9.05848
G1 X136.29 Y148.311 E9.08152
G1 X135.709 Y148.688 E9.10455
G1 X135.089 Y148.995 E9.12756
G1 X134.437 Y149.229 E9.1506
G1 X133.762 Y149.386 E9.17365
G1 X132.918 Y149.471 E9.20187
G1 X132.614 Y149.48 E9.21198
G1 X132.436 Y149.483 E9.2179
G1 X115.46 Y149.484 E9.78253
G1 X115.374 Y149.483 E9.78539
G1 X114.674 Y149.473 E9.80867
G1 X113.984 Y149.424 E9.83168
G1 X113.303 Y149.294 E9.85474
G1 X112.642 Y149.088 E9.87777
G1 X112.009 Y148.806 E9.90082
G1 X111.413 Y148.454 E9.92384
G1 X110.862 Y148.035 E9.94686
G1 X110.362 Y147.556 E9.96989
G1 X109.921 Y147.022 E9.99293
G1 X109.545 Y146.44 E10.01597
G1 X109.234 Y145.811 E10.03931
G1 X108.889 Y144.995 E10.06878
G1 X108.849 Y144.898 E10.07227
G1 X108.505 Y144.043 E10.10292
G1 X107.455 Y141.635 E10.19029
G1 X106.315 Y139.204 E10.2796
G1 X105.114 Y136.827 E10.36817
G1 X104.661 Y135.991 E10.3998
G1 X104.62 Y135.912 E10.40276
G1 X104.228 Y135.162 E10.43091
G1 X104.143 Y134.993 E10.4372
G1 X103.971 Y134.637 E10.45035
G1 X103.842 Y134.352 E10.46075
G1 X103.705 Y134.026 E10.47251
G1 X103.578 Y133.698 E10.48421
G1 X103.344 Y133.035 E10.5076
G1 X103.323 Y132.973 E10.50978
G1 X102.928 Y131.812 E10.55056
G1 X101.981 Y129.27 E10.64079
G1 X101.008 Y126.868 E10.72698
G1 X100.869 Y126.553 E10.73844
G1 X100.827 Y126.453 E10.74204
G1 X100.369 Y125.362 E10.7814
G1 X100.138 Y124.709 E10.80444
G1 X99.996 Y124.103 E10.82514
G1 X99.902 Y123.581 E10.84278
G1 X99.87 Y123.385 E10.84938
G1 X99.837 Y123.159 E10.85698
G1 X99.812 Y122.963 E10.86355
G1 X99.719 Y122.137 E10.8912
G1 X99.688 Y121.751 E10.90408
G1 X99.617 Y120.263 E10.95363
G1 X99.556 Y119.336 E10.98452
G1 X99.552 Y119.263 E10.98696
G1 X99.442 Y117.218 E11.05507
G1 X99.435 Y117.043 E11.0609
G1 X99.427 Y116.716 E11.07178
G1 X99.429 Y116.36 E11.08362
G1 X99.446 Y115.873 E11.09982
G1 X99.454 Y115.708 E11.10532
G1 X99.479 Y115.308 E11.11865
G1 X99.593 Y114.46 E11.14711
G1 X99.682 Y114.032 E11.16165
G1 X99.829 Y113.466 E11.1811
G1 X99.893 Y113.261 E11.18824
G1 X100.154 Y112.575 E11.21265
G1 X100.278 Y112.301 E11.22265
G1 X100.333 Y112.183 E11.22698
G1 X100.504 Y111.826 E11.24015
G1 X100.656 Y111.529 E11.25125
G1 X101.124 Y110.677 E11.28358
G1 X101.17 Y110.596 E11.28668
G1 X101.546 Y109.936 E11.31194
G1 X102.786 Y107.61 E11.39961
G1 X103.986 Y105.196 E11.48927
G1 X105.096 Y102.798 E11.57716
G1 X106.146 Y100.347 E11.66585
G1 X107.113 Y97.902 E11.7533
G1 X108.034 Y95.364 E11.8431
G1 X108.859 Y92.875 E11.93031
G1 X109.785 Y89.792 E12.03738
G1 X110.022 Y89.141 E12.06042
G1 X110.333 Y88.522 E12.08346
G1 X110.713 Y87.943 E12.1065
G0 F3600 X111.075 Y88.127
G1 F1800 X111.511 Y87.619 E12.12876
G1 X112.004 Y87.168 E12.15099
G1 X112.548 Y86.778 E12.17325
G1 X113.135 Y86.456 E12.19552
G1 X113.755 Y86.206 E12.21775
G1 X114.401 Y86.032 E12.24
G1 X115.064 Y85.937 E12.26228
G1 X115.434 Y85.918 E12.2746
G1 X116.003 Y85.908 E12.29353
G1 X116.1 Y85.907 E12.29676
G1 X127.06 Y85.906 E12.66129
G1 X127.071 Y85.906 E12.66165
G1 X132.088 Y85.915 E12.82852
G1 X132.163 Y85.916 E12.83101
G1 X132.824 Y85.926 E12.853
G1 X133.491 Y85.976 E12.87525
G1 X134.147 Y86.105 E12.89749
G1 X134.784 Y86.312 E12.91976
G1 X135.391 Y86.593 E12.94201
G1 X135.96 Y86.944 E12.96425
G1 X136.483 Y87.361 E12.98649
G1 X136.953 Y87.837 E13.00874
G1 X137.363 Y88.366 E13.031
G1 X137.707 Y88.94 E13.05326
G1 X137.98 Y89.551 E13.07552
G1 X138.178 Y90.19 E13.09777
G1 X138.298 Y90.848 E13.12001
G1 X138.339 Y91.464 E13.14055
G1 X138.35 Y92.469 E13.17398
G1 X138.35 Y142.747 E14.84623
G1 X138.349 Y142.824 E14.84879
G1 X138.339 Y143.551 E14.87297
G1 X138.29 Y144.218 E14.89522
G1 X138.162 Y144.875 E14.91748
G1 X137.956 Y145.511 E14.93972
G1 X137.676 Y146.119 E14.96198
G1 X137.325 Y146.689 E14.98424
G1 X136.909 Y147.213 E15.0065
G1 X136.434 Y147.683 E15.02872
G1 X135.905 Y148.094 E15.051
G1 X135.332 Y148.438 E15.07323
G1 X134.721 Y148.712 E15.0955
G1 X134.083 Y148.911 E15.11773
G1 X133.425 Y149.032 E15.13998
G1 X132.906 Y149.072 E15.1573
G1 X132.602 Y149.081 E15.16741
G1 X132.436 Y149.083 E15.17293
G1 X115.46 Y149.084 E15.73756
G1 X115.38 Y149.083 E15.74022
G1 X114.68 Y149.073 E15.7635
G1 X114.013 Y149.024 E15.78575
G1 X113.356 Y148.895 E15.80802
G1 X112.72 Y148.689 E15.83025
G1 X112.112 Y148.409 E15.85252
G1 X111.543 Y148.058 E15.87475
G1 X111.019 Y147.641 E15.89703
G1 X110.549 Y147.165 E15.91927
G1 X110.139 Y146.637 E15.94151
G1 X109.794 Y146.063 E15.96378
G1 X109.602 Y145.655 E15.97878
G1 X109.257 Y144.839 E16.00825
G1 X109.22 Y144.748 E16.01151
G1 X108.884 Y143.913 E16.04145
G1 X107.799 Y141.424 E16.13176
G1 X106.677 Y139.033 E16.2196
G1 X105.48 Y136.663 E16.30791
G1 X105.013 Y135.801 E16.34052
G1 X104.974 Y135.727 E16.3433
G1 X104.582 Y134.977 E16.37145
G1 X104.503 Y134.819 E16.37733
G1 X104.331 Y134.463 E16.39048
G1 X104.21 Y134.197 E16.4002
G1 X104.073 Y133.871 E16.41196
G1 X103.955 Y133.565 E16.42286
G1 X103.721 Y132.902 E16.44625
G1 X103.701 Y132.844 E16.44829
G1 X103.294 Y131.649 E16.49028
G1 X102.367 Y129.159 E16.57865
G1 X101.363 Y126.682 E16.66754
G1 X101.235 Y126.391 E16.67812
G1 X101.196 Y126.299 E16.68144
G1 X100.738 Y125.208 E16.7208
G1 X100.516 Y124.576 E16.74308
G1 X100.39 Y124.032 E16.76165
G1 X100.296 Y123.51 E16.77929
G1 X100.266 Y123.327 E16.78546
G1 X100.233 Y123.101 E16.79305
G1 X100.209 Y122.919 E16.79916
G1 X100.116 Y122.093 E16.82681
G1 X100.087 Y121.732 E16.83885
G1 X100.015 Y120.219 E16.88923
G1 X99.955 Y119.31 E16.91953
G1 X99.951 Y119.242 E16.9218
G1 X99.841 Y117.197 E16.98991
G1 X99.835 Y117.033 E16.99537
G1 X99.827 Y116.706 E17.00625
G1 X99.828 Y116.374 E17.01729
G1 X99.845 Y115.887 E17.0335
G1 X99.853 Y115.733 E17.03863
G1 X99.878 Y115.333 E17.05196
G1 X99.984 Y114.542 E17.0785
G1 X100.073 Y114.114 E17.09304
G1 X100.21 Y113.585 E17.11122
G1 X100.274 Y113.38 E17.11836
G1 X100.518 Y112.74 E17.14114
G1 X100.642 Y112.466 E17.15114
G1 X100.693 Y112.356 E17.15518
G1 X100.864 Y111.999 E17.16834
G1 X101.007 Y111.722 E17.17871
G1 X101.475 Y110.87 E17.21104
G1 X101.517 Y110.794 E17.21393
G1 X101.904 Y110.115 E17.23992
G1 X103.14 Y107.797 E17.3273
G1 X104.35 Y105.363 E17.4177
G1 X105.455 Y102.974 E17.50525
G1 X106.522 Y100.485 E17.59532
G1 X107.49 Y98.037 E17.68288
G1 X108.403 Y95.522 E17.77187
G1 X109.246 Y92.979 E17.86097
G1 X110.168 Y89.907 E17.96765
G1 X110.399 Y89.279 E17.98991
G1 X110.702 Y88.683 E18.01214
G1 X111.075 Y88.127 E18.03441
G0 F3600 X111.436 Y88.313
G1 F1800 X111.864 Y87.831 E18.05585
G1 X112.348 Y87.406 E18.07727
G1 X112.882 Y87.043 E18.09875
G1 X113.456 Y86.75 E18.12019
G1 X114.061 Y86.529 E18.14161
G1 X114.69 Y86.386 E18.16306
G1 X115.441 Y86.318 E18.18814
G1 X116.01 Y86.308 E18.20707
G1 X116.101 Y86.307 E18.2101
G1 X127.061 Y86.306 E18.57463
G1 X127.07 Y86.306 E18.57493
G1 X132.087 Y86.315 E18.7418
G1 X132.157 Y86.316 E18.74412
G1 X132.818 Y86.326 E18.76611
G1 X133.46 Y86.375 E18.78753
G1 X134.092 Y86.504 E18.80898
G1 X134.703 Y86.71 E18.83043
G1 X135.284 Y86.99 E18.85188
G1 X135.825 Y87.34 E18.87331
G1 X136.319 Y87.754 E18.89475
G1 X136.758 Y88.226 E18.91618
G1 X137.136 Y88.749 E18.93765
G1 X137.446 Y89.314 E18.95908
G1 X137.683 Y89.913 E18.98051
G1 X137.844 Y90.537 E19.00194
G1 X137.939 Y91.468 E19.03307
G1 X137.95 Y92.473 E19.0665
G1 X137.95 Y142.819 E20.74101
G1 X137.94 Y143.546 E20.76519
G1 X137.891 Y144.188 E20.78661
G1 X137.763 Y144.82 E20.80806
G1 X137.558 Y145.431 E20.82949
G1 X137.278 Y146.012 E20.85094
G1 X136.929 Y146.554 E20.87238
G1 X136.516 Y147.049 E20.89382
G1 X136.045 Y147.489 E20.91526
G1 X135.522 Y147.867 E20.93673
G1 X134.957 Y148.177 E20.95816
G1 X134.358 Y148.416 E20.97961
G1 X133.735 Y148.578 E21.00102
G1 X132.894 Y148.672 E21.02917
G1 X132.59 Y148.681 E21.03928
G1 X132.436 Y148.683 E21.0444
G1 X115.46 Y148.684 E21.60903
G1 X115.386 Y148.683 E21.61149
G1 X114.686 Y148.673 E21.63477
G1 X114.043 Y148.624 E21.65622
G1 X113.411 Y148.496 E21.67767
G1 X112.8 Y148.291 E21.69911
G1 X112.219 Y148.011 E21.72056
G1 X111.677 Y147.662 E21.742
G1 X111.183 Y147.248 E21.76343
G1 X110.743 Y146.776 E21.7849
G1 X110.366 Y146.254 E21.80631
G1 X109.97 Y145.499 E21.83467
G1 X109.625 Y144.683 E21.86414
G1 X109.591 Y144.599 E21.86715
G1 X109.245 Y143.74 E21.89795
G1 X108.17 Y141.273 E21.98745
G1 X107.038 Y138.861 E22.07607
G1 X105.824 Y136.457 E22.16565
G1 X105.365 Y135.61 E22.19769
G1 X105.329 Y135.542 E22.20025
G1 X104.937 Y134.792 E22.2284
G1 X104.863 Y134.645 E22.23387
G1 X104.691 Y134.289 E22.24702
G1 X104.579 Y134.042 E22.25604
G1 X104.442 Y133.716 E22.2678
G1 X104.332 Y133.432 E22.27793
G1 X104.098 Y132.769 E22.30132
G1 X104.08 Y132.715 E22.30321
G1 X103.676 Y131.529 E22.34488
G1 X102.736 Y129.006 E22.43443
G1 X101.736 Y126.536 E22.52306
G1 X101.601 Y126.23 E22.53419
G1 X101.564 Y126.144 E22.5373
G1 X101.106 Y125.053 E22.57665
G1 X100.894 Y124.444 E22.5981
G1 X100.783 Y123.962 E22.61455
G1 X100.689 Y123.44 E22.63219
G1 X100.662 Y123.269 E22.63795
G1 X100.629 Y123.043 E22.64555
G1 X100.607 Y122.874 E22.65122
G1 X100.514 Y122.048 E22.67886
G1 X100.487 Y121.713 E22.69004
G1 X100.418 Y120.253 E22.73866
G1 X100.354 Y119.284 E22.77095
G1 X100.351 Y119.22 E22.77309
G1 X100.241 Y117.175 E22.8412
G1 X100.235 Y117.023 E22.84626
G1 X100.227 Y116.696 E22.85714
G1 X100.228 Y116.388 E22.86738
G1 X100.245 Y115.901 E22.88359
G1 X100.252 Y115.758 E22.88835
G1 X100.277 Y115.358 E22.90168
G1 X100.376 Y114.623 E22.92635
G1 X100.465 Y114.195 E22.94089
G1 X100.592 Y113.704 E22.95776
G1 X100.656 Y113.499 E22.9649
G1 X100.883 Y112.905 E22.98605
G1 X101.007 Y112.631 E22.99605
G1 X101.054 Y112.529 E22.99979
G1 X101.225 Y112.172 E23.01296
G1 X101.357 Y111.914 E23.02259
G1 X101.825 Y111.062 E23.05493
G1 X101.865 Y110.992 E23.05761
G1 X102.246 Y110.323 E23.08321
G1 X103.5 Y107.971 E23.17187
G1 X104.706 Y105.545 E23.26198
G1 X105.822 Y103.134 E23.35034
G1 X106.877 Y100.671 E23.43946
G1 X107.873 Y98.153 E23.52952
G1 X108.787 Y95.636 E23.61859
G1 X109.633 Y93.082 E23.70807
G1 X110.552 Y90.022 E23.81434
G1 X110.775 Y89.417 E23.83578
G1 X111.071 Y88.845 E23.8572
G1 X111.436 Y88.313 E23.87866
G1 F2400 E18.87866
;MESH:DrawingMachine_-_Pen_holder_1.stl
G0 F3600 X111.505 Y112.597
G0 X111.014 Y113.785
G0 X111.668 Y118.985
G0 X111.767 Y118.976
;TYPE:WALL-INNER
G1 F2400 E23.87866
G1 F1800 X112.167 Y119.538 E23.90161
G1 X112.286 Y119.632 E23.90665
G1 X112.386 Y119.846 E23.91451
G1 X112.585 Y120.152 E23.92665
G1 X112.733 Y120.592 E23.94209
G1 X112.901 Y121.009 E23.95704
G1 X112.922 Y121.498 E23.97332
