;FLAVOR:Marlin
;TIME:3598
;Filament used: 2.6791m
;Layer height: 0.2
;MINX:96.699
;MINY:73.778
;MINZ:0.24
;MAXX:138.3
;MAXY:161.221
;MAXZ:30.69
;Generated with Cura_SteamEngine 4.1.0
M140 S60
M105
M190 S60
M104 S200
M105
M109 S200
M82 ;absolute extrusion mode
; Ender 3 Custom Start G-code
G28 ; Home all axes
G92 E0 ; Reset Extruder
G1 Z2.0 F3000 ; Move Z Axis up little to prevent scratching of Heat Bed
G1 X0.1 Y20 Z0.3 F5000.0 ; Move to start position
G1 X0.1 Y200.0 Z0.3 F1500.0 E15 ; Draw the first line
G1 X0.4 Y200.0 Z0.3 F5000.0 ; Move to side a little
G1 X0.4 Y20 Z0.3 F1500.0 E30 ; Draw the second line
G92 E0 ; Reset Extruder
G1 Z2.0 F3000 ; Move Z Axis up little to prevent scratching of Heat Bed
; End of custom start GCode
G92 E0
G92 E0
G1 F2400 E-5
;LAYER_COUNT:148
;LAYER:-6
M107
M204 S500
M205 X10 Y10
G0 F7200 X100 Y79.706 Z0.24
;TYPE:SUPPORT-INTERFACE
G1 F2400 E0
G1 F1350 X100.673 Y78.906 E0.08345
G1 X101.313 Y78.237 E0.15735
G1 X102.008 Y77.592 E0.23304
G1 X102.147 Y77.473 E0.24765
G1 X102.838 Y76.919 E0.31835
G1 X102.977 Y76.815 E0.3322
G1 X103.692 Y76.322 E0.40153
G1 X103.876 Y76.206 E0.41889
G1 X104.632 Y75.762 E0.48888
G1 X104.773 Y75.686 E0.50166
G1 X105.719 Y75.227 E0.5856
G1 X106.574 Y74.882 E0.65919
G1 X106.741 Y74.822 E0.67336
G1 X107.58 Y74.553 E0.74369
G1 X107.744 Y74.507 E0.75729
G1 X108.616 Y74.295 E0.82892
G1 X108.778 Y74.262 E0.84212
G1 X109.671 Y74.114 E0.91437
G1 X109.848 Y74.091 E0.92862
G1 X110.884 Y74.001 E1.01163
G1 X111.626 Y73.98 E1.07088
G1 X123.385 Y73.98 E2.00954
G1 X124.508 Y74.025 E2.09925
G1 X125.576 Y74.147 E2.18506
G1 X126.473 Y74.312 E2.25786
G1 X126.623 Y74.346 E2.27014
G1 X127.502 Y74.575 E2.34265
G1 X127.661 Y74.623 E2.35591
G1 X128.661 Y74.969 E2.44037
G1 X129.483 Y75.318 E2.51166
G1 X129.662 Y75.402 E2.52744
G1 X130.448 Y75.806 E2.59799
G1 X130.596 Y75.888 E2.61149
G1 X131.357 Y76.353 E2.68268
G1 X131.511 Y76.455 E2.69743
G1 X132.229 Y76.968 E2.76787
G1 X132.37 Y77.078 E2.78214
G1 X133.17 Y77.748 E2.86544
G1 X133.842 Y78.391 E2.93968
G1 X134.488 Y79.087 E3.01548
G1 X134.607 Y79.226 E3.03009
G1 X135.161 Y79.917 E3.10079
G1 X135.265 Y80.056 E3.11464
G1 X135.758 Y80.771 E3.18397
G1 X135.874 Y80.955 E3.20133
G1 X136.314 Y81.704 E3.27067
G1 X136.394 Y81.852 E3.2841
G1 X136.797 Y82.672 E3.35704
G1 X136.853 Y82.798 E3.36804
G1 X137.195 Y83.643 E3.44081
G1 X137.254 Y83.808 E3.4548
G1 X137.526 Y84.655 E3.52581
G1 X137.572 Y84.817 E3.53925
G1 X137.784 Y85.691 E3.61104
G1 X137.817 Y85.849 E3.62393
G1 X137.965 Y86.741 E3.6961
G1 X137.989 Y86.927 E3.71107
G1 X138.079 Y87.963 E3.79408
G1 X138.1 Y88.696 E3.85262
G1 X138.1 Y89.041 E3.88016
G1 X138.093 Y89.244 E3.89637
G1 X138.092 Y89.571 E3.92247
G1 X138.1 Y89.861 E3.94563
G1 X138.1 Y145.129 E8.35736
G1 X138.095 Y145.275 E8.36902
G1 X138.093 Y145.551 E8.39106
G1 X138.1 Y146.289 E8.44997
G1 X138.064 Y147.295 E8.53032
G1 X138.054 Y147.43 E8.54113
G1 X137.952 Y148.347 E8.61478
G1 X137.927 Y148.522 E8.62889
G1 X137.765 Y149.4 E8.70016
G1 X137.735 Y149.534 E8.71112
G1 X137.504 Y150.419 E8.78413
G1 X137.452 Y150.591 E8.79848
G1 X137.165 Y151.433 E8.86949
G1 X137.102 Y151.599 E8.88366
G1 X136.761 Y152.402 E8.9533
G1 X136.68 Y152.577 E8.96869
G1 X136.199 Y153.502 E9.05191
G1 X135.724 Y154.281 E9.12475
G1 X135.624 Y154.432 E9.1392
G1 X135.113 Y155.146 E9.20929
G1 X135 Y155.294 E9.22415
G1 X134.327 Y156.094 E9.30761
G1 X133.688 Y156.762 E9.3814
G1 X132.992 Y157.408 E9.4572
G1 X132.853 Y157.527 E9.4718
G1 X132.162 Y158.081 E9.5425
G1 X132.023 Y158.185 E9.55636
G1 X131.308 Y158.678 E9.62568
G1 X131.124 Y158.794 E9.64305
G1 X130.368 Y159.237 E9.71299
G1 X130.226 Y159.314 E9.72589
G1 X129.281 Y159.773 E9.80975
G1 X128.421 Y160.12 E9.88377
G1 X128.271 Y160.174 E9.8965
G1 X127.42 Y160.447 E9.96784
G1 X127.256 Y160.493 E9.98144
G1 X126.384 Y160.705 E10.05307
G1 X126.222 Y160.738 E10.06627
G1 X125.329 Y160.886 E10.13852
G1 X125.152 Y160.909 E10.15277
G1 X124.116 Y160.999 E10.23578
G1 X123.374 Y161.02 E10.29503
G1 X111.615 Y161.02 E11.23369
G1 X110.492 Y160.975 E11.3234
G1 X109.424 Y160.853 E11.40921
G1 X108.518 Y160.686 E11.48275
G1 X108.377 Y160.654 E11.49429
G1 X107.493 Y160.423 E11.56722
G1 X107.337 Y160.376 E11.58023
G1 X106.339 Y160.031 E11.66452
G1 X105.516 Y159.681 E11.73591
G1 X105.338 Y159.598 E11.75159
G1 X104.55 Y159.193 E11.82231
G1 X104.391 Y159.104 E11.83686
G1 X103.643 Y158.647 E11.90683
G1 X103.488 Y158.544 E11.92168
G1 X102.771 Y158.032 E11.99201
G1 X102.63 Y157.922 E12.00629
G1 X101.83 Y157.252 E12.08958
G1 X101.153 Y156.604 E12.16439
G1 X100.51 Y155.911 E12.23985
G1 X100.393 Y155.774 E12.25423
G1 X99.833 Y155.076 E12.32567
G1 X99.727 Y154.933 E12.33987
G1 X99.242 Y154.229 E12.40812
G1 X99.126 Y154.045 E12.42548
G1 X98.683 Y153.289 E12.49542
G1 X98.606 Y153.147 E12.50832
G1 X98.147 Y152.202 E12.59218
G1 X97.804 Y151.351 E12.66542
G1 X97.742 Y151.179 E12.68001
G1 X97.465 Y150.317 E12.75229
G1 X97.428 Y150.183 E12.76339
G1 X97.212 Y149.294 E12.83641
G1 X97.183 Y149.15 E12.84814
G1 X97.032 Y148.241 E12.92169
G1 X97.011 Y148.074 E12.93513
G1 X96.928 Y147.174 E13.00728
G1 X96.921 Y147.037 E13.01823
G1 X96.9 Y146.304 E13.07676
G1 X96.9 Y145.959 E13.1043
G1 X96.907 Y145.756 E13.12052
G1 X96.908 Y145.429 E13.14662
G1 X96.9 Y145.139 E13.16978
G1 X96.9 Y140.631 E13.52962
G1 X96.936 Y139.625 E13.60998
G1 X96.946 Y139.49 E13.62078
G1 X97.048 Y138.573 E13.69443
G1 X97.073 Y138.398 E13.70855
G1 X97.235 Y137.52 E13.77981
G1 X97.265 Y137.386 E13.79078
G1 X97.496 Y136.501 E13.86379
G1 X97.548 Y136.329 E13.87813
G1 X97.835 Y135.487 E13.94914
G1 X97.898 Y135.321 E13.96331
G1 X98.239 Y134.518 E14.03295
G1 X98.32 Y134.343 E14.04834
G1 X98.801 Y133.418 E14.13157
G1 X99.276 Y132.639 E14.2044
G1 X99.376 Y132.488 E14.21886
G1 X99.887 Y131.774 E14.28894
G1 X100 Y131.626 E14.30381
G1 X100.673 Y130.826 E14.38726
G1 X101.312 Y130.158 E14.46105
G1 X102.008 Y129.512 E14.53685
G1 X102.134 Y129.404 E14.5501
G1 X102.889 Y128.798 E14.62738
G1 X103.384 Y128.346 E14.68089
G1 X103.827 Y127.826 E14.73541
G1 X104.2 Y127.254 E14.78992
G1 X104.498 Y126.64 E14.8444
G1 X104.716 Y125.993 E14.8989
G1 X104.851 Y125.322 E14.95354
G1 X104.9 Y124.608 E15.01067
G1 X104.9 Y110.395 E16.14521
G1 X104.858 Y109.727 E16.19864
G1 X104.729 Y109.056 E16.25318
G1 X104.516 Y108.407 E16.30771
G1 X104.224 Y107.79 E16.36219
G1 X103.856 Y107.215 E16.41669
G1 X103.416 Y106.689 E16.47143
G1 X102.806 Y106.138 E16.53705
G1 X102.623 Y105.997 E16.55549
G1 X101.826 Y105.327 E16.6386
G1 X101.154 Y104.684 E16.71284
G1 X100.51 Y103.99 E16.78842
G1 X100.393 Y103.853 E16.8028
G1 X99.839 Y103.162 E16.8735
G1 X99.735 Y103.023 E16.88735
G1 X99.242 Y102.308 E16.95668
G1 X99.126 Y102.124 E16.97404
G1 X98.683 Y101.368 E17.04399
G1 X98.606 Y101.226 E17.05688
G1 X98.147 Y100.281 E17.14074
G1 X97.799 Y99.42 E17.21487
G1 X97.742 Y99.259 E17.22851
G1 X97.47 Y98.411 E17.2996
G1 X97.424 Y98.247 E17.31319
G1 X97.213 Y97.375 E17.38481
G1 X97.18 Y97.214 E17.39793
G1 X97.033 Y96.324 E17.46993
G1 X97.011 Y96.152 E17.48377
G1 X96.928 Y95.253 E17.55584
G1 X96.921 Y95.116 E17.56679
G1 X96.9 Y94.383 E17.62533
G1 X96.907 Y89.446 E18.01942
G1 X96.9 Y88.711 E18.07809
G1 X96.936 Y87.705 E18.15845
G1 X96.946 Y87.57 E18.16925
G1 X97.048 Y86.653 E18.2429
G1 X97.073 Y86.478 E18.25702
G1 X97.235 Y85.6 E18.32828
G1 X97.265 Y85.466 E18.33925
G1 X97.497 Y84.578 E18.41251
G1 X97.548 Y84.409 E18.4266
G1 X97.835 Y83.567 E18.49761
G1 X97.898 Y83.401 E18.51178
G1 X98.239 Y82.598 E18.58142
G1 X98.32 Y82.423 E18.59681
G1 X98.801 Y81.498 E18.68004
G1 X99.276 Y80.719 E18.75287
G1 X99.376 Y80.568 E18.76733
G1 X99.887 Y79.854 E18.83741
G1 X100 Y79.706 E18.85228
G0 F7200 X100.8 Y78.773
G1 F1350 X100.8 Y104.302 E20.89011
G0 F7200 X102.4 Y105.809
G1 F1350 X102.4 Y77.27 E23.16822
G0 F7200 X104 Y76.133
G1 F1350 X104 Y107.44 E25.66728
G0 F7200 X99.2 Y102.241
G1 F1350 X99.2 Y80.843 E27.37536
G0 F7200 X97.6 Y84.256
G1 F1350 X97.6 Y98.816 E28.5376
G0 F7200 X105.6 Y75.284
G1 F1350 X105.6 Y159.716 E35.27733
G0 F7200 X107.2 Y160.328
G1 F1350 X107.2 Y74.674 E42.1146
G0 F7200 X108.8 Y74.258
G1 F1350 X108.8 Y160.737 E49.01773
G0 F7200 X110.4 Y160.964
G1 F1350 X110.4 Y74.043 E55.95614
G0 F7200 X112 Y73.98
G1 F1350 X112 Y161.02 E62.90405
G0 F7200 X113.6 Y161.02
G1 F1350 X113.6 Y73.98 E69.85196
G0 F7200 X115.2 Y73.98
G1 F1350 X115.2 Y161.02 E76.79987
G0 F7200 X116.8 Y161.02
G1 F1350 X116.8 Y73.98 E83.74778
G0 F7200 X118.4 Y73.98
G1 F1350 X118.4 Y161.02 E90.69569
G0 F7200 X120 Y161.02
G1 F1350 X120 Y73.98 E97.6436
G0 F7200 X121.6 Y73.98
G1 F1350 X121.6 Y161.02 E104.5915
G0 F7200 X123.2 Y161.02
G1 F1350 X123.2 Y73.98 E111.53941
G0 F7200 X124.8 Y74.059
G1 F1350 X124.8 Y160.94 E118.47463
G0 F7200 X126.4 Y160.702
G1 F1350 X126.4 Y74.299 E125.37169
G0 F7200 X128 Y74.741
G1 F1350 X128 Y160.261 E132.19827
G0 F7200 X129.6 Y159.619
G1 F1350 X129.6 Y75.373 E138.92315
G0 F7200 X131.2 Y76.258
G1 F1350 X131.2 Y158.747 E145.50778
G0 F7200 X132.8 Y157.57
G1 F1350 X132.8 Y77.439 E151.90418
G0 F7200 X134.4 Y78.993
G1 F1350 X134.4 Y156.008 E158.05185
G0 F7200 X136 Y153.829
G1 F1350 X136 Y81.17 E163.85181
G0 F7200 X137.6 Y84.933
G1 F1350 X137.6 Y150.052 E169.04989
G0 F7200 X104 Y158.865
G1 F1350 X104 Y127.56 E171.54879
G0 F7200 X102.4 Y129.19
G1 F1350 X102.4 Y157.729 E173.82689
G0 F7200 X100.8 Y156.223
G1 F1350 X100.8 Y130.693 E175.86481
G0 F7200 X99.2 Y132.763
G1 F1350 X99.2 Y154.162 E177.57297
G0 F7200 X97.6 Y150.737
G1 F1350 X97.6 Y136.176 E178.73529
G0 F7200 X97.548 Y136.328
;TIME_ELAPSED:106.915224
;LAYER:-5
M140 S60
G0 X97.548 Y136.328 Z0.54
;TYPE:SUPPORT
G1 F1350 X97.372 Y136.97 E178.80171
G1 X121.42 Y161.018 E182.19515
G1 X120.006 Y161.018 E182.33624
G1 X97.121 Y138.133 E185.56556
G0 F7200 X97.048 Y138.572
G1 F1350 X96.957 Y139.383 E185.64699
G1 X118.592 Y161.018 E188.69992
G1 X117.178 Y161.018 E188.84101
G1 X96.899 Y140.74 E191.70252
G1 X96.899 Y142.154 E191.84361
G1 X115.763 Y161.018 E194.50553
G1 X114.349 Y161.018 E194.64662
G1 X96.899 Y143.568 E197.109
G1 X96.899 Y144.983 E197.25019
G1 X112.935 Y161.018 E199.51297
G1 X111.615 Y161.019 E199.64468
G0 F7200 X111.517 Y161.015
G1 F1350 X96.902 Y146.4 E201.70702
G1 X96.928 Y147.173 E201.78419
G1 X96.995 Y147.907 E201.85773
G1 X110.006 Y160.918 E203.69373
G1 X109.424 Y160.851 E203.75218
G1 X108.517 Y160.685 E203.84419
G0 F7200 X108.309 Y160.635
G1 F1350 X97.29 Y149.616 E205.39909
G1 X97.464 Y150.316 E205.47106
G1 X97.741 Y151.178 E205.5614
G1 X97.934 Y151.675 E205.6146
G1 X106.253 Y159.993 E206.78843
G1 X105.515 Y159.68 E206.86842
G1 X104.549 Y159.192 E206.9764
G1 X103.643 Y158.646 E207.08195
G1 X103.141 Y158.295 E207.14307
G1 X99.613 Y154.767 E207.64091
G0 F7200 X99.832 Y155.074
G1 F1350 X100.51 Y155.91 E207.74831
G1 X101.153 Y156.602 E207.84257
G1 X101.829 Y157.251 E207.93607
G1 X102.63 Y157.921 E208.04027
G1 X103.141 Y158.295 E208.10346
G0 F7200 X97.699 Y135.883
G1 F1350 X122.835 Y161.018 E211.65035
G1 X123.373 Y161.018 E211.70403
G1 X124.219 Y160.989 E211.78849
G1 X98.091 Y134.861 E215.47543
G1 X98.319 Y134.342 E215.532
G0 F7200 X98.548 Y133.903
G1 F1350 X125.5 Y160.856 E219.33529
G1 X126.688 Y160.629 E219.45597
G1 X99.056 Y132.997 E223.35514
G1 X99.376 Y132.487 E223.41522
G0 F7200 X99.619 Y132.146
G1 F1350 X127.797 Y160.324 E227.39144
G0 F7200 X128.271 Y160.173
G1 F1350 X128.838 Y159.951 E227.4522
G1 X100.233 Y131.346 E231.48867
G1 X100.672 Y130.825 E231.55665
G0 F7200 X100.894 Y130.593
G1 F1350 X129.814 Y159.512 E235.63751
G0 F7200 X130.225 Y159.313
G1 F1350 X130.735 Y159.019 E235.69624
G1 X101.603 Y129.887 E239.80708
G1 X102.007 Y129.511 E239.86215
G0 F7200 X102.355 Y129.225
G1 F1350 X131.603 Y158.473 E243.98936
G1 X132.023 Y158.184 E244.04023
G1 X132.418 Y157.874 E244.09033
G1 X103.125 Y128.581 E248.22389
G1 X103.806 Y127.848 E248.32372
G1 X133.185 Y157.227 E252.46942
G1 X133.906 Y156.533 E252.56927
G1 X104.338 Y126.965 E256.74164
G1 X104.715 Y125.992 E256.84576
G0 F7200 X104.726 Y125.939
G1 F1350 X134.58 Y155.793 E261.05848
G1 X135.21 Y155.009 E261.15883
G1 X104.893 Y124.692 E265.43689
G1 X104.899 Y123.284 E265.57738
G1 X135.789 Y154.174 E269.93629
G1 X136.312 Y153.283 E270.03938
G1 X104.899 Y121.87 E274.4721
G1 X104.899 Y120.456 E274.61319
G1 X136.786 Y152.343 E279.11279
G1 X137.197 Y151.339 E279.22103
G1 X104.899 Y119.042 E283.77856
G1 X104.899 Y117.627 E283.91975
G1 X137.542 Y150.27 E288.52603
G1 X137.815 Y149.128 E288.64319
G1 X104.899 Y116.213 E293.28792
G1 X104.899 Y114.799 E293.42901
G1 X138.001 Y147.901 E298.10006
G1 X138.064 Y147.294 E298.16095
G1 X138.09 Y146.575 E298.23274
G1 X104.899 Y113.385 E302.91628
G1 X104.899 Y111.971 E303.05737
G1 X138.098 Y145.169 E307.74204
G0 F7200 X138.1 Y145.128
G1 F1350 X138.1 Y143.756 E307.87894
G1 X104.899 Y110.556 E312.56389
G1 X104.858 Y109.726 E312.6468
G1 X104.728 Y109.054 E312.7151
G0 F7200 X104.687 Y108.93
G1 F1350 X138.1 Y142.342 E317.42996
G1 X138.1 Y140.928 E317.57105
G1 X98.887 Y101.715 E323.10443
G1 X98.606 Y101.225 E323.16079
G1 X98.147 Y100.279 E323.26571
G1 X97.798 Y99.419 E323.35832
G0 F7200 X97.693 Y99.107
G1 F1350 X138.1 Y139.514 E329.06018
G1 X138.1 Y138.1 E329.20127
G1 X97.172 Y97.172 E334.97665
G1 X97.032 Y96.324 E335.06241
G1 X96.953 Y95.539 E335.14114
G1 X138.1 Y136.685 E340.94735
G1 X138.1 Y135.271 E341.08844
G1 X96.899 Y94.07 E346.90235
G1 X96.901 Y92.658 E347.04324
G1 X138.1 Y133.857 E352.85686
G1 X138.1 Y132.443 E352.99795
G1 X96.903 Y91.246 E358.81129
G1 X96.905 Y89.834 E358.95218
G1 X138.1 Y131.029 E364.76524
G1 X138.1 Y129.614 E364.90643
G1 X96.908 Y88.423 E370.719
G1 X96.935 Y87.704 E370.79079
G1 X96.997 Y87.097 E370.85167
G1 X138.1 Y128.2 E376.65175
G1 X138.1 Y126.786 E376.79284
G1 X97.184 Y85.87 E382.56653
G1 X97.456 Y84.729 E382.68357
G1 X138.1 Y125.372 E388.4188
G1 X138.1 Y123.957 E388.55999
G1 X97.802 Y83.659 E394.24648
G1 X98.212 Y82.656 E394.3546
G1 X138.1 Y122.543 E399.98315
G1 X138.1 Y121.129 E400.12424
G1 X98.686 Y81.716 E405.68591
G1 X99.209 Y80.825 E405.789
G1 X138.1 Y119.715 E411.27687
G1 X138.1 Y118.301 E411.41796
G1 X99.789 Y79.99 E416.82406
G1 X100.419 Y79.205 E416.92449
G1 X138.1 Y116.886 E422.24169
G1 X138.1 Y115.472 E422.38278
G1 X101.092 Y78.465 E427.60493
G1 X101.814 Y77.772 E427.70479
G1 X138.1 Y114.058 E432.82514
G1 X138.1 Y112.644 E432.96623
G1 X102.58 Y77.124 E437.97848
G1 X102.976 Y76.815 E438.0286
G1 X103.396 Y76.526 E438.07947
G1 X138.1 Y111.23 E442.97658
G1 X138.1 Y109.815 E443.11777
G1 X104.262 Y75.978 E447.89261
G1 X104.772 Y75.685 E447.95129
G0 F7200 X105.184 Y75.486
G1 F1350 X138.1 Y108.401 E452.59603
G1 X138.1 Y106.987 E452.73712
G1 X106.161 Y75.048 E457.24405
G1 X106.74 Y74.821 E457.30611
G0 F7200 X107.201 Y74.674
G1 F1350 X138.1 Y105.573 E461.66629
G1 X138.1 Y104.158 E461.80748
G1 X108.31 Y74.369 E466.0111
G1 X109.498 Y74.142 E466.13178
G1 X138.1 Y102.744 E470.16784
G1 X138.1 Y101.33 E470.30893
G1 X110.779 Y74.01 E474.16414
G1 X111.625 Y73.98 E474.24861
G1 X112.164 Y73.98 E474.30239
G1 X138.1 Y99.916 E477.96224
G1 X138.1 Y98.502 E478.10333
G1 X113.578 Y73.98 E481.56365
G1 X114.992 Y73.98 E481.70474
G1 X138.1 Y97.087 E484.96546
G1 X138.1 Y95.673 E485.10655
G1 X116.406 Y73.98 E488.16773
G1 X117.82 Y73.98 E488.30882
G1 X138.1 Y94.259 E491.17048
G1 X138.1 Y92.845 E491.31157
G1 X119.235 Y73.98 E493.97363
G1 X120.649 Y73.98 E494.11471
G1 X138.1 Y91.431 E496.57724
G1 X138.1 Y90.016 E496.71843
G1 X122.063 Y73.98 E498.98135
G1 X123.384 Y73.98 E499.11316
G0 F7200 X123.482 Y73.984
G1 F1350 X138.096 Y88.599 E501.17543
G1 X138.078 Y87.962 E501.23901
G1 X138.003 Y87.091 E501.32624
G1 X124.993 Y74.081 E503.16209
G1 X125.575 Y74.147 E503.22054
G1 X126.472 Y74.311 E503.31152
G0 F7200 X126.689 Y74.363
G1 F1350 X137.709 Y85.383 E504.86657
G1 X137.525 Y84.654 E504.94159
G1 X137.253 Y83.807 E505.03035
G1 X137.065 Y83.325 E505.08197
G1 X128.746 Y75.006 E506.25588
G1 X129.482 Y75.318 E506.33564
G1 X130.447 Y75.806 E506.44354
G1 X131.356 Y76.353 E506.5494
G1 X131.857 Y76.702 E506.61032
G1 X135.383 Y80.229 E507.10795
G0 F7200 X135.16 Y79.917
G1 F1350 X134.487 Y79.087 E507.21457
G1 X133.841 Y78.391 E507.30932
G1 X133.169 Y77.747 E507.40219
G1 X132.369 Y77.078 E507.50625
G1 X131.857 Y76.702 E507.56963
