;FLAVOR:Marlin
;TIME:3761
;Filament used: 3.81199m
;Layer height: 0.2
;MINX:90.955
;MINY:62.699
;MINZ:0.24
;MAXX:144.05
;MAXY:172.3
;MAXZ:9.09
;Generated with Cura_SteamEngine 4.1.0
M140 S60
M105
M190 S60
M104 S200
M105
M109 S200
M82 ;absolute extrusion mode
; Ender 3 Custom Start G-code
G28 ; Home all axes
G92 E0 ; Reset Extruder
G1 Z2.0 F3000 ; Move Z Axis up little to prevent scratching of Heat Bed
G1 X0.1 Y20 Z0.3 F5000.0 ; Move to start position
G1 X0.1 Y200.0 Z0.3 F1500.0 E15 ; Draw the first line
G1 X0.4 Y200.0 Z0.3 F5000.0 ; Move to side a little
G1 X0.4 Y20 Z0.3 F1500.0 E30 ; Draw the second line
G92 E0 ; Reset Extruder
G1 Z2.0 F3000 ; Move Z Axis up little to prevent scratching of Heat Bed
; End of custom start GCode
G92 E0
G92 E0
G1 F2400 E-5
;LAYER_COUNT:40
;LAYER:-6
M107
M204 S500
M205 X10 Y10
G0 F7200 X98.258 Y71.17 Z0.24
;TYPE:SUPPORT-INTERFACE
G1 F2400 E0
G1 F1350 X98.765 Y70.498 E0.0672
G1 X99.2 Y69.959 E0.12249
G1 X99.912 Y69.14 E0.20911
G1 X100.447 Y68.597 E0.26996
G1 X100.951 Y68.115 E0.32563
G1 X101.77 Y67.391 E0.41289
G1 X102.443 Y66.868 E0.48092
G1 X102.944 Y66.503 E0.5304
G1 X103.874 Y65.877 E0.61989
G1 X104.524 Y65.495 E0.68007
G1 X105.105 Y65.177 E0.73294
G1 X106.08 Y64.688 E0.82001
G1 X106.828 Y64.37 E0.88489
G1 X107.409 Y64.143 E0.93469
G1 X108.457 Y63.778 E1.02327
G1 X109.29 Y63.547 E1.09227
G1 X109.915 Y63.395 E1.14362
G1 X111.025 Y63.171 E1.23401
G1 X111.776 Y63.068 E1.29452
G1 X112.447 Y62.995 E1.3484
G1 X113.541 Y62.917 E1.43595
G1 X114.067 Y62.907 E1.47794
G1 X124.598 Y62.908 E2.31857
G1 X125.208 Y62.93 E2.3673
G1 X126.278 Y63.008 E2.45293
G1 X126.855 Y63.082 E2.49937
G1 X127.527 Y63.185 E2.55364
G1 X128.474 Y63.363 E2.63056
G1 X128.631 Y63.398 E2.6434
G1 X129.483 Y63.621 E2.7137
G1 X130.067 Y63.793 E2.76229
G1 X131.124 Y64.149 E2.85133
G1 X131.824 Y64.432 E2.9116
G1 X132.389 Y64.678 E2.96079
G1 X133.27 Y65.102 E3.03883
G1 X133.417 Y65.179 E3.05208
G1 X134.103 Y65.565 E3.11491
G1 X134.686 Y65.919 E3.16936
G1 X135.59 Y66.516 E3.25583
G1 X136.252 Y67.015 E3.32201
G1 X136.778 Y67.439 E3.37594
G1 X137.61 Y68.162 E3.46393
G1 X138.153 Y68.697 E3.52477
G1 X138.635 Y69.201 E3.58044
G1 X139.359 Y70.02 E3.6677
G1 X139.882 Y70.693 E3.73574
G1 X140.247 Y71.194 E3.78522
G1 X140.873 Y72.124 E3.8747
G1 X141.255 Y72.774 E3.93489
G1 X141.573 Y73.355 E3.98776
G1 X142.062 Y74.33 E4.07483
G1 X142.366 Y75.042 E4.13662
G1 X142.607 Y75.659 E4.1895
G1 X142.972 Y76.707 E4.27808
G1 X143.199 Y77.52 E4.34546
G1 X143.355 Y78.165 E4.39844
G1 X143.578 Y79.268 E4.48826
G1 X143.68 Y80.005 E4.54765
G1 X143.755 Y80.693 E4.6029
G1 X143.833 Y81.791 E4.69077
G1 X143.843 Y82.323 E4.73324
G1 X143.85 Y151.622 E10.26499
G1 X143.848 Y152.54 E10.33827
G1 X143.819 Y153.45 E10.41094
G1 X143.779 Y154.071 E10.46062
G1 X143.658 Y155.219 E10.55276
G1 X143.535 Y155.955 E10.61233
G1 X143.417 Y156.562 E10.66169
G1 X143.151 Y157.685 E10.75381
G1 X142.888 Y158.539 E10.82514
G1 X142.683 Y159.135 E10.87545
G1 X142.288 Y160.161 E10.96321
G1 X141.981 Y160.834 E11.02226
G1 X141.707 Y161.392 E11.07188
G1 X141.24 Y162.266 E11.15098
G1 X141.149 Y162.423 E11.16547
G1 X140.747 Y163.067 E11.22607
G1 X140.353 Y163.657 E11.2827
G1 X139.705 Y164.55 E11.37077
G1 X139.204 Y165.158 E11.43366
G1 X138.765 Y165.657 E11.48671
G1 X138.116 Y166.348 E11.56239
G1 X137.998 Y166.466 E11.57571
G1 X137.407 Y167.016 E11.64015
G1 X136.924 Y167.439 E11.6914
G1 X136.057 Y168.141 E11.78045
G1 X135.412 Y168.601 E11.84369
G1 X134.889 Y168.952 E11.89397
G1 X134.055 Y169.468 E11.97225
G1 X133.909 Y169.552 E11.9857
G1 X133.104 Y169.975 E12.05829
G1 X132.594 Y170.224 E12.10359
G1 X131.604 Y170.665 E12.19011
G1 X130.902 Y170.927 E12.24992
G1 X130.228 Y171.155 E12.30671
G1 X129.338 Y171.425 E12.38095
G1 X129.215 Y171.457 E12.3911
G1 X128.423 Y171.641 E12.456
G1 X127.755 Y171.773 E12.51036
G1 X126.684 Y171.945 E12.59695
G1 X125.862 Y172.023 E12.66286
G1 X125.227 Y172.066 E12.71366
G1 X124.215 Y172.099 E12.79449
G1 X113.897 Y172.092 E13.61811
G1 X113.292 Y172.07 E13.66644
G1 X112.222 Y171.992 E13.75208
G1 X111.657 Y171.92 E13.79754
G1 X110.973 Y171.815 E13.85278
G1 X110.026 Y171.637 E13.9297
G1 X109.869 Y171.602 E13.94254
G1 X109.017 Y171.379 E14.01284
G1 X108.43 Y171.206 E14.06169
G1 X107.376 Y170.851 E14.15047
G1 X106.669 Y170.565 E14.21135
G1 X106.111 Y170.322 E14.25993
G1 X105.23 Y169.898 E14.33798
G1 X105.083 Y169.821 E14.35122
G1 X104.397 Y169.435 E14.41406
G1 X103.804 Y169.075 E14.46943
G1 X102.91 Y168.484 E14.55498
G1 X102.238 Y167.977 E14.62218
G1 X101.704 Y167.546 E14.67695
G1 X100.89 Y166.838 E14.76307
G1 X100.34 Y166.295 E14.82476
G1 X99.865 Y165.799 E14.87958
G1 X99.141 Y164.98 E14.96684
G1 X98.615 Y164.303 E15.03528
G1 X98.253 Y163.806 E15.08436
G1 X97.712 Y163.009 E15.16125
G1 X97.621 Y162.865 E15.17485
G1 X97.234 Y162.205 E15.23592
G1 X96.924 Y161.64 E15.28737
G1 X96.433 Y160.659 E15.37493
G1 X96.121 Y159.925 E15.4386
G1 X95.893 Y159.341 E15.48864
G1 X95.528 Y158.293 E15.57723
G1 X95.298 Y157.468 E15.64559
G1 X95.143 Y156.827 E15.69824
G1 X94.921 Y155.725 E15.78797
G1 X94.812 Y154.936 E15.85155
G1 X94.745 Y154.303 E15.90236
G1 X94.667 Y153.209 E15.98991
G1 X94.657 Y152.688 E16.03151
G1 X94.655 Y150.756 E16.18573
G1 X94.612 Y150.087 E16.23924
G1 X94.483 Y149.416 E16.29378
G1 X94.269 Y148.766 E16.34841
G1 X93.941 Y148.09 E16.40839
G1 X93.709 Y147.685 E16.44564
G1 X93.447 Y147.177 E16.49127
G1 X92.92 Y146.046 E16.59087
G1 X92.689 Y145.483 E16.63945
G1 X92.238 Y144.25 E16.74425
G1 X92.066 Y143.699 E16.79032
G1 X91.722 Y142.407 E16.89705
G1 X91.595 Y141.821 E16.94491
G1 X91.377 Y140.582 E17.04533
G1 X91.304 Y140.012 E17.09121
G1 X91.192 Y138.745 E17.19274
G1 X91.166 Y138.108 E17.24363
G1 X91.165 Y136.872 E17.34229
G1 X91.192 Y136.252 E17.39183
G1 X91.302 Y134.974 E17.49422
G1 X91.381 Y134.38 E17.54206
G1 X91.618 Y133.055 E17.6495
G1 X91.754 Y132.457 E17.69846
G1 X92.071 Y131.28 E17.79576
G1 X92.247 Y130.723 E17.84239
G1 X92.68 Y129.529 E17.94377
G1 X92.914 Y128.962 E17.99273
G1 X93.481 Y127.75 E18.09954
G1 X93.749 Y127.24 E18.14553
G1 X93.941 Y126.908 E18.17615
G1 X94.239 Y126.308 E18.22962
G1 X94.462 Y125.663 E18.2841
G1 X94.602 Y124.997 E18.33842
G1 X94.654 Y124.431 E18.3838
G1 X94.699 Y123.231 E18.47965
G1 X94.707 Y123.23 E18.4803
G1 X94.702 Y123.147 E18.48693
G1 X94.707 Y123.013 E18.49764
G1 X94.694 Y123.013 E18.49867
G1 X94.671 Y122.626 E18.52962
G1 X94.65 Y121.883 E18.58895
G1 X94.65 Y113.132 E19.2875
G1 X94.696 Y111.873 E19.38806
G1 X94.708 Y111.873 E19.38902
G1 X94.701 Y111.742 E19.39949
G1 X94.705 Y111.622 E19.40908
G1 X94.694 Y111.622 E19.40996
G1 X94.671 Y111.212 E19.44273
G1 X94.654 Y110.628 E19.48937
G1 X94.594 Y109.962 E19.54275
G1 X94.447 Y109.294 E19.59735
G1 X94.217 Y108.65 E19.65194
G1 X94.215 Y108.646 E19.65229
G1 X94.249 Y108.646 E19.65501
G1 X93.848 Y107.945 E19.71947
G1 X93.571 Y107.423 E19.76664
G1 X93.027 Y106.294 E19.86668
G1 X92.793 Y105.743 E19.91447
G1 X92.344 Y104.562 E20.01532
G1 X92.168 Y104.035 E20.05967
G1 X91.813 Y102.786 E20.16332
G1 X91.679 Y102.223 E20.20952
G1 X91.444 Y101.014 E20.30783
G1 X91.355 Y100.413 E20.35633
G1 X91.221 Y99.162 E20.45676
G1 X91.184 Y98.597 E20.50196
G1 X91.156 Y97.318 E20.60408
G1 X91.17 Y96.738 E20.65039
G1 X91.255 Y95.429 E20.7551
G1 X91.317 Y94.867 E20.80024
G1 X91.497 Y93.662 E20.89749
G1 X91.606 Y93.105 E20.9428
G1 X91.907 Y91.847 E21.04605
G1 X92.065 Y91.295 E21.09188
G1 X92.458 Y90.11 E21.19154
G1 X92.667 Y89.564 E21.23821
G1 X93.179 Y88.368 E21.34206
G1 X93.44 Y87.833 E21.38958
G1 X94.193 Y86.425 E21.51703
G1 X94.174 Y86.416 E21.51871
G1 X94.249 Y86.261 E21.53245
G1 X94.467 Y85.614 E21.58695
G1 X94.602 Y84.944 E21.64151
G1 X94.65 Y84.231 E21.69855
G1 X94.65 Y82.682 E21.8222
G1 X94.66 Y82.076 E21.87058
G1 X94.678 Y81.561 E21.91172
G1 X94.761 Y80.448 E22.00081
G1 X94.839 Y79.843 E22.0495
G1 X94.938 Y79.202 E22.10128
G1 X95.147 Y78.122 E22.18909
G1 X95.369 Y77.273 E22.25914
G1 X95.543 Y76.679 E22.30854
G1 X95.899 Y75.626 E22.39727
G1 X96.19 Y74.908 E22.45911
G1 X96.42 Y74.38 E22.50509
G1 X96.852 Y73.48 E22.58478
G1 X96.937 Y73.318 E22.59938
G1 X97.315 Y72.647 E22.66086
G1 X97.671 Y72.061 E22.71559
G1 X98.258 Y71.17 E22.80076
G0 F7200 X97.6 Y72.177
G1 F1350 X97.6 Y162.829 E30.03699
G0 F7200 X99.2 Y165.046
G1 F1350 X99.2 Y69.959 E37.62725
G0 F7200 X100.8 Y68.259
G1 F1350 X100.8 Y166.749 E45.48915
G0 F7200 X102.4 Y168.099
G1 F1350 X102.4 Y66.901 E53.56721
G0 F7200 X104 Y65.802
G1 F1350 X104 Y169.193 E61.82033
G0 F7200 X105.6 Y170.076
G1 F1350 X105.6 Y64.928 E70.21369
G0 F7200 X107.2 Y64.224
G1 F1350 X107.2 Y170.779 E78.71937
G0 F7200 X108.8 Y171.315
G1 F1350 X108.8 Y63.682 E87.31111
G0 F7200 X110.4 Y63.297
G1 F1350 X110.4 Y171.707 E95.96486
G0 F7200 X112 Y171.963
G1 F1350 X112 Y63.043 E104.65933
G0 F7200 X113.6 Y62.915
G1 F1350 X113.6 Y172.081 E113.37343
G0 F7200 X115.2 Y172.092
G1 F1350 X115.2 Y62.908 E122.08897
G0 F7200 X116.8 Y62.908
G1 F1350 X116.8 Y172.093 E130.80459
G0 F7200 X118.4 Y172.095
G1 F1350 X118.4 Y62.908 E139.52037
G0 F7200 X120 Y62.908
G1 F1350 X120 Y172.096 E148.23622
G0 F7200 X121.6 Y172.097
G1 F1350 X121.6 Y62.908 E156.95216
G0 F7200 X123.2 Y62.908
G1 F1350 X123.2 Y172.098 E165.66818
G0 F7200 X124.8 Y172.08
G1 F1350 X124.8 Y62.916 E174.38212
G0 F7200 X126.4 Y63.024
G1 F1350 X126.4 Y171.972 E183.07882
G0 F7200 X128 Y171.725
G1 F1350 X128 Y63.274 E191.73585
G0 F7200 X129.6 Y63.656
G1 F1350 X129.6 Y171.346 E200.33213
G0 F7200 X131.2 Y170.816
G1 F1350 X131.2 Y64.18 E208.84428
G0 F7200 X132.8 Y64.876
G1 F1350 X132.8 Y170.124 E217.24563
G0 F7200 X134.4 Y169.255
G1 F1350 X134.4 Y65.746 E225.50816
G0 F7200 X136 Y66.826
G1 F1350 X136 Y168.182 E233.59884
G0 F7200 X137.6 Y166.837
G1 F1350 X137.6 Y68.154 E241.47614
G0 F7200 X139.2 Y69.841
G1 F1350 X139.2 Y165.163 E249.08516
G0 F7200 X140.8 Y162.983
G1 F1350 X140.8 Y72.016 E256.34654
G0 F7200 X142.4 Y75.13
G1 F1350 X142.4 Y159.871 E263.11093
G0 F7200 X96 Y159.615
G1 F1350 X96 Y75.376 E269.83525
G0 F7200 X94.4 Y85.812
G1 F1350 X94.4 Y109.162 E271.69915
G0 F7200 X92.8 Y105.759
G1 F1350 X92.8 Y89.253 E273.01673
G0 F7200 X91.2 Y96.276
G1 F1350 X91.2 Y98.841 E273.22148
G0 F7200 X94.137 Y110.031
G0 X94.18 Y111.2
G0 X94.4 Y125.842
G1 F1350 X94.4 Y149.163 E275.08306
G0 F7200 X92.8 Y145.753
G1 F1350 X92.8 Y129.238 E276.40136
G0 F7200 X91.2 Y136.159
G1 F1350 X91.2 Y138.835 E276.61497
G0 F7200 X91.165 Y138.107
;TIME_ELAPSED:162.579487
;LAYER:-5
M140 S60
G0 X91.165 Y138.107 Z0.54
;TYPE:SUPPORT
G1 F1350 X91.192 Y138.744 E276.67859
G1 X91.243 Y139.326 E276.73688
G1 X124.014 Y172.097 E281.36122
G1 X122.599 Y172.097 E281.50241
G1 X91.438 Y140.936 E285.89957
G1 X91.595 Y141.82 E285.98915
G1 X91.804 Y142.716 E286.08096
G1 X121.184 Y172.096 E290.22679
G1 X119.769 Y172.094 E290.36798
G1 X92.418 Y144.744 E294.22743
G1 X92.689 Y145.482 E294.30588
G1 X92.92 Y146.045 E294.3666
G1 X93.459 Y147.199 E294.49369
G1 X118.354 Y172.094 E298.00664
G1 X116.938 Y172.092 E298.14793
G1 X94.535 Y149.69 E301.30916
G0 F7200 X94.612 Y150.086
G1 F1350 X94.654 Y151.223 E301.42269
G1 X115.523 Y172.092 E304.36753
G1 X114.108 Y172.091 E304.50872
G1 X94.656 Y152.638 E307.25368
G0 F7200 X94.656 Y152.687
G1 F1350 X94.666 Y153.208 E307.30568
G1 X94.732 Y154.129 E307.39781
G1 X112.623 Y172.019 E309.92235
G1 X111.657 Y171.919 E310.01925
G1 X111.007 Y171.819 E310.08487
G1 X94.923 Y155.734 E312.35457
G1 X95.142 Y156.826 E312.4657
G1 X95.319 Y157.544 E312.53949
G1 X109.2 Y171.426 E314.49832
G1 X108.429 Y171.205 E314.57835
G1 X107.376 Y170.85 E314.68923
G0 F7200 X107.098 Y170.738
G1 F1350 X96.015 Y159.654 E316.25323
G0 F7200 X96.12 Y159.924
G1 F1350 X96.433 Y160.658 E316.33285
G1 X96.923 Y161.639 E316.44226
G1 X97.352 Y162.406 E316.52995
G1 X104.353 Y169.407 E317.51787
G1 X103.803 Y169.074 E317.58202
G1 X102.91 Y168.483 E317.68887
G1 X102.237 Y167.976 E317.77295
G1 X101.703 Y167.545 E317.84142
G1 X100.889 Y166.837 E317.94907
G1 X100.339 Y166.294 E318.02619
G1 X99.864 Y165.798 E318.09471
G1 X99.14 Y164.979 E318.20378
G1 X98.615 Y164.302 E318.28927
G1 X98.253 Y163.804 E318.3507
G1 X97.712 Y163.007 E318.44681
G0 F7200 X91.165 Y137.834
G1 F1350 X125.384 Y172.053 E323.27548
G0 F7200 X125.862 Y172.022
G1 F1350 X126.688 Y171.942 E323.35829
G1 X91.183 Y136.438 E328.36836
G1 X91.288 Y135.128 E328.49949
G1 X127.902 Y171.742 E333.66612
G1 X128.423 Y171.64 E333.71909
G1 X129.064 Y171.491 E333.78476
G1 X91.467 Y133.894 E339.0901
G1 X91.617 Y133.054 E339.17524
G0 F7200 X91.696 Y132.708
G1 F1350 X130.161 Y171.173 E344.60307
G0 F7200 X130.227 Y171.153
G1 F1350 X131.212 Y170.81 E344.70714
G1 X91.988 Y131.586 E350.24207
G1 X92.247 Y130.722 E350.33207
G0 F7200 X92.324 Y130.507
G1 F1350 X132.209 Y170.393 E355.96035
G0 F7200 X132.593 Y170.223
G1 F1350 X133.17 Y169.939 E356.02452
G1 X92.702 Y129.471 E361.73499
G1 X92.914 Y128.961 E361.7901
G1 X93.134 Y128.489 E361.84206
G1 X134.09 Y169.445 E367.62139
G1 X134.961 Y168.902 E367.72381
G1 X93.593 Y127.534 E373.56128
G1 X93.94 Y126.907 E373.63278
G0 F7200 X94.086 Y126.613
G1 F1350 X135.797 Y168.324 E379.51865
G0 F7200 X136.057 Y168.14
G1 F1350 X136.593 Y167.705 E379.58753
G1 X94.476 Y125.589 E385.53063
G1 X94.601 Y124.995 E385.59119
G1 X94.654 Y124.43 E385.64782
G0 F7200 X94.656 Y124.354
G1 F1350 X137.358 Y167.056 E391.67353
G0 F7200 X137.407 Y167.015
G1 F1350 X138.089 Y166.373 E391.76699
G1 X94.691 Y122.975 E397.89092
G1 X94.649 Y121.881 E398.00016
G0 F7200 X94.649 Y121.519
G1 F1350 X138.775 Y165.645 E404.22681
G1 X139.428 Y164.884 E404.32687
G1 X94.649 Y120.105 E410.64567
G1 X94.649 Y118.691 E410.78676
G1 X140.042 Y164.084 E417.1922
G1 X140.623 Y163.251 E417.29354
G1 X94.649 Y117.277 E423.78096
G1 X94.649 Y115.862 E423.92215
G1 X141.171 Y162.384 E430.48691
G0 F7200 X141.24 Y162.265
G1 F1350 X141.667 Y161.466 E430.57731
G1 X94.649 Y114.448 E437.21205
G1 X94.65 Y113.131 E437.34346
G0 F7200 X94.653 Y113.038
G1 F1350 X142.127 Y160.512 E444.04256
G0 F7200 X142.287 Y160.16
G1 F1350 X142.538 Y159.509 E444.11218
G1 X94.702 Y111.673 E450.86235
G1 X94.654 Y110.627 E450.96683
G0 F7200 X94.612 Y110.168
G1 F1350 X142.911 Y158.467 E457.78234
G1 X143.226 Y157.368 E457.89642
G1 X93.908 Y108.05 E464.85572
G1 X93.571 Y107.422 E464.92684
G1 X93.026 Y106.293 E465.05193
G1 X92.792 Y105.742 E465.11166
G0 F7200 X92.656 Y105.384
G1 F1350 X143.485 Y156.213 E472.28418
G0 F7200 X143.534 Y155.954
G1 F1350 X143.681 Y154.995 E472.38099
G1 X91.947 Y103.261 E479.68121
G1 X91.679 Y102.222 E479.78828
G1 X91.522 Y101.422 E479.86962
G1 X143.802 Y153.702 E487.2469
G0 F7200 X143.818 Y153.449
G1 F1350 X143.848 Y152.333 E487.35829
G1 X91.286 Y99.771 E494.77536
G1 X91.221 Y99.161 E494.83657
G1 X91.184 Y98.596 E494.89306
G0 F7200 X91.176 Y98.247
G1 F1350 X143.85 Y150.921 E502.32594
G1 X143.85 Y149.507 E502.46702
G1 X91.167 Y96.824 E509.90117
G1 X91.25 Y95.493 E510.03423
G1 X143.85 Y148.092 E517.45659
G1 X143.85 Y146.678 E517.59768
G1 X91.41 Y94.238 E524.99753
G1 X91.497 Y93.661 E525.05575
G1 X91.606 Y93.104 E525.11238
G0 F7200 X91.621 Y93.036
G1 F1350 X143.849 Y145.263 E532.48225
G1 X143.849 Y143.849 E532.62334
G1 X91.894 Y91.894 E539.95475
G1 X92.064 Y91.295 E540.01688
G1 X92.225 Y90.81 E540.06787
G1 X143.849 Y142.435 E547.35264
G1 X143.849 Y141.021 E547.49373
G1 X92.589 Y89.761 E554.72707
G1 X93.007 Y88.765 E554.83485
G1 X143.849 Y139.606 E562.00914
G1 X143.848 Y138.191 E562.15033
G1 X93.456 Y87.8 E569.26111
G1 X93.949 Y86.878 E569.36543
G1 X143.848 Y136.777 E576.40672
G1 X143.848 Y135.363 E576.54781
G1 X94.373 Y85.888 E583.52927
G1 X94.601 Y84.944 E583.62617
G0 F7200 X94.616 Y84.717
G1 F1350 X143.848 Y133.949 E590.57334
G1 X143.848 Y132.534 E590.71453
G1 X94.649 Y83.335 E597.65704
G1 X94.649 Y82.681 E597.72229
G1 X94.659 Y82.076 E597.78267
G0 F7200 X94.663 Y81.935
G1 F1350 X143.848 Y131.12 E604.7232
G1 X143.848 Y129.706 E604.86429
G1 X94.748 Y80.605 E611.7929
G1 X94.837 Y79.842 E611.86955
G0 F7200 X94.912 Y79.356
G1 F1350 X143.848 Y128.291 E618.77488
G1 X143.848 Y126.877 E618.91597
G1 X95.136 Y78.166 E625.78969
G1 X95.368 Y77.273 E625.88175
G0 F7200 X95.433 Y77.048
G1 F1350 X143.847 Y125.462 E632.71349
G1 X143.847 Y124.048 E632.85458
G1 X95.778 Y75.979 E639.63763
