;FLAVOR:Marlin
;TIME:3965
;Filament used: 3.36607m
;Layer height: 0.2
;MINX:98.699
;MINY:64.571
;MINZ:0.24
;MAXX:137.88
;MAXY:170.428
;MAXZ:21.09
;Generated with Cura_SteamEngine 4.1.0
M140 S60
M105
M190 S60
M104 S200
M105
M109 S200
M82 ;absolute extrusion mode
; Ender 3 Custom Start G-code
G28 ; Home all axes
G92 E0 ; Reset Extruder
G1 Z2.0 F3000 ; Move Z Axis up little to prevent scratching of Heat Bed
G1 X0.1 Y20 Z0.3 F5000.0 ; Move to start position
G1 X0.1 Y200.0 Z0.3 F1500.0 E15 ; Draw the first line
G1 X0.4 Y200.0 Z0.3 F5000.0 ; Move to side a little
G1 X0.4 Y20 Z0.3 F1500.0 E30 ; Draw the second line
G92 E0 ; Reset Extruder
G1 Z2.0 F3000 ; Move Z Axis up little to prevent scratching of Heat Bed
; End of custom start GCode
G92 E0
G92 E0
G1 F2400 E-5
;LAYER_COUNT:100
;LAYER:-6
M107
M204 S500
M205 X10 Y10
G0 F7200 X101.376 Y71.365 Z0.24
;TYPE:SUPPORT-INTERFACE
G1 F2400 E0
G1 F1350 X101.887 Y70.651 E0.07009
G1 X102 Y70.503 E0.08495
G1 X102.673 Y69.703 E0.1684
G1 X103.316 Y69.031 E0.24264
G1 X104.012 Y68.385 E0.31845
G1 X104.151 Y68.266 E0.33305
G1 X104.842 Y67.712 E0.40375
G1 X104.981 Y67.608 E0.41761
G1 X105.696 Y67.115 E0.48693
G1 X105.88 Y66.999 E0.5043
G1 X106.636 Y66.556 E0.57424
G1 X106.778 Y66.479 E0.58713
G1 X107.723 Y66.02 E0.671
G1 X108.578 Y65.675 E0.74459
G1 X108.745 Y65.615 E0.75876
G1 X109.584 Y65.346 E0.82909
G1 X109.748 Y65.3 E0.84268
G1 X110.62 Y65.088 E0.91432
G1 X110.782 Y65.055 E0.92752
G1 X111.675 Y64.907 E0.99977
G1 X111.852 Y64.884 E1.01402
G1 X112.888 Y64.794 E1.09703
G1 X113.628 Y64.773 E1.15612
G1 X121.384 Y64.773 E1.77524
G1 X122.375 Y64.809 E1.8544
G1 X122.525 Y64.82 E1.8664
G1 X123.42 Y64.918 E1.93827
G1 X123.6 Y64.944 E1.95279
G1 X124.489 Y65.108 E2.02495
G1 X124.612 Y65.136 E2.03502
G1 X125.506 Y65.37 E2.10879
G1 X125.669 Y65.419 E2.12238
G1 X126.511 Y65.706 E2.19339
G1 X126.677 Y65.769 E2.20756
G1 X127.48 Y66.11 E2.2772
G1 X127.669 Y66.198 E2.29384
G1 X128.58 Y66.672 E2.37581
G1 X129.359 Y67.147 E2.44864
G1 X129.51 Y67.247 E2.4631
G1 X130.228 Y67.76 E2.53354
G1 X130.369 Y67.87 E2.54782
G1 X131.157 Y68.529 E2.62982
G1 X131.842 Y69.184 E2.70547
G1 X132.488 Y69.88 E2.78127
G1 X132.607 Y70.019 E2.79588
G1 X133.161 Y70.71 E2.86657
G1 X133.265 Y70.849 E2.88043
G1 X133.758 Y71.564 E2.94976
G1 X133.874 Y71.748 E2.96712
G1 X134.316 Y72.502 E3.03689
G1 X134.394 Y72.646 E3.04996
G1 X134.853 Y73.591 E3.13382
G1 X135.195 Y74.436 E3.20659
G1 X135.254 Y74.601 E3.22058
G1 X135.526 Y75.448 E3.29159
G1 X135.572 Y75.61 E3.30503
G1 X135.784 Y76.484 E3.37682
G1 X135.817 Y76.642 E3.38971
G1 X135.965 Y77.533 E3.4618
G1 X135.989 Y77.723 E3.47709
G1 X136.006 Y77.905 E3.49168
G1 X136.109 Y78.567 E3.54516
G1 X136.296 Y79.217 E3.59915
G1 X136.433 Y79.562 E3.62878
G1 X136.627 Y80.004 E3.66731
G1 X136.697 Y80.182 E3.68258
G1 X136.989 Y81.01 E3.75267
G1 X137.041 Y81.175 E3.76648
G1 X137.275 Y82.034 E3.83754
G1 X137.315 Y82.206 E3.85164
G1 X137.486 Y83.081 E3.92281
G1 X137.513 Y83.252 E3.93663
G1 X137.619 Y84.136 E4.0077
G1 X137.634 Y84.31 E4.02164
G1 X137.681 Y85.49 E4.1159
G1 X137.68 Y89.542 E4.43935
G1 X137.644 Y90.554 E4.52019
G1 X137.634 Y90.689 E4.53099
G1 X137.532 Y91.607 E4.60472
G1 X137.507 Y91.782 E4.61883
G1 X137.348 Y92.643 E4.68872
G1 X137.304 Y92.838 E4.70468
G1 X137.198 Y93.501 E4.75828
G1 X137.179 Y94.213 E4.81513
G1 X137.216 Y95.189 E4.8931
G1 X137.216 Y98.138 E5.1285
G1 X137.18 Y99.144 E5.20885
G1 X137.17 Y99.279 E5.21966
G1 X137.068 Y100.196 E5.29331
G1 X137.043 Y100.371 E5.30742
G1 X136.881 Y101.249 E5.37869
G1 X136.851 Y101.383 E5.38965
G1 X136.62 Y102.268 E5.46266
G1 X136.568 Y102.441 E5.47708
G1 X136.384 Y102.981 E5.52262
G1 X136.208 Y103.629 E5.57622
G1 X136.115 Y104.3 E5.63029
G1 X136.1 Y104.702 E5.66241
G1 X136.1 Y128.615 E7.57125
G1 X136.142 Y129.283 E7.62467
G1 X136.27 Y129.95 E7.67889
G1 X136.393 Y130.358 E7.7129
G1 X136.548 Y130.805 E7.75067
G1 X136.605 Y130.994 E7.76643
G1 X136.831 Y131.842 E7.83648
G1 X136.87 Y132.012 E7.8504
G1 X137.031 Y132.865 E7.9197
G1 X137.062 Y133.074 E7.93656
G1 X137.161 Y133.939 E8.00606
G1 X137.175 Y134.119 E8.02047
G1 X137.216 Y135.212 E8.10778
G1 X137.216 Y138.138 E8.34135
G1 X137.18 Y139.144 E8.4217
G1 X137.17 Y139.279 E8.43251
G1 X137.068 Y140.196 E8.50616
G1 X137.043 Y140.371 E8.52027
G1 X136.881 Y141.249 E8.59154
G1 X136.851 Y141.383 E8.6025
G1 X136.62 Y142.268 E8.67551
G1 X136.568 Y142.441 E8.68993
G1 X136.384 Y142.981 E8.73547
G1 X136.208 Y143.629 E8.78907
G1 X136.115 Y144.3 E8.84314
G1 X136.1 Y144.702 E8.87526
G1 X136.1 Y153.36 E9.56637
G1 X136.091 Y153.615 E9.58674
G1 X136.1 Y154.237 E9.6364
G1 X136.1 Y155.492 E9.73658
G1 X136.064 Y156.498 E9.81693
G1 X136.054 Y156.633 E9.82774
G1 X135.952 Y157.55 E9.90139
G1 X135.927 Y157.725 E9.9155
G1 X135.767 Y158.594 E9.98603
G1 X135.735 Y158.737 E9.99773
G1 X135.504 Y159.622 E10.07074
G1 X135.452 Y159.794 E10.08509
G1 X135.165 Y160.636 E10.15609
G1 X135.102 Y160.802 E10.17027
G1 X134.761 Y161.605 E10.23991
G1 X134.68 Y161.78 E10.2553
G1 X134.273 Y162.571 E10.32631
G1 X133.724 Y163.484 E10.41135
G1 X133.624 Y163.635 E10.42581
G1 X133.113 Y164.349 E10.49589
G1 X133 Y164.497 E10.51076
G1 X132.327 Y165.297 E10.59421
G1 X131.684 Y165.969 E10.66845
G1 X130.988 Y166.615 E10.74425
G1 X130.849 Y166.734 E10.75886
G1 X130.158 Y167.288 E10.82956
G1 X130.019 Y167.392 E10.84341
G1 X129.304 Y167.885 E10.91274
G1 X129.12 Y168.001 E10.9301
G1 X128.366 Y168.443 E10.99987
G1 X128.222 Y168.521 E11.01294
G1 X127.277 Y168.98 E11.0968
G1 X126.422 Y169.325 E11.1704
G1 X126.259 Y169.383 E11.18421
G1 X125.416 Y169.654 E11.25489
G1 X125.252 Y169.7 E11.26849
G1 X124.38 Y169.912 E11.34012
G1 X124.218 Y169.945 E11.35332
G1 X123.325 Y170.093 E11.42558
G1 X123.148 Y170.116 E11.43983
G1 X122.112 Y170.206 E11.52283
G1 X121.372 Y170.227 E11.58193
G1 X113.616 Y170.227 E12.20105
G1 X112.625 Y170.191 E12.2802
G1 X112.475 Y170.18 E12.29221
G1 X111.58 Y170.082 E12.36408
G1 X111.4 Y170.056 E12.3786
G1 X110.511 Y169.892 E12.45076
G1 X110.388 Y169.864 E12.46083
G1 X109.494 Y169.63 E12.53459
G1 X109.331 Y169.581 E12.54818
G1 X108.489 Y169.294 E12.61919
G1 X108.323 Y169.231 E12.63336
G1 X107.52 Y168.89 E12.703
G1 X107.331 Y168.802 E12.71964
G1 X106.42 Y168.328 E12.80162
G1 X105.641 Y167.853 E12.87445
G1 X105.49 Y167.753 E12.88891
G1 X104.772 Y167.24 E12.95935
G1 X104.631 Y167.13 E12.97362
G1 X103.843 Y166.471 E13.05562
G1 X103.154 Y165.812 E13.13173
G1 X102.51 Y165.118 E13.2073
G1 X102.393 Y164.981 E13.22168
G1 X101.83 Y164.279 E13.29352
G1 X101.727 Y164.14 E13.30733
G1 X101.242 Y163.436 E13.37557
G1 X101.126 Y163.252 E13.39293
G1 X100.683 Y162.496 E13.46287
G1 X100.606 Y162.354 E13.47577
G1 X100.147 Y161.409 E13.55963
G1 X99.799 Y160.548 E13.63376
G1 X99.742 Y160.387 E13.64739
G1 X99.47 Y159.539 E13.71848
G1 X99.424 Y159.375 E13.73208
G1 X99.211 Y158.497 E13.8042
G1 X99.183 Y158.358 E13.81551
G1 X99.032 Y157.444 E13.88946
G1 X99.011 Y157.28 E13.90266
G1 X98.928 Y156.378 E13.97497
G1 X98.921 Y156.244 E13.98568
G1 X98.9 Y155.511 E14.04421
G1 X98.9 Y154.195 E14.14926
G1 X98.907 Y153.99 E14.16564
G1 X98.908 Y153.665 E14.19158
G1 X98.9 Y153.375 E14.21474
G1 X98.9 Y81.639 E19.94101
G1 X98.909 Y81.386 E19.96122
G1 X98.9 Y80.763 E20.01096
G1 X98.9 Y79.508 E20.11114
G1 X98.936 Y78.502 E20.19149
G1 X98.946 Y78.367 E20.2023
G1 X99.048 Y77.446 E20.27627
G1 X99.073 Y77.276 E20.28998
G1 X99.235 Y76.397 E20.36133
G1 X99.265 Y76.263 E20.37229
G1 X99.498 Y75.372 E20.44581
G1 X99.548 Y75.206 E20.45964
G1 X99.835 Y74.364 E20.53065
G1 X99.898 Y74.198 E20.54483
G1 X100.239 Y73.395 E20.61447
G1 X100.32 Y73.22 E20.62986
G1 X100.801 Y72.295 E20.71308
G1 X101.276 Y71.516 E20.78591
G1 X101.376 Y71.365 E20.80037
G0 F7200 X100.8 Y72.296
G1 F1350 X100.8 Y162.695 E28.01641
G0 F7200 X102.4 Y164.989
G1 F1350 X102.4 Y70.027 E35.59669
G0 F7200 X104 Y68.396
G1 F1350 X104 Y166.602 E43.43592
G0 F7200 X105.6 Y167.825
G1 F1350 X105.6 Y67.181 E51.46975
G0 F7200 X107.2 Y66.274
G1 F1350 X107.2 Y168.733 E59.64848
G0 F7200 X108.8 Y169.4
G1 F1350 X108.8 Y65.597 E67.93448
G0 F7200 X110.4 Y65.141
G1 F1350 X110.4 Y169.866 E76.29408
G0 F7200 X112 Y170.127
G1 F1350 X112 Y64.871 E84.69607
G0 F7200 X113.6 Y64.773
G1 F1350 X113.6 Y170.226 E93.11379
G0 F7200 X115.2 Y170.227
G1 F1350 X115.2 Y64.773 E101.53158
G0 F7200 X116.8 Y64.773
G1 F1350 X116.8 Y170.227 E109.94937
G0 F7200 X118.4 Y170.227
G1 F1350 X118.4 Y64.773 E118.36717
G0 F7200 X120 Y64.773
G1 F1350 X120 Y170.227 E126.78496
G0 F7200 X121.6 Y170.221
G1 F1350 X121.6 Y64.781 E135.20164
G0 F7200 X123.2 Y64.894
G1 F1350 X123.2 Y170.11 E143.60044
G0 F7200 X124.8 Y169.81
G1 F1350 X124.8 Y65.186 E151.95198
G0 F7200 X126.4 Y65.669
G1 F1350 X126.4 Y169.333 E160.22688
G0 F7200 X128 Y168.629
G1 F1350 X128 Y66.371 E168.38956
G0 F7200 X129.6 Y67.312
G1 F1350 X129.6 Y167.681 E176.40145
G0 F7200 X131.2 Y166.419
G1 F1350 X131.2 Y68.571 E184.2121
G0 F7200 X132.8 Y70.26
G1 F1350 X132.8 Y164.735 E191.7535
G0 F7200 X134.4 Y162.325
G1 F1350 X134.4 Y72.659 E198.91103
G0 F7200 X136 Y77.841
G1 F1350 X136 Y157.119 E205.23934
G0 F7200 X99.2 Y158.442
G1 F1350 X99.2 Y76.586 E211.77344
G0 F7200 X137.6 Y83.978
G1 F1350 X137.6 Y90.995 E212.33357
G0 F7200 X137.605 Y90.936
;TIME_ELAPSED:124.756796
;LAYER:-5
M140 S60
G0 X137.605 Y90.936 Z0.54
;TYPE:SUPPORT
G1 F1350 X111.59 Y64.921 E216.00457
G1 X110.397 Y65.142 E216.12563
G1 X137.433 Y92.178 E219.9407
G1 X137.303 Y92.837 E220.00772
G1 X137.217 Y93.376 E220.06219
G1 X109.283 Y65.442 E224.00397
G1 X108.744 Y65.615 E224.06046
G1 X108.238 Y65.811 E224.1146
G1 X137.199 Y94.773 E228.20138
G1 X137.215 Y96.203 E228.34408
G1 X107.258 Y66.246 E232.57133
G1 X106.777 Y66.479 E232.62466
G1 X106.331 Y66.733 E232.67588
G1 X137.215 Y97.617 E237.03394
G1 X137.215 Y98.137 E237.08583
G1 X137.185 Y99.001 E237.17209
G1 X105.46 Y67.276 E241.64883
G1 X104.642 Y67.873 E241.74988
G1 X137.054 Y100.285 E246.32356
G1 X136.88 Y101.249 E246.4213
G0 F7200 X136.827 Y101.471
G1 F1350 X103.871 Y68.515 E251.07175
G1 X103.147 Y69.205 E251.17154
G1 X136.52 Y102.579 E255.88091
G1 X136.207 Y103.629 E255.99023
G0 F7200 X136.201 Y103.674
G1 F1350 X102.47 Y69.943 E260.75004
G1 X101.834 Y70.721 E260.85031
G1 X136.098 Y104.986 E265.6854
G1 X136.098 Y106.4 E265.82649
G1 X101.252 Y71.553 E270.74371
G1 X100.724 Y72.44 E270.8467
G1 X136.098 Y107.814 E275.83836
G1 X136.098 Y109.228 E275.97945
G1 X100.246 Y73.376 E281.03855
G0 F7200 X100.238 Y73.394
G1 F1350 X99.83 Y74.374 E281.14447
G1 X136.098 Y110.643 E286.26235
G1 X136.098 Y112.057 E286.40344
G1 X99.479 Y75.437 E291.57085
G1 X99.2 Y76.573 E291.68756
G1 X136.098 Y113.471 E296.89427
G1 X136.098 Y114.885 E297.03536
G1 X99.008 Y77.795 E302.26916
G1 X98.935 Y78.501 E302.33998
G1 X98.912 Y79.113 E302.40109
G1 X136.098 Y116.299 E307.64844
G1 X136.098 Y117.714 E307.78963
G1 X98.898 Y80.514 E313.03895
G0 F7200 X98.898 Y80.762
G1 F1350 X98.907 Y81.385 E313.10112
G1 X98.899 Y81.928 E313.1553
G1 X136.098 Y119.128 E318.40455
G1 X136.098 Y120.542 E318.54564
G1 X98.899 Y83.343 E323.79482
G1 X98.899 Y84.757 E323.93591
G1 X136.098 Y121.956 E329.1851
G1 X136.098 Y123.371 E329.32628
G1 X98.899 Y86.171 E334.57554
G1 X98.899 Y87.585 E334.71663
G1 X136.098 Y124.785 E339.96588
G1 X136.098 Y126.199 E340.10697
G1 X98.899 Y88.999 E345.35622
G1 X98.899 Y90.414 E345.49741
G1 X136.098 Y127.613 E350.74659
G1 X136.098 Y128.614 E350.84647
G0 F7200 X136.127 Y129.056
G1 F1350 X98.899 Y91.828 E356.09974
G1 X98.899 Y93.242 E356.24083
G1 X136.584 Y130.927 E361.55859
G1 X136.83 Y131.842 E361.65313
G1 X137.012 Y132.769 E361.74739
G1 X98.899 Y94.656 E367.12555
G1 X98.899 Y96.071 E367.26674
G1 X137.182 Y134.354 E372.66888
G1 X137.215 Y135.211 E372.75446
G1 X137.216 Y135.801 E372.81333
G1 X98.899 Y97.485 E378.2202
G1 X98.899 Y98.899 E378.36129
G1 X137.216 Y137.216 E383.76823
G1 X137.216 Y138.136 E383.86003
G0 F7200 X137.199 Y138.613
G1 F1350 X98.899 Y100.313 E389.26458
G1 X98.899 Y101.727 E389.40567
G1 X137.098 Y139.926 E394.79596
G1 X136.9 Y141.143 E394.91899
G1 X98.899 Y103.142 E400.28134
G1 X98.899 Y104.556 E400.42243
G1 X136.617 Y142.274 E405.74484
G1 X136.383 Y142.979 E405.81896
G0 F7200 X136.282 Y143.353
G1 F1350 X98.899 Y105.97 E411.09411
G1 X98.899 Y107.384 E411.2352
G1 X136.104 Y144.589 E416.48523
G1 X136.1 Y145.999 E416.62592
G1 X98.899 Y108.798 E421.87538
G1 X98.899 Y110.213 E422.01657
G1 X136.1 Y147.414 E427.26603
G1 X136.1 Y148.828 E427.40712
G1 X98.899 Y111.627 E432.65658
G1 X98.899 Y113.041 E432.79767
G1 X136.1 Y150.242 E438.04714
G1 X136.1 Y151.656 E438.18823
G1 X98.899 Y114.455 E443.43769
G1 X98.899 Y115.87 E443.57888
G1 X136.1 Y153.07 E448.82827
G1 X136.091 Y153.614 E448.88256
G1 X136.1 Y154.236 E448.94463
G0 F7200 X136.1 Y154.485
G1 F1350 X98.899 Y117.284 E454.19409
G1 X98.899 Y118.698 E454.33518
G1 X136.086 Y155.885 E459.58267
G1 X136.063 Y156.497 E459.64378
G1 X135.99 Y157.203 E459.7146
G1 X98.899 Y120.112 E464.94854
G1 X98.899 Y121.526 E465.08963
G1 X135.797 Y158.425 E470.2964
G1 X135.519 Y159.561 E470.4131
G1 X98.899 Y122.941 E475.58058
G1 X98.899 Y124.355 E475.72167
G1 X135.169 Y160.624 E480.83969
G1 X134.761 Y161.604 E480.94561
G0 F7200 X134.752 Y161.622
G1 F1350 X98.899 Y125.769 E486.00485
G1 X98.899 Y127.183 E486.14594
G1 X134.278 Y162.562 E491.1383
G1 X133.747 Y163.445 E491.24111
G1 X98.899 Y128.597 E496.15854
G1 X98.899 Y130.012 E496.29973
G1 X133.164 Y164.277 E501.13489
G1 X132.529 Y165.056 E501.23517
G1 X98.899 Y131.426 E505.98073
G1 X98.899 Y132.84 E506.12182
G1 X131.852 Y165.793 E510.77184
G1 X131.128 Y166.484 E510.8717
G1 X98.899 Y134.254 E515.41964
G1 X98.899 Y135.669 E515.56082
G1 X130.357 Y167.126 E519.99982
G1 X129.538 Y167.722 E520.10089
G1 X98.899 Y137.083 E524.42438
G1 X98.899 Y138.497 E524.56547
G1 X128.667 Y168.265 E528.76606
G1 X128.221 Y168.519 E528.81727
G1 X127.74 Y168.753 E528.87064
G1 X98.899 Y139.911 E532.94049
G1 X98.899 Y141.325 E533.08158
G1 X126.76 Y169.187 E537.01314
G1 X126.258 Y169.382 E537.06687
G1 X125.715 Y169.556 E537.12377
G1 X98.899 Y142.74 E540.90779
G1 X98.899 Y144.154 E541.04888
G1 X124.601 Y169.856 E544.67571
G1 X123.408 Y170.077 E544.79678
G1 X98.899 Y145.568 E548.25526
G1 X98.899 Y146.982 E548.39635
G1 X122.12 Y170.204 E551.67316
G1 X121.372 Y170.226 E551.74782
G1 X120.728 Y170.226 E551.81208
G1 X98.899 Y148.396 E554.89246
G1 X98.899 Y149.811 E555.03365
G1 X119.314 Y170.226 E557.91443
G1 X117.9 Y170.226 E558.05552
G1 X98.899 Y151.225 E560.73676
G1 X98.899 Y152.639 E560.87785
G1 X116.485 Y170.226 E563.3595
G1 X115.071 Y170.226 E563.50059
G1 X98.904 Y154.058 E565.782
G0 F7200 X98.9 Y154.194
G1 F1350 X98.899 Y155.468 E565.90912
G1 X113.657 Y170.226 E567.99163
G1 X112.625 Y170.19 E568.09466
G0 F7200 X112.161 Y170.144
G1 F1350 X98.981 Y156.964 E569.95451
G0 F7200 X99.031 Y157.442
G1 F1350 X99.246 Y158.643 E570.07625
G1 X110.488 Y169.885 E571.66261
G1 X109.494 Y169.629 E571.76503
G1 X108.489 Y169.293 E571.87077
G0 F7200 X108.477 Y169.288
G1 F1350 X99.84 Y160.651 E573.08954
G1 X100.147 Y161.408 E573.17105
G1 X100.682 Y162.495 E573.29194
G1 X101.313 Y163.538 E573.41357
G1 X105.598 Y167.824 E574.0183
G1 X104.772 Y167.239 E574.1193
G1 X103.842 Y166.469 E574.23977
G1 X103.154 Y165.81 E574.33483
G1 X102.509 Y165.117 E574.4293
G1 X101.829 Y164.278 E574.53705
G0 F7200 X137.643 Y90.554
G1 F1350 X137.677 Y89.594 E574.6329
G1 X112.878 Y64.795 E578.13231
G1 X113.627 Y64.773 E578.20708
G1 X114.27 Y64.773 E578.27124
G1 X137.68 Y88.182 E581.57457
G1 X137.68 Y86.768 E581.71566
G1 X115.684 Y64.773 E584.81946
G1 X117.099 Y64.773 E584.96065
G1 X137.675 Y85.349 E587.86415
G1 X137.583 Y83.843 E588.0147
G1 X118.513 Y64.773 E590.70568
G1 X119.927 Y64.773 E590.84677
G1 X137.3 Y82.146 E593.29829
G0 F7200 X137.274 Y82.033
G1 F1350 X136.988 Y81.009 E593.40437
G1 X136.661 Y80.093 E593.50142
G1 X121.341 Y64.773 E595.66324
G1 X122.374 Y64.809 E595.76637
G0 F7200 X122.837 Y64.854
G1 F1350 X136.026 Y78.044 E597.62756
G1 X135.963 Y77.532 E597.67903
G1 X135.752 Y76.355 E597.79834
G1 X124.51 Y65.113 E599.38471
G1 X125.505 Y65.369 E599.48722
G1 X126.509 Y65.705 E599.59287
G0 F7200 X126.521 Y65.71
G1 F1350 X135.159 Y74.348 E600.81178
G1 X134.852 Y73.591 E600.89329
G1 X134.315 Y72.501 E601.01453
