;FLAVOR:Marlin
;TIME:5205
;Filament used: 4.80925m
;Layer height: 0.2
;MINX:74.336
;MINY:71.699
;MINZ:0.24
;MAXX:161.987
;MAXY:163.3
;MAXZ:12.89
;Generated with Cura_SteamEngine 4.1.0
M140 S60
M105
M190 S60
M104 S200
M105
M109 S200
M82 ;absolute extrusion mode
; Ender 3 Custom Start G-code
G28 ; Home all axes
G92 E0 ; Reset Extruder
G1 Z2.0 F3000 ; Move Z Axis up little to prevent scratching of Heat Bed
G1 X0.1 Y20 Z0.3 F5000.0 ; Move to start position
G1 X0.1 Y200.0 Z0.3 F1500.0 E15 ; Draw the first line
G1 X0.4 Y200.0 Z0.3 F5000.0 ; Move to side a little
G1 X0.4 Y20 Z0.3 F1500.0 E30 ; Draw the second line
G92 E0 ; Reset Extruder
G1 Z2.0 F3000 ; Move Z Axis up little to prevent scratching of Heat Bed
; End of custom start GCode
G92 E0
G92 E0
G1 F2400 E-5
;LAYER_COUNT:59
;LAYER:-6
M107
M204 S500
M205 X10 Y10
G0 F7200 X78.949 Y76.158 Z0.24
;TYPE:SUPPORT-INTERFACE
G1 F2400 E0
G1 F1350 X79.645 Y75.512 E0.0758
G1 X79.784 Y75.393 E0.09041
G1 X80.475 Y74.839 E0.1611
G1 X80.614 Y74.735 E0.17496
G1 X81.329 Y74.242 E0.24429
G1 X81.513 Y74.126 E0.26165
G1 X82.269 Y73.683 E0.3316
G1 X82.411 Y73.606 E0.34449
G1 X83.356 Y73.147 E0.42835
G1 X84.206 Y72.804 E0.50152
G1 X84.379 Y72.742 E0.51619
G1 X85.217 Y72.473 E0.58644
G1 X85.381 Y72.427 E0.60004
G1 X86.253 Y72.215 E0.67167
G1 X86.415 Y72.182 E0.68487
G1 X87.308 Y72.034 E0.75713
G1 X87.485 Y72.011 E0.77137
G1 X88.379 Y71.928 E0.84304
G1 X88.521 Y71.921 E0.85439
G1 X89.262 Y71.9 E0.91357
G1 X90.833 Y71.901 E1.03897
G1 X91.015 Y71.907 E1.05351
G1 X91.339 Y71.908 E1.07937
G1 X91.634 Y71.9 E1.10293
G1 X143.371 Y71.901 E5.2328
G1 X143.553 Y71.907 E5.24733
G1 X144.148 Y71.9 E5.29483
G1 X146.132 Y71.901 E5.4532
G1 X147.256 Y71.946 E5.543
G1 X148.173 Y72.048 E5.61665
G1 X148.348 Y72.073 E5.63076
G1 X149.237 Y72.237 E5.70292
G1 X149.36 Y72.265 E5.71299
G1 X150.254 Y72.499 E5.78676
G1 X150.417 Y72.548 E5.80034
G1 X151.259 Y72.835 E5.87135
G1 X151.425 Y72.898 E5.88553
G1 X152.228 Y73.239 E5.95517
G1 X152.417 Y73.327 E5.97181
G1 X153.328 Y73.801 E6.05378
G1 X154.107 Y74.276 E6.12661
G1 X154.258 Y74.376 E6.14107
G1 X154.972 Y74.887 E6.21116
G1 X155.12 Y75 E6.22602
G1 X155.92 Y75.673 E6.30947
G1 X156.595 Y76.319 E6.38405
G1 X157.241 Y77.015 E6.45985
G1 X157.36 Y77.154 E6.47446
G1 X157.914 Y77.844 E6.5451
G1 X158.018 Y77.984 E6.55902
G1 X158.511 Y78.699 E6.62834
G1 X158.627 Y78.883 E6.64571
G1 X159.063 Y79.626 E6.71447
G1 X159.147 Y79.781 E6.72855
G1 X159.55 Y80.6 E6.80141
G1 X159.606 Y80.726 E6.81241
G1 X159.951 Y81.581 E6.88601
G1 X160.007 Y81.736 E6.89917
G1 X160.279 Y82.583 E6.97018
G1 X160.325 Y82.746 E6.9837
G1 X160.538 Y83.621 E7.05558
G1 X160.57 Y83.777 E7.0683
G1 X160.718 Y84.669 E7.14047
G1 X160.742 Y84.855 E7.15544
G1 X160.823 Y85.732 E7.22575
G1 X160.832 Y85.891 E7.23846
G1 X160.853 Y86.623 E7.29691
G1 X160.854 Y100.592 E8.41198
G1 X160.897 Y101.264 E8.46573
G1 X161.078 Y102.119 E8.53549
G1 X161.287 Y102.815 E8.5935
G1 X161.328 Y102.969 E8.60622
G1 X161.527 Y103.855 E8.67871
G1 X161.552 Y103.994 E8.68998
G1 X161.685 Y104.893 E8.76253
G1 X161.703 Y105.055 E8.77554
G1 X161.779 Y106.141 E8.86244
G1 X161.787 Y106.642 E8.90244
G1 X161.787 Y109.572 E9.13632
G1 X161.751 Y110.578 E9.21668
G1 X161.741 Y110.713 E9.22748
G1 X161.639 Y111.63 E9.30113
G1 X161.614 Y111.805 E9.31524
G1 X161.452 Y112.683 E9.38651
G1 X161.422 Y112.817 E9.39747
G1 X161.189 Y113.709 E9.47107
G1 X161.017 Y114.281 E9.51875
G1 X161.027 Y114.286 E9.51964
G1 X160.961 Y114.527 E9.53958
G1 X160.868 Y115.198 E9.59366
G1 X160.853 Y115.602 E9.62593
G1 X160.853 Y124.363 E10.32527
G1 X160.817 Y125.369 E10.40563
G1 X160.807 Y125.504 E10.41643
G1 X160.694 Y126.527 E10.49859
G1 X160.663 Y127.097 E10.54415
G1 X160.663 Y129.66 E10.74874
G1 X160.627 Y130.666 E10.8291
G1 X160.617 Y130.801 E10.83991
G1 X160.464 Y132.189 E10.95137
G1 X160.483 Y132.192 E10.95291
G1 X160.463 Y132.457 E10.97412
G1 X160.463 Y148.369 E12.24429
G1 X160.427 Y149.375 E12.32464
G1 X160.417 Y149.51 E12.33545
G1 X160.315 Y150.427 E12.4091
G1 X160.29 Y150.602 E12.42321
G1 X160.128 Y151.48 E12.49448
G1 X160.098 Y151.614 E12.50544
G1 X159.867 Y152.499 E12.57845
G1 X159.815 Y152.671 E12.59279
G1 X159.528 Y153.513 E12.6638
G1 X159.465 Y153.679 E12.67798
G1 X159.124 Y154.482 E12.74761
G1 X159.043 Y154.657 E12.76301
G1 X158.639 Y155.443 E12.83355
G1 X158.561 Y155.582 E12.84628
G1 X158.087 Y156.361 E12.91907
G1 X157.987 Y156.512 E12.93352
G1 X157.476 Y157.226 E13.00361
G1 X157.363 Y157.374 E13.01847
G1 X156.69 Y158.174 E13.10192
G1 X156.051 Y158.842 E13.17572
G1 X155.366 Y159.478 E13.25033
G1 X155.218 Y159.605 E13.2659
G1 X154.525 Y160.161 E13.33682
G1 X154.386 Y160.265 E13.35068
G1 X153.671 Y160.758 E13.42
G1 X153.487 Y160.874 E13.43737
G1 X152.731 Y161.317 E13.50731
G1 X152.589 Y161.394 E13.5202
G1 X151.644 Y161.853 E13.60407
G1 X150.789 Y162.198 E13.67766
G1 X150.626 Y162.256 E13.69147
G1 X149.783 Y162.527 E13.76216
G1 X149.619 Y162.573 E13.77575
G1 X148.747 Y162.785 E13.84739
G1 X148.585 Y162.818 E13.86058
G1 X147.692 Y162.966 E13.93284
G1 X147.515 Y162.989 E13.94709
G1 X146.621 Y163.072 E14.01876
G1 X146.479 Y163.079 E14.03011
G1 X145.738 Y163.1 E14.08928
G1 X144.167 Y163.099 E14.21468
G1 X143.985 Y163.093 E14.22922
G1 X143.661 Y163.092 E14.25508
G1 X143.366 Y163.1 E14.27864
G1 X91.62 Y163.099 E18.40923
G1 X91.381 Y163.091 E18.42832
G1 X90.734 Y163.1 E18.47997
G1 X89.252 Y163.099 E18.59827
G1 X88.128 Y163.054 E18.68806
G1 X87.211 Y162.952 E18.76171
G1 X87.036 Y162.927 E18.77582
G1 X86.147 Y162.763 E18.84799
G1 X86.024 Y162.735 E18.85806
G1 X85.13 Y162.501 E18.93182
G1 X84.967 Y162.452 E18.94541
G1 X84.125 Y162.165 E19.01642
G1 X83.959 Y162.102 E19.03059
G1 X83.156 Y161.761 E19.10023
G1 X82.967 Y161.673 E19.11687
G1 X82.056 Y161.199 E19.19885
G1 X81.277 Y160.724 E19.27168
G1 X81.126 Y160.624 E19.28614
G1 X80.412 Y160.113 E19.35622
G1 X80.264 Y160 E19.37109
G1 X79.464 Y159.327 E19.45454
G1 X78.792 Y158.684 E19.52878
G1 X78.148 Y157.99 E19.60435
G1 X78.031 Y157.853 E19.61874
G1 X77.481 Y157.167 E19.68892
G1 X77.365 Y157.011 E19.70444
G1 X76.88 Y156.308 E19.77262
G1 X76.764 Y156.124 E19.78998
G1 X76.321 Y155.368 E19.85992
G1 X76.244 Y155.226 E19.87282
G1 X75.785 Y154.281 E19.95668
G1 X75.436 Y153.417 E20.03106
G1 X75.38 Y153.259 E20.04444
G1 X75.108 Y152.411 E20.11553
G1 X75.066 Y152.261 E20.12796
G1 X74.85 Y151.373 E20.20092
G1 X74.821 Y151.23 E20.21256
G1 X74.671 Y150.324 E20.28587
G1 X74.649 Y150.152 E20.29971
G1 X74.566 Y149.253 E20.37178
G1 X74.559 Y149.116 E20.38273
G1 X74.538 Y148.383 E20.44126
G1 X74.537 Y86.632 E25.37049
G1 X74.573 Y85.626 E25.45085
G1 X74.583 Y85.491 E25.46165
G1 X74.683 Y84.582 E25.53465
G1 X74.71 Y84.4 E25.54934
G1 X74.868 Y83.54 E25.61914
G1 X74.907 Y83.366 E25.63337
G1 X75.131 Y82.505 E25.70439
G1 X75.189 Y82.314 E25.72032
G1 X75.472 Y81.484 E25.79032
G1 X75.535 Y81.32 E25.80435
G1 X75.881 Y80.505 E25.87502
G1 X75.952 Y80.354 E25.88834
G1 X76.452 Y79.393 E25.97481
G1 X76.906 Y78.649 E26.04439
G1 X77.013 Y78.488 E26.05982
G1 X77.524 Y77.774 E26.12991
G1 X77.637 Y77.626 E26.14477
G1 X78.31 Y76.826 E26.22822
G1 X78.949 Y76.158 E26.30201
G0 F7200 X78.4 Y76.731
G1 F1350 X78.4 Y158.261 E32.81009
G0 F7200 X80 Y159.777
G1 F1350 X80 Y75.219 E39.55987
G0 F7200 X81.6 Y74.075
G1 F1350 X81.6 Y160.92 E46.49222
G0 F7200 X83.2 Y161.779
G1 F1350 X83.2 Y73.222 E53.56122
G0 F7200 X84.8 Y72.606
G1 F1350 X84.8 Y162.395 E60.72857
G0 F7200 X86.4 Y162.809
G1 F1350 X86.4 Y72.185 E67.96257
G0 F7200 X88 Y71.963
G1 F1350 X88 Y163.039 E75.23265
G0 F7200 X89.6 Y163.099
G1 F1350 X89.6 Y71.901 E82.51247
G0 F7200 X91.2 Y71.908
G1 F1350 X91.2 Y163.094 E89.79133
G0 F7200 X92.8 Y163.099
G1 F1350 X92.8 Y71.901 E97.07114
G0 F7200 X94.4 Y71.901
G1 F1350 X94.4 Y163.099 E104.35096
G0 F7200 X96 Y163.099
G1 F1350 X96 Y71.901 E111.63078
G0 F7200 X97.6 Y71.901
G1 F1350 X97.6 Y163.099 E118.9106
G0 F7200 X99.2 Y163.099
G1 F1350 X99.2 Y71.901 E126.19042
G0 F7200 X100.8 Y71.901
G1 F1350 X100.8 Y163.099 E133.47024
G0 F7200 X102.4 Y163.099
G1 F1350 X102.4 Y71.901 E140.75006
G0 F7200 X104 Y71.901
G1 F1350 X104 Y163.099 E148.02988
G0 F7200 X105.6 Y163.099
G1 F1350 X105.6 Y71.901 E155.30969
G0 F7200 X107.2 Y71.901
G1 F1350 X107.2 Y163.099 E162.58951
G0 F7200 X108.8 Y163.099
G1 F1350 X108.8 Y71.901 E169.86933
G0 F7200 X110.4 Y71.901
G1 F1350 X110.4 Y163.099 E177.14915
G0 F7200 X112 Y163.099
G1 F1350 X112 Y71.901 E184.42897
G0 F7200 X113.6 Y71.901
G1 F1350 X113.6 Y163.099 E191.70879
G0 F7200 X115.2 Y163.099
G1 F1350 X115.2 Y71.901 E198.98861
G0 F7200 X116.8 Y71.901
G1 F1350 X116.8 Y163.099 E206.26843
G0 F7200 X118.4 Y163.099
G1 F1350 X118.4 Y71.901 E213.54824
G0 F7200 X120 Y71.901
G1 F1350 X120 Y163.099 E220.82806
G0 F7200 X121.6 Y163.099
G1 F1350 X121.6 Y71.901 E228.10788
G0 F7200 X123.2 Y71.901
G1 F1350 X123.2 Y163.099 E235.3877
G0 F7200 X124.8 Y163.099
G1 F1350 X124.8 Y71.901 E242.66752
G0 F7200 X126.4 Y71.901
G1 F1350 X126.4 Y163.099 E249.94734
G0 F7200 X128 Y163.099
G1 F1350 X128 Y71.901 E257.22716
G0 F7200 X129.6 Y71.901
G1 F1350 X129.6 Y163.099 E264.50698
G0 F7200 X131.2 Y163.099
G1 F1350 X131.2 Y71.901 E271.78679
G0 F7200 X132.8 Y71.901
G1 F1350 X132.8 Y163.099 E279.06661
G0 F7200 X134.4 Y163.099
G1 F1350 X134.4 Y71.901 E286.34643
G0 F7200 X136 Y71.901
G1 F1350 X136 Y163.099 E293.62625
G0 F7200 X137.6 Y163.099
G1 F1350 X137.6 Y71.901 E300.90607
G0 F7200 X139.2 Y71.901
G1 F1350 X139.2 Y163.099 E308.18589
G0 F7200 X140.8 Y163.099
G1 F1350 X140.8 Y71.901 E315.46571
G0 F7200 X142.4 Y71.901
G1 F1350 X142.4 Y163.099 E322.74552
G0 F7200 X144 Y163.093
G1 F1350 X144 Y71.901 E330.02486
G0 F7200 X145.6 Y71.901
G1 F1350 X145.6 Y163.099 E337.30468
G0 F7200 X147.2 Y163.019
G1 F1350 X147.2 Y71.944 E344.57468
G0 F7200 X148.8 Y72.157
G1 F1350 X148.8 Y162.773 E351.80804
G0 F7200 X150.4 Y162.329
G1 F1350 X150.4 Y72.543 E358.97515
G0 F7200 X152 Y73.143
G1 F1350 X152 Y161.681 E366.04264
G0 F7200 X153.6 Y160.803
G1 F1350 X153.6 Y73.967 E372.97426
G0 F7200 X155.2 Y75.068
G1 F1350 X155.2 Y159.62 E379.72357
G0 F7200 X156.8 Y158.044
G1 F1350 X156.8 Y76.54 E386.22957
G0 F7200 X158.4 Y78.539
G1 F1350 X158.4 Y155.847 E392.40063
G0 F7200 X160 Y151.99
G1 F1350 X160 Y81.717 E398.01012
G0 F7200 X161.6 Y104.319
G1 F1350 X161.6 Y111.881 E398.61376
G0 F7200 X76.8 Y78.822
G1 F1350 X76.8 Y156.181 E404.78889
G0 F7200 X75.2 Y152.697
G1 F1350 X75.2 Y82.281 E410.40979
G0 F7200 X75.202 Y82.273
;TIME_ELAPSED:238.830912
;LAYER:-5
M140 S60
G0 X75.202 Y82.273 Z0.54
;TYPE:SUPPORT
G1 F1350 X153.679 Y160.75 E421.48375
G1 X154.512 Y160.168 E421.58514
G1 X75.572 Y81.229 E432.72436
G1 X75.881 Y80.504 E432.803
G0 F7200 X76.006 Y80.248
G1 F1350 X155.294 Y159.537 E443.99146
G0 F7200 X155.366 Y159.477
G1 F1350 X156.03 Y158.859 E444.08197
G1 X76.494 Y79.322 E455.30543
G1 X76.905 Y78.647 E455.38428
G0 F7200 X77.037 Y78.452
G1 F1350 X156.721 Y158.135 E466.62849
G1 X157.368 Y157.368 E466.72861
G1 X77.631 Y77.631 E477.98036
G1 X78.277 Y76.863 E478.0805
G1 X157.961 Y156.547 E489.32477
G0 F7200 X158.086 Y156.361
G1 F1350 X158.503 Y155.675 E489.40487
G1 X78.968 Y76.139 E500.62819
G1 X79.644 Y75.511 E500.72026
G0 F7200 X79.703 Y75.461
G1 F1350 X158.994 Y154.751 E511.90901
G0 F7200 X159.123 Y154.481
G1 F1350 X159.426 Y153.769 E511.98621
G1 X80.487 Y74.83 E523.12536
G1 X81.319 Y74.248 E523.22667
G1 X159.796 Y152.725 E534.30063
G0 F7200 X159.866 Y152.499
G1 F1350 X160.098 Y151.612 E534.39211
G1 X82.205 Y73.72 E545.38358
G1 X83.147 Y73.248 E545.48871
G1 X160.315 Y150.415 E556.37788
G1 X160.435 Y149.121 E556.50755
G1 X84.142 Y72.829 E567.27325
G1 X85.204 Y72.477 E567.38488
G1 X160.462 Y147.734 E578.00453
G1 X160.462 Y146.32 E578.14562
G1 X86.339 Y72.197 E588.60517
G1 X87.307 Y72.033 E588.70314
G0 F7200 X87.561 Y72.004
G1 F1350 X160.462 Y144.905 E598.99026
G1 X160.462 Y143.491 E599.13135
G1 X88.881 Y71.911 E609.23213
G1 X90.286 Y71.901 E609.37232
G1 X160.462 Y142.077 E619.27491
G1 X160.462 Y140.663 E619.416
G1 X91.699 Y71.9 E629.11921
G1 X93.113 Y71.9 E629.2603
G1 X160.462 Y139.249 E638.76397
G1 X160.462 Y137.834 E638.90516
G1 X94.528 Y71.9 E648.20916
G1 X95.942 Y71.9 E648.35025
G1 X160.462 Y136.42 E657.45471
G1 X160.462 Y135.006 E657.5958
G1 X97.356 Y71.9 E666.50074
G1 X98.77 Y71.9 E666.64183
G1 X160.462 Y133.592 E675.34724
G1 X160.482 Y132.197 E675.48645
G1 X160.475 Y132.191 E675.48737
G0 F7200 X160.464 Y132.18
G1 F1350 X100.185 Y71.9 E683.99346
G1 X101.599 Y71.9 E684.13455
G1 X160.605 Y130.906 E692.46093
G0 F7200 X160.626 Y130.666
G1 F1350 X160.662 Y129.549 E692.57244
G1 X103.013 Y71.9 E700.70734
G1 X104.427 Y71.9 E700.84843
G1 X160.662 Y128.135 E708.78379
G1 X160.681 Y126.74 E708.923
G1 X105.841 Y71.9 E716.66152
G1 X107.256 Y71.9 E716.80271
G1 X160.81 Y125.454 E724.35975
G0 F7200 X160.816 Y125.369
G1 F1350 X160.852 Y124.083 E724.48812
G1 X108.67 Y71.9 E731.85164
G1 X110.084 Y71.9 E731.99273
G1 X160.852 Y122.668 E739.15664
G1 X160.852 Y121.254 E739.29773
G1 X111.498 Y71.9 E746.26211
G1 X112.912 Y71.9 E746.4032
G1 X160.852 Y119.84 E753.16805
G1 X160.852 Y118.426 E753.30914
G1 X114.327 Y71.9 E759.87439
G1 X115.741 Y71.9 E760.01548
G1 X160.852 Y117.012 E766.3812
G1 X160.853 Y115.598 E766.52229
G1 X117.155 Y71.9 E772.68855
G1 X118.57 Y71.901 E772.82974
G1 X161.011 Y114.341 E778.81855
G0 F7200 X161.016 Y114.281
G1 F1350 X161.313 Y113.23 E778.92753
G1 X119.984 Y71.901 E784.7595
G1 X121.398 Y71.901 E784.90059
G1 X161.565 Y112.067 E790.56851
G0 F7200 X161.638 Y111.63
G1 F1350 X161.729 Y110.817 E790.65014
G1 X122.813 Y71.901 E796.14161
G1 X124.227 Y71.901 E796.2827
G1 X161.786 Y109.46 E801.58268
G1 X161.786 Y108.045 E801.72387
G1 X125.641 Y71.901 E806.82425
G1 X127.055 Y71.901 E806.96534
G1 X161.786 Y106.631 E811.86619
G0 F7200 X161.778 Y106.14
G1 F1350 X161.708 Y105.14 E811.96621
G1 X128.469 Y71.901 E816.65659
G1 X129.884 Y71.901 E816.79778
G1 X161.436 Y103.453 E821.25011
G1 X161.286 Y102.815 E821.31551
G1 X161.077 Y102.118 E821.38811
G1 X160.959 Y101.562 E821.44483
G1 X131.298 Y71.901 E825.63031
G1 X132.712 Y71.901 E825.7714
G1 X160.853 Y100.042 E829.7424
G1 X160.853 Y98.627 E829.88359
G1 X134.126 Y71.901 E833.65499
G1 X135.541 Y71.901 E833.79618
G1 X160.853 Y97.213 E837.36798
G1 X160.853 Y95.799 E837.50907
G1 X136.955 Y71.901 E840.88133
G1 X138.369 Y71.901 E841.02242
G1 X160.853 Y94.385 E844.19516
G1 X160.852 Y92.97 E844.33635
G1 X139.783 Y71.901 E847.30941
G1 X141.197 Y71.901 E847.4505
G1 X160.852 Y91.556 E850.22403
G1 X160.852 Y90.141 E850.36522
G1 X142.612 Y71.901 E852.93908
G1 X143.37 Y71.901 E853.01472
G1 X144.027 Y71.902 E853.08027
G1 X160.852 Y88.727 E855.45446
G1 X160.852 Y87.313 E855.59555
G1 X145.439 Y71.9 E857.77049
G1 X146.131 Y71.9 E857.83954
G1 X146.884 Y71.931 E857.91474
G1 X160.83 Y85.877 E859.88267
G0 F7200 X160.822 Y85.731
G1 F1350 X160.741 Y84.854 E859.97055
G1 X160.653 Y84.286 E860.0279
G1 X148.462 Y72.094 E861.74825
G1 X149.236 Y72.236 E861.82677
G1 X150.253 Y72.498 E861.93156
G0 F7200 X150.292 Y72.51
G1 F1350 X160.238 Y82.456 E863.33505
G1 X159.949 Y81.581 E863.427
G1 X159.549 Y80.599 E863.5328
G1 X159.311 Y80.115 E863.58661
G1 X152.638 Y73.442 E864.52825
G1 X153.327 Y73.8 E864.60572
G1 X154.106 Y74.275 E864.69676
G1 X154.97 Y74.886 E864.80235
G1 X155.919 Y75.672 E864.9253
G1 X156.594 Y76.319 E865.0186
G1 X157.24 Y77.015 E865.11335
G1 X157.913 Y77.843 E865.21981
G1 X158.51 Y78.698 E865.32387
G1 X159.062 Y79.625 E865.43152
G0 F7200 X75.13 Y82.504
G1 F1350 X74.901 Y83.386 E865.52244
G1 X152.793 Y161.279 E876.51392
G1 X151.851 Y161.75 E876.619
G1 X74.682 Y84.581 E887.50838
G1 X74.563 Y85.877 E887.63824
G1 X150.856 Y162.169 E898.40394
G1 X149.794 Y162.522 E898.51561
G1 X74.536 Y87.264 E909.13532
G1 X74.536 Y88.678 E909.27641
G1 X148.66 Y162.802 E919.73611
G1 X147.691 Y162.965 E919.83416
G0 F7200 X147.438 Y162.995
G1 F1350 X74.536 Y90.093 E930.12142
G1 X74.536 Y91.507 E930.2625
G1 X146.117 Y163.087 E940.36329
G1 X144.712 Y163.097 E940.50348
G1 X74.536 Y92.921 E950.40607
G1 X74.536 Y94.335 E950.54716
G1 X143.3 Y163.099 E960.25051
G1 X141.885 Y163.099 E960.3917
G1 X74.536 Y95.75 E969.89537
G1 X74.536 Y97.164 E970.03646
G1 X140.471 Y163.099 E979.3406
G1 X139.057 Y163.099 E979.48169
G1 X74.536 Y98.578 E988.5863
