;FLAVOR:Marlin
;TIME:10044
;Filament used: 10.3039m
;Layer height: 0.2
;MINX:62.699
;MINY:62.699
;MINZ:0.24
;MAXX:172.3
;MAXY:172.3
;MAXZ:11.09
;Generated with Cura_SteamEngine 4.1.0
M140 S60
M105
M190 S60
M104 S200
M105
M109 S200
M82 ;absolute extrusion mode
; Ender 3 Custom Start G-code
G28 ; Home all axes
G92 E0 ; Reset Extruder
G1 Z2.0 F3000 ; Move Z Axis up little to prevent scratching of Heat Bed
G1 X0.1 Y20 Z0.3 F5000.0 ; Move to start position
G1 X0.1 Y200.0 Z0.3 F1500.0 E15 ; Draw the first line
G1 X0.4 Y200.0 Z0.3 F5000.0 ; Move to side a little
G1 X0.4 Y20 Z0.3 F1500.0 E30 ; Draw the second line
G92 E0 ; Reset Extruder
G1 Z2.0 F3000 ; Move Z Axis up little to prevent scratching of Heat Bed
; End of custom start GCode
G92 E0
G92 E0
G1 F2400 E-5
;LAYER_COUNT:50
;LAYER:-6
M107
M204 S500
M205 X10 Y10
G0 F7200 X67.302 Y67.056 Z0.24
;TYPE:SUPPORT-INTERFACE
G1 F2400 E0
G1 F1350 X67.427 Y66.936 E0.01383
G1 X68.098 Y66.333 E0.08584
G1 X68.214 Y66.237 E0.09786
G1 X68.926 Y65.687 E0.16968
G1 X69.085 Y65.574 E0.18525
G1 X69.823 Y65.084 E0.25596
G1 X69.949 Y65.008 E0.26771
G1 X70.743 Y64.562 E0.34041
G1 X70.893 Y64.484 E0.3539
G1 X71.708 Y64.101 E0.42578
G1 X71.851 Y64.041 E0.43816
G1 X72.71 Y63.712 E0.51159
G1 X72.86 Y63.66 E0.52426
G1 X73.71 Y63.405 E0.5951
G1 X73.883 Y63.359 E0.60939
G1 X74.778 Y63.158 E0.68261
G1 X74.908 Y63.135 E0.69315
G1 X75.813 Y63.001 E0.76618
G1 X75.982 Y62.983 E0.77975
G1 X77.055 Y62.908 E0.86561
G1 X77.56 Y62.9 E0.90592
G1 X157.468 Y62.9 E7.28452
G1 X157.503 Y62.901 E7.28732
G1 X158.627 Y62.946 E7.37711
G1 X159.544 Y63.048 E7.45076
G1 X159.719 Y63.073 E7.46487
G1 X160.608 Y63.237 E7.53704
G1 X160.731 Y63.265 E7.54711
G1 X161.625 Y63.499 E7.62087
G1 X161.788 Y63.548 E7.63446
G1 X162.63 Y63.835 E7.70547
G1 X162.796 Y63.898 E7.71964
G1 X163.599 Y64.239 E7.78928
G1 X163.788 Y64.327 E7.80592
G1 X164.699 Y64.801 E7.8879
G1 X165.478 Y65.276 E7.96073
G1 X165.629 Y65.376 E7.97519
G1 X166.343 Y65.887 E8.04527
G1 X166.491 Y66 E8.06014
G1 X167.182 Y66.576 E8.13195
G1 X167.295 Y66.677 E8.14404
G1 X167.944 Y67.302 E8.21597
G1 X168.064 Y67.427 E8.2298
G1 X168.667 Y68.098 E8.30181
G1 X168.763 Y68.214 E8.31383
G1 X169.322 Y68.938 E8.38684
G1 X169.416 Y69.069 E8.39971
G1 X169.916 Y69.823 E8.47193
G1 X169.992 Y69.949 E8.48368
G1 X170.438 Y70.743 E8.55637
G1 X170.516 Y70.893 E8.56987
G1 X170.899 Y71.708 E8.64175
G1 X170.959 Y71.851 E8.65413
G1 X171.288 Y72.71 E8.72756
G1 X171.34 Y72.86 E8.74023
G1 X171.595 Y73.71 E8.81107
G1 X171.641 Y73.883 E8.82536
G1 X171.84 Y74.769 E8.89784
G1 X171.865 Y74.908 E8.90912
G1 X171.998 Y75.807 E8.98166
G1 X172.016 Y75.969 E8.99467
G1 X172.092 Y77.055 E9.08157
G1 X172.1 Y77.556 E9.12157
G1 X172.1 Y157.486 E15.50193
G1 X172.064 Y158.492 E15.58228
G1 X172.054 Y158.627 E15.59309
G1 X171.952 Y159.544 E15.66674
G1 X171.927 Y159.719 E15.68085
G1 X171.765 Y160.597 E15.75212
G1 X171.735 Y160.731 E15.76308
G1 X171.504 Y161.616 E15.83609
G1 X171.452 Y161.788 E15.85044
G1 X171.176 Y162.6 E15.91889
G1 X171.096 Y162.809 E15.93676
G1 X170.761 Y163.599 E16.00526
G1 X170.68 Y163.774 E16.02065
G1 X170.264 Y164.582 E16.09319
G1 X169.724 Y165.478 E16.1767
G1 X169.624 Y165.629 E16.19116
G1 X169.113 Y166.343 E16.26124
G1 X169 Y166.491 E16.27611
G1 X168.424 Y167.182 E16.34792
G1 X168.323 Y167.295 E16.36002
G1 X167.698 Y167.944 E16.43194
G1 X167.573 Y168.064 E16.44577
G1 X166.903 Y168.666 E16.51767
G1 X166.786 Y168.763 E16.5298
G1 X166.074 Y169.313 E16.60162
G1 X165.915 Y169.426 E16.61719
G1 X165.177 Y169.916 E16.6879
G1 X165.051 Y169.992 E16.69965
G1 X164.257 Y170.438 E16.77234
G1 X164.106 Y170.516 E16.78591
G1 X163.292 Y170.899 E16.85772
G1 X163.149 Y170.959 E16.8701
G1 X162.29 Y171.288 E16.94353
G1 X162.14 Y171.34 E16.9562
G1 X161.29 Y171.595 E17.02704
G1 X161.117 Y171.641 E17.04133
G1 X160.222 Y171.842 E17.11455
G1 X160.092 Y171.865 E17.12509
G1 X159.187 Y171.999 E17.19812
G1 X159.019 Y172.017 E17.2116
G1 X157.945 Y172.092 E17.29754
G1 X157.44 Y172.1 E17.33786
G1 X77.532 Y172.1 E23.71646
G1 X77.497 Y172.099 E23.71926
G1 X76.373 Y172.054 E23.80905
G1 X75.456 Y171.952 E23.8827
G1 X75.281 Y171.927 E23.89681
G1 X74.392 Y171.763 E23.96897
G1 X74.269 Y171.735 E23.97904
G1 X73.375 Y171.501 E24.05281
G1 X73.212 Y171.452 E24.0664
G1 X72.37 Y171.165 E24.13741
G1 X72.204 Y171.102 E24.15158
G1 X71.401 Y170.761 E24.22122
G1 X71.212 Y170.673 E24.23786
G1 X70.301 Y170.199 E24.31983
G1 X69.522 Y169.724 E24.39267
G1 X69.371 Y169.624 E24.40712
G1 X68.657 Y169.113 E24.47721
G1 X68.509 Y169 E24.49207
G1 X67.818 Y168.424 E24.56388
G1 X67.705 Y168.323 E24.57598
G1 X67.056 Y167.698 E24.6479
G1 X66.936 Y167.573 E24.66174
G1 X66.333 Y166.902 E24.73375
G1 X66.236 Y166.784 E24.74594
G1 X65.678 Y166.062 E24.81878
G1 X65.574 Y165.915 E24.83315
G1 X65.081 Y165.172 E24.90433
G1 X65.008 Y165.051 E24.91561
G1 X64.556 Y164.246 E24.98931
G1 X64.484 Y164.107 E25.0018
G1 X64.087 Y163.261 E25.0764
G1 X64.041 Y163.149 E25.08607
G1 X63.712 Y162.29 E25.15949
G1 X63.655 Y162.125 E25.17343
G1 X63.405 Y161.29 E25.243
G1 X63.359 Y161.117 E25.25729
G1 X63.157 Y160.216 E25.331
G1 X63.135 Y160.092 E25.34105
G1 X63 Y159.178 E25.4148
G1 X62.983 Y159.018 E25.42765
G1 X62.908 Y157.945 E25.51351
G1 X62.9 Y157.444 E25.55351
G1 X62.9 Y77.514 E31.93386
G1 X62.936 Y76.508 E32.01422
G1 X62.946 Y76.373 E32.02502
G1 X63.048 Y75.456 E32.09867
G1 X63.073 Y75.281 E32.11279
G1 X63.235 Y74.403 E32.18405
G1 X63.265 Y74.269 E32.19502
G1 X63.496 Y73.384 E32.26803
G1 X63.548 Y73.212 E32.28237
G1 X63.835 Y72.37 E32.35338
G1 X63.898 Y72.204 E32.36755
G1 X64.239 Y71.401 E32.43719
G1 X64.32 Y71.226 E32.45258
G1 X64.801 Y70.301 E32.53581
G1 X65.276 Y69.522 E32.60864
G1 X65.376 Y69.371 E32.6231
G1 X65.887 Y68.657 E32.69318
G1 X66 Y68.509 E32.70805
G1 X66.576 Y67.818 E32.77986
G1 X66.677 Y67.705 E32.79195
G1 X67.302 Y67.056 E32.86388
G0 F7200 X67.2 Y67.161
G1 F1350 X67.2 Y167.836 E40.90019
G0 F7200 X68.8 Y169.215
G1 F1350 X68.8 Y65.784 E49.1565
G0 F7200 X70.4 Y64.754
G1 F1350 X70.4 Y170.25 E57.57765
G0 F7200 X72 Y171.015
G1 F1350 X72 Y63.983 E66.12141
G0 F7200 X73.6 Y63.438
G1 F1350 X73.6 Y171.559 E74.75209
G0 F7200 X75.2 Y171.912
G1 F1350 X75.2 Y63.091 E83.43865
G0 F7200 X76.8 Y62.925
G1 F1350 X76.8 Y172.071 E92.15116
G0 F7200 X78.4 Y172.1
G1 F1350 X78.4 Y62.9 E100.86798
G0 F7200 X80 Y62.9
G1 F1350 X80 Y172.1 E109.58479
G0 F7200 X81.6 Y172.1
G1 F1350 X81.6 Y62.9 E118.30161
G0 F7200 X83.2 Y62.9
G1 F1350 X83.2 Y172.1 E127.01842
G0 F7200 X84.8 Y172.1
G1 F1350 X84.8 Y62.9 E135.73524
G0 F7200 X86.4 Y62.9
G1 F1350 X86.4 Y172.1 E144.45206
G0 F7200 X88 Y172.1
G1 F1350 X88 Y62.9 E153.16887
G0 F7200 X89.6 Y62.9
G1 F1350 X89.6 Y172.1 E161.88569
G0 F7200 X91.2 Y172.1
G1 F1350 X91.2 Y62.9 E170.6025
G0 F7200 X92.8 Y62.9
G1 F1350 X92.8 Y172.1 E179.31932
G0 F7200 X94.4 Y172.1
G1 F1350 X94.4 Y62.9 E188.03614
G0 F7200 X96 Y62.9
G1 F1350 X96 Y172.1 E196.75295
G0 F7200 X97.6 Y172.1
G1 F1350 X97.6 Y62.9 E205.46977
G0 F7200 X99.2 Y62.9
G1 F1350 X99.2 Y172.1 E214.18659
G0 F7200 X100.8 Y172.1
G1 F1350 X100.8 Y62.9 E222.9034
G0 F7200 X102.4 Y62.9
G1 F1350 X102.4 Y172.1 E231.62022
G0 F7200 X104 Y172.1
G1 F1350 X104 Y62.9 E240.33703
G0 F7200 X105.6 Y62.9
G1 F1350 X105.6 Y172.1 E249.05385
G0 F7200 X107.2 Y172.1
G1 F1350 X107.2 Y62.9 E257.77067
G0 F7200 X108.8 Y62.9
G1 F1350 X108.8 Y172.1 E266.48748
G0 F7200 X110.4 Y172.1
G1 F1350 X110.4 Y62.9 E275.2043
G0 F7200 X112 Y62.9
G1 F1350 X112 Y172.1 E283.92112
G0 F7200 X113.6 Y172.1
G1 F1350 X113.6 Y62.9 E292.63793
G0 F7200 X115.2 Y62.9
G1 F1350 X115.2 Y172.1 E301.35475
G0 F7200 X116.8 Y172.1
G1 F1350 X116.8 Y62.9 E310.07156
G0 F7200 X118.4 Y62.9
G1 F1350 X118.4 Y172.1 E318.78838
G0 F7200 X120 Y172.1
G1 F1350 X120 Y62.9 E327.5052
G0 F7200 X121.6 Y62.9
G1 F1350 X121.6 Y172.1 E336.22201
G0 F7200 X123.2 Y172.1
G1 F1350 X123.2 Y62.9 E344.93883
G0 F7200 X124.8 Y62.9
G1 F1350 X124.8 Y172.1 E353.65565
G0 F7200 X126.4 Y172.1
G1 F1350 X126.4 Y62.9 E362.37246
G0 F7200 X128 Y62.9
G1 F1350 X128 Y172.1 E371.08928
G0 F7200 X129.6 Y172.1
G1 F1350 X129.6 Y62.9 E379.80609
G0 F7200 X131.2 Y62.9
G1 F1350 X131.2 Y172.1 E388.52291
G0 F7200 X132.8 Y172.1
G1 F1350 X132.8 Y62.9 E397.23973
G0 F7200 X134.4 Y62.9
G1 F1350 X134.4 Y172.1 E405.95654
G0 F7200 X136 Y172.1
G1 F1350 X136 Y62.9 E414.67336
G0 F7200 X137.6 Y62.9
G1 F1350 X137.6 Y172.1 E423.39017
G0 F7200 X139.2 Y172.1
G1 F1350 X139.2 Y62.9 E432.10699
G0 F7200 X140.8 Y62.9
G1 F1350 X140.8 Y172.1 E440.82381
G0 F7200 X142.4 Y172.1
G1 F1350 X142.4 Y62.9 E449.54062
G0 F7200 X144 Y62.9
G1 F1350 X144 Y172.1 E458.25744
G0 F7200 X145.6 Y172.1
G1 F1350 X145.6 Y62.9 E466.97426
G0 F7200 X147.2 Y62.9
G1 F1350 X147.2 Y172.1 E475.69107
G0 F7200 X148.8 Y172.1
G1 F1350 X148.8 Y62.9 E484.40789
G0 F7200 X150.4 Y62.9
G1 F1350 X150.4 Y172.1 E493.1247
G0 F7200 X152 Y172.1
G1 F1350 X152 Y62.9 E501.84152
G0 F7200 X153.6 Y62.9
G1 F1350 X153.6 Y172.1 E510.55834
G0 F7200 X155.2 Y172.1
G1 F1350 X155.2 Y62.9 E519.27515
G0 F7200 X156.8 Y62.9
G1 F1350 X156.8 Y172.1 E527.99197
G0 F7200 X158.4 Y172.061
G1 F1350 X158.4 Y62.937 E536.70272
G0 F7200 X160 Y63.125
G1 F1350 X160 Y171.879 E545.38393
G0 F7200 X161.6 Y171.502
G1 F1350 X161.6 Y63.493 E554.00568
G0 F7200 X163.2 Y64.07
G1 F1350 X163.2 Y170.938 E562.53634
G0 F7200 X164.8 Y170.133
G1 F1350 X164.8 Y64.863 E570.93945
G0 F7200 X166.4 Y65.931
G1 F1350 X166.4 Y169.062 E579.17181
G0 F7200 X168 Y167.631
G1 F1350 X168 Y67.361 E587.1758
G0 F7200 X169.6 Y69.347
G1 F1350 X169.6 Y165.663 E594.86416
G0 F7200 X171.2 Y162.53
G1 F1350 X171.2 Y72.481 E602.05226
G0 F7200 X65.6 Y69.058
G1 F1350 X65.6 Y165.951 E609.78668
G0 F7200 X64 Y163.041
G1 F1350 X64 Y71.963 E617.05692
G0 F7200 X64.238 Y71.4
;TIME_ELAPSED:355.955262
;LAYER:-5
M140 S60
G0 X64.238 Y71.4 Z0.54
;TYPE:SUPPORT
G1 F1350 X63.848 Y72.333 E617.15782
G1 X162.66 Y171.145 E631.10126
G1 X162.139 Y171.339 E631.15673
G1 X161.6 Y171.5 E631.21286
G1 X63.493 Y73.392 E645.05689
G1 X63.211 Y74.525 E645.17339
G1 X160.47 Y171.784 E658.89768
G1 X159.258 Y171.986 E659.02029
G1 X63.015 Y75.743 E672.60121
G1 X62.936 Y76.506 E672.67775
G1 X62.916 Y77.058 E672.73287
G1 X157.948 Y172.09 E686.14291
G1 X157.439 Y172.099 E686.19371
G1 X156.542 Y172.099 E686.28321
G1 X62.899 Y78.456 E699.49725
G1 X62.899 Y79.87 E699.63834
G1 X155.128 Y172.099 E712.65284
G1 X153.714 Y172.099 E712.79393
G1 X62.899 Y81.284 E725.60891
G1 X62.899 Y82.698 E725.75
G1 X152.3 Y172.099 E738.36545
G1 X150.885 Y172.099 E738.50664
G1 X62.899 Y84.113 E750.92241
G1 X62.899 Y85.527 E751.0635
G1 X149.471 Y172.099 E763.27975
G1 X148.057 Y172.099 E763.42084
G1 X62.899 Y86.941 E775.43755
G1 X62.899 Y88.355 E775.57864
G1 X146.643 Y172.099 E787.39582
G1 X145.229 Y172.099 E787.53691
G1 X62.899 Y89.77 E799.15449
G1 X62.899 Y91.184 E799.29558
G1 X143.814 Y172.099 E810.71356
G1 X142.4 Y172.099 E810.85465
G1 X62.899 Y92.598 E822.0731
G1 X62.899 Y94.012 E822.21419
G1 X140.986 Y172.099 E833.23311
G1 X139.572 Y172.099 E833.3742
G1 X62.899 Y95.426 E844.19359
G1 X62.899 Y96.841 E844.33478
G1 X138.158 Y172.099 E854.95457
G1 X136.743 Y172.099 E855.09576
G1 X62.899 Y98.255 E865.51594
G1 X62.899 Y99.669 E865.65703
G1 X135.329 Y172.099 E875.87769
G1 X133.915 Y172.099 E876.01878
G1 X62.899 Y101.083 E886.0399
G1 X62.899 Y102.497 E886.18099
G1 X132.501 Y172.099 E896.00258
G1 X131.086 Y172.099 E896.14377
G1 X62.899 Y103.912 E905.7657
G1 X62.899 Y105.326 E905.90679
G1 X129.672 Y172.099 E915.32918
G1 X128.258 Y172.099 E915.47027
G1 X62.899 Y106.74 E924.69313
G1 X62.899 Y108.154 E924.83422
G1 X126.844 Y172.099 E933.85755
G1 X125.43 Y172.099 E933.99864
G1 X62.899 Y109.569 E942.82237
G1 X62.899 Y110.983 E942.96345
G1 X124.015 Y172.099 E951.58758
G1 X122.601 Y172.099 E951.72867
G1 X62.899 Y112.397 E960.15327
G1 X62.899 Y113.811 E960.29436
G1 X121.187 Y172.099 E968.51943
G1 X119.773 Y172.099 E968.66051
G1 X62.899 Y115.225 E976.68605
G1 X62.899 Y116.64 E976.82724
G1 X118.359 Y172.099 E984.65317
G1 X116.944 Y172.099 E984.79436
G1 X62.899 Y118.054 E992.4207
G1 X62.899 Y119.468 E992.56179
G1 X115.53 Y172.099 E999.98859
G1 X114.116 Y172.099 E1000.12968
G1 X62.899 Y120.882 E1007.35695
G1 X62.899 Y122.296 E1007.49804
G1 X112.702 Y172.099 E1014.52578
G1 X111.288 Y172.099 E1014.66687
G1 X62.899 Y123.711 E1021.49501
G1 X62.899 Y125.125 E1021.6361
G1 X109.873 Y172.099 E1028.26464
G1 X108.459 Y172.099 E1028.40573
G1 X62.899 Y126.539 E1034.83474
G1 X62.899 Y127.953 E1034.97583
G1 X107.045 Y172.099 E1041.2053
G1 X105.631 Y172.099 E1041.34639
G1 X62.899 Y129.368 E1047.37627
G1 X62.899 Y130.782 E1047.51736
G1 X104.216 Y172.099 E1053.34763
G1 X102.802 Y172.099 E1053.48872
G1 X62.899 Y132.196 E1059.11947
G1 X62.899 Y133.61 E1059.26056
G1 X101.388 Y172.099 E1064.69177
G1 X99.974 Y172.099 E1064.83286
G1 X62.899 Y135.024 E1070.06454
G1 X62.899 Y136.439 E1070.20573
G1 X98.56 Y172.099 E1075.23781
G1 X97.145 Y172.099 E1075.379
G1 X62.899 Y137.853 E1080.21148
G1 X62.899 Y139.267 E1080.35257
G1 X95.731 Y172.099 E1084.98552
G1 X94.317 Y172.099 E1085.12661
G1 X62.899 Y140.681 E1089.56003
G1 X62.899 Y142.095 E1089.70112
G1 X92.903 Y172.099 E1093.93501
G1 X91.489 Y172.099 E1094.0761
G1 X62.899 Y143.51 E1098.11039
G1 X62.899 Y144.924 E1098.25148
G1 X90.074 Y172.099 E1102.08616
G1 X88.66 Y172.099 E1102.22725
G1 X62.899 Y146.338 E1105.86241
G1 X62.899 Y147.752 E1106.0035
G1 X87.246 Y172.099 E1109.43912
G1 X85.832 Y172.099 E1109.58021
G1 X62.899 Y149.167 E1112.81623
G1 X62.899 Y150.581 E1112.95732
G1 X84.417 Y172.099 E1115.99375
G1 X83.003 Y172.099 E1116.13484
G1 X62.899 Y151.995 E1118.97173
G1 X62.899 Y153.409 E1119.11282
G1 X81.589 Y172.099 E1121.75018
G1 X80.175 Y172.099 E1121.89127
G1 X62.899 Y154.823 E1124.3291
G1 X62.899 Y156.238 E1124.47029
G1 X78.761 Y172.099 E1126.70852
G1 X77.532 Y172.099 E1126.83115
G0 F7200 X77.339 Y172.092
G1 F1350 X62.902 Y157.655 E1128.86836
G0 F7200 X62.907 Y157.944
G1 F1350 X62.998 Y159.164 E1128.99043
G1 X75.825 Y171.991 E1130.80046
G1 X75.28 Y171.926 E1130.85523
G1 X74.391 Y171.761 E1130.94545
G0 F7200 X74.111 Y171.692
G1 F1350 X63.307 Y160.888 E1132.47001
G0 F7200 X63.404 Y161.289
G1 F1350 X63.711 Y162.289 E1132.57438
G1 X63.971 Y162.966 E1132.64675
G1 X72.034 Y171.029 E1133.78452
G1 X71.4 Y170.76 E1133.85324
G1 X70.301 Y170.198 E1133.97641
G1 X69.522 Y169.723 E1134.06745
G1 X68.819 Y169.229 E1134.15318
G1 X65.763 Y166.172 E1134.58448
G0 F7200 X66.332 Y166.901
G1 F1350 X67.056 Y167.697 E1134.69185
G1 X67.817 Y168.423 E1134.79679
G1 X68.819 Y169.229 E1134.9251
G0 F7200 X163.655 Y170.726
G1 F1350 X64.266 Y71.337 E1148.94997
G0 F7200 X70.891 Y64.483
G1 F1350 X70.408 Y64.751 E1149.00508
G1 X170.254 Y164.597 E1163.09443
G1 X169.723 Y165.477 E1163.19698
G0 F7200 X169.722 Y165.479
G1 F1350 X69.524 Y65.282 E1177.33593
G1 X68.694 Y65.865 E1177.43714
G1 X169.137 Y166.309 E1191.6108
G1 X168.502 Y167.087 E1191.71101
G1 X67.913 Y66.499 E1205.90513
G1 X67.18 Y67.18 E1206.00496
G1 X167.818 Y167.818 E1220.20607
G1 X167.086 Y168.5 E1220.3059
G1 X66.497 Y67.911 E1234.5001
G1 X65.861 Y68.689 E1234.60036
G1 X166.305 Y169.133 E1248.7741
G1 X165.474 Y169.716 E1248.87538
G1 X65.276 Y69.519 E1263.01433
G0 F7200 X65.275 Y69.521
G1 F1350 X64.746 Y70.403 E1263.11696
G1 X164.591 Y170.248 E1277.20616
G1 X164.106 Y170.515 E1277.26141
G0 F7200 X170.732 Y163.661
G1 F1350 X71.343 Y64.272 E1291.28627
G0 F7200 X157.467 Y62.899
G1 F1350 X156.238 Y62.899 E1291.4089
G1 X172.099 Y78.761 E1293.64713
G1 X172.099 Y80.175 E1293.78822
G1 X154.823 Y62.899 E1296.22605
G1 X153.409 Y62.899 E1296.36714
G1 X172.099 Y81.589 E1299.0045
G1 X172.099 Y83.003 E1299.14559
G1 X151.995 Y62.899 E1301.98248
G1 X150.581 Y62.899 E1302.12357
G1 X172.099 Y84.417 E1305.15999
G1 X172.099 Y85.832 E1305.30118
G1 X149.167 Y62.899 E1308.5372
G1 X147.752 Y62.899 E1308.67839
G1 X172.099 Y87.246 E1312.11402
G1 X172.099 Y88.66 E1312.25511
G1 X146.338 Y62.899 E1315.89026
G1 X144.924 Y62.899 E1316.03135
G1 X172.099 Y90.074 E1319.86604
G1 X172.099 Y91.489 E1320.00723
G1 X143.51 Y62.899 E1324.04151
G1 X142.095 Y62.899 E1324.1827
G1 X172.099 Y92.903 E1328.41659
G1 X172.099 Y94.317 E1328.55768
G1 X140.681 Y62.899 E1332.9911
G1 X139.267 Y62.899 E1333.13219
G1 X172.099 Y95.731 E1337.76514
