;FLAVOR:Marlin
;TIME:10216
;Filament used: 9.24201m
;Layer height: 0.2
;MINX:63.96
;MINY:72.702
;MINZ:0.24
;MAXX:171.012
;MAXY:161.045
;MAXZ:52.09
;Generated with Cura_SteamEngine 4.1.0
M140 S60
M105
M190 S60
M104 S200
M105
M109 S200
M82 ;absolute extrusion mode
; Ender 3 Custom Start G-code
G28 ; Home all axes
G92 E0 ; Reset Extruder
G1 Z2.0 F3000 ; Move Z Axis up little to prevent scratching of Heat Bed
G1 X0.1 Y20 Z0.3 F5000.0 ; Move to start position
G1 X0.1 Y200.0 Z0.3 F1500.0 E15 ; Draw the first line
G1 X0.4 Y200.0 Z0.3 F5000.0 ; Move to side a little
G1 X0.4 Y20 Z0.3 F1500.0 E30 ; Draw the second line
G92 E0 ; Reset Extruder
G1 Z2.0 F3000 ; Move Z Axis up little to prevent scratching of Heat Bed
; End of custom start GCode
G92 E0
G92 E0
G1 F2400 E-5
;LAYER_COUNT:255
;LAYER:-6
M107
M204 S500
M205 X10 Y10
G0 F7200 X69.487 Y76.515 Z0.24
;TYPE:SUPPORT-INTERFACE
G1 F2400 E0
G1 F1350 X69.626 Y76.396 E0.01461
G1 X70.317 Y75.842 E0.0853
G1 X70.456 Y75.738 E0.09916
G1 X71.171 Y75.245 E0.16849
G1 X71.355 Y75.129 E0.18585
G1 X72.111 Y74.686 E0.2558
G1 X72.253 Y74.609 E0.26869
G1 X73.198 Y74.15 E0.35255
G1 X74.048 Y73.807 E0.42572
G1 X74.221 Y73.745 E0.44039
G1 X75.059 Y73.476 E0.51064
G1 X75.223 Y73.43 E0.52424
G1 X76.095 Y73.218 E0.59587
G1 X76.257 Y73.185 E0.60907
G1 X77.15 Y73.037 E0.68133
G1 X77.327 Y73.014 E0.69557
G1 X78.221 Y72.931 E0.76724
G1 X78.363 Y72.924 E0.77859
G1 X79.104 Y72.903 E0.83777
G1 X79.942 Y72.904 E0.90466
G1 X80.121 Y72.91 E0.91895
G1 X80.442 Y72.911 E0.94458
G1 X80.81 Y72.903 E0.97396
G1 X96.396 Y72.91 E2.2181
G1 X96.85 Y72.903 E2.25435
G1 X97.617 Y72.904 E2.31557
G1 X98.741 Y72.949 E2.40537
G1 X99.658 Y73.051 E2.47902
G1 X99.833 Y73.076 E2.49313
G1 X100.722 Y73.24 E2.56529
G1 X100.845 Y73.268 E2.57536
G1 X101.739 Y73.502 E2.64913
G1 X101.902 Y73.551 E2.66271
G1 X102.744 Y73.838 E2.73372
G1 X102.91 Y73.901 E2.7479
G1 X103.713 Y74.242 E2.81753
G1 X103.902 Y74.33 E2.83418
G1 X104.813 Y74.804 E2.91615
G1 X105.592 Y75.279 E2.98898
G1 X105.743 Y75.379 E3.00344
G1 X106.457 Y75.89 E3.07353
G1 X106.605 Y76.003 E3.08839
G1 X107.405 Y76.676 E3.17184
G1 X108.073 Y77.315 E3.24563
G1 X108.719 Y78.011 E3.32143
G1 X108.838 Y78.15 E3.33604
G1 X109.381 Y78.826 E3.40525
G1 X109.496 Y78.983 E3.42079
G1 X109.93 Y79.494 E3.4743
G1 X110.432 Y79.955 E3.52871
G1 X110.991 Y80.349 E3.5833
G1 X111.593 Y80.67 E3.63776
G1 X112.231 Y80.913 E3.69226
G1 X112.9 Y81.074 E3.74718
G1 X113.808 Y81.152 E3.81993
G1 X121.196 Y81.151 E4.40967
G1 X121.865 Y81.109 E4.46318
G1 X122.534 Y80.98 E4.51757
G1 X123.184 Y80.767 E4.57217
G1 X123.8 Y80.475 E4.62658
G1 X124.376 Y80.106 E4.68119
G1 X124.9 Y79.669 E4.73565
G1 X125.36 Y79.173 E4.78965
G1 X125.75 Y78.655 E4.84141
G1 X126.434 Y77.84 E4.92634
G1 X127.083 Y77.161 E5.00132
G1 X127.779 Y76.515 E5.07712
G1 X127.918 Y76.396 E5.09173
G1 X128.609 Y75.842 E5.16243
G1 X128.748 Y75.738 E5.17628
G1 X129.463 Y75.245 E5.24561
G1 X129.647 Y75.129 E5.26297
G1 X130.403 Y74.686 E5.33292
G1 X130.545 Y74.609 E5.34581
G1 X131.49 Y74.15 E5.42967
G1 X132.34 Y73.807 E5.50284
G1 X132.513 Y73.745 E5.51751
G1 X133.351 Y73.476 E5.58776
G1 X133.515 Y73.43 E5.60136
G1 X134.387 Y73.218 E5.67299
G1 X134.549 Y73.185 E5.68619
G1 X135.442 Y73.037 E5.75845
G1 X135.619 Y73.014 E5.7727
G1 X136.513 Y72.931 E5.84437
G1 X136.655 Y72.924 E5.85571
G1 X137.396 Y72.903 E5.91489
G1 X138.223 Y72.904 E5.9809
G1 X138.405 Y72.91 E5.99544
G1 X138.729 Y72.911 E6.0213
G1 X139.024 Y72.903 E6.04486
G1 X154.683 Y72.91 E7.29483
G1 X155.141 Y72.903 E7.33139
G1 X155.907 Y72.904 E7.39254
G1 X157.031 Y72.949 E7.48233
G1 X157.948 Y73.051 E7.55598
G1 X158.123 Y73.076 E7.57009
G1 X159.012 Y73.24 E7.64225
G1 X159.135 Y73.268 E7.65232
G1 X160.029 Y73.502 E7.72609
G1 X160.192 Y73.551 E7.73968
G1 X161.034 Y73.838 E7.81069
G1 X161.2 Y73.901 E7.82486
G1 X162.003 Y74.242 E7.8945
G1 X162.192 Y74.33 E7.91114
G1 X163.103 Y74.804 E7.99311
G1 X163.882 Y75.279 E8.06595
G1 X164.033 Y75.379 E8.0804
G1 X164.747 Y75.89 E8.15049
G1 X164.895 Y76.003 E8.16535
G1 X165.695 Y76.676 E8.24881
G1 X166.363 Y77.315 E8.3226
G1 X167.009 Y78.011 E8.3984
G1 X167.128 Y78.15 E8.413
G1 X167.682 Y78.841 E8.4837
G1 X167.786 Y78.98 E8.49756
G1 X168.279 Y79.695 E8.56688
G1 X168.395 Y79.879 E8.58425
G1 X168.835 Y80.628 E8.65359
G1 X168.915 Y80.776 E8.66702
G1 X169.313 Y81.585 E8.73899
G1 X169.374 Y81.722 E8.75096
G1 X169.716 Y82.567 E8.82373
G1 X169.775 Y82.733 E8.83779
G1 X170.046 Y83.575 E8.9084
G1 X170.093 Y83.741 E8.92217
G1 X170.304 Y84.61 E8.99355
G1 X170.338 Y84.773 E9.00684
G1 X170.486 Y85.665 E9.07902
G1 X170.51 Y85.851 E9.09399
G1 X170.6 Y86.887 E9.177
G1 X170.621 Y87.62 E9.23553
G1 X170.621 Y140.097 E13.42448
G1 X170.654 Y140.685 E13.47149
G1 X170.765 Y141.654 E13.54934
G1 X170.777 Y141.811 E13.56191
G1 X170.813 Y142.715 E13.63413
G1 X170.812 Y142.906 E13.64938
G1 X170.737 Y144.408 E13.76942
G1 X170.706 Y144.711 E13.79373
G1 X170.568 Y145.718 E13.87487
G1 X170.544 Y145.855 E13.88597
G1 X170.353 Y146.753 E13.95926
G1 X170.312 Y146.915 E13.9726
G1 X170.056 Y147.799 E14.04606
G1 X169.802 Y148.579 E14.11154
G1 X169.451 Y149.543 E14.19343
G1 X169.295 Y149.926 E14.22645
G1 X168.904 Y150.807 E14.30339
G1 X168.838 Y150.943 E14.31545
G1 X168.337 Y151.87 E14.39957
G1 X167.838 Y152.659 E14.47409
G1 X167.752 Y152.783 E14.48613
G1 X167.474 Y153.166 E14.52391
G1 X167.372 Y153.318 E14.53852
G1 X166.853 Y154.025 E14.60853
G1 X166.733 Y154.177 E14.62399
G1 X166.162 Y154.848 E14.69432
G1 X166.038 Y154.983 E14.70895
G1 X165.42 Y155.609 E14.77917
G1 X165.278 Y155.743 E14.79476
G1 X164.491 Y156.425 E14.87788
G1 X163.945 Y156.846 E14.93292
G1 X162.66 Y157.786 E15.06001
G1 X161.87 Y158.322 E15.13621
G1 X161.741 Y158.403 E15.14837
G1 X160.96 Y158.853 E15.22032
G1 X160.816 Y158.929 E15.23332
G1 X160.001 Y159.322 E15.30555
G1 X159.847 Y159.389 E15.31895
G1 X159.026 Y159.714 E15.38944
G1 X158.854 Y159.776 E15.40403
G1 X157.869 Y160.082 E15.48637
G1 X157.117 Y160.264 E15.54813
G1 X155.916 Y160.52 E15.64615
G1 X155.024 Y160.677 E15.71845
G1 X154.797 Y160.707 E15.73672
G1 X153.28 Y160.832 E15.85823
G1 X152.81 Y160.846 E15.89576
G1 X151.868 Y160.841 E15.97096
G1 X151.667 Y160.833 E15.98702
G1 X150.781 Y160.765 E16.05795
G1 X150.627 Y160.747 E16.07032
G1 X150.2 Y160.682 E16.1048
G1 X149.416 Y160.623 E16.16756
G1 X135.887 Y160.624 E17.2475
G1 X135.275 Y160.66 E17.29644
G1 X134.413 Y160.762 E17.36573
G1 X134.242 Y160.776 E17.37943
G1 X133.341 Y160.817 E17.45142
G1 X133.174 Y160.818 E17.46475
G1 X132.115 Y160.785 E17.54933
G1 X131.526 Y160.734 E17.59652
G1 X131.085 Y160.683 E17.63196
G1 X129.991 Y160.517 E17.72029
G1 X129.097 Y160.316 E17.79343
G1 X128.932 Y160.273 E17.80704
G1 X128.137 Y160.038 E17.87322
G1 X127.432 Y159.807 E17.93244
G1 X126.254 Y159.367 E18.03281
G1 X125.862 Y159.201 E18.06679
G1 X124.989 Y158.797 E18.14358
G1 X124.821 Y158.712 E18.15861
G1 X123.927 Y158.21 E18.24045
G1 X123.136 Y157.692 E18.31593
G1 X122.672 Y157.361 E18.36143
G1 X122.012 Y156.884 E18.42643
G1 X121.876 Y156.777 E18.44024
G1 X121.126 Y156.139 E18.51884
G1 X120.601 Y155.72 E18.57246
G1 X120.019 Y155.364 E18.62692
G1 X119.396 Y155.084 E18.68144
G1 X118.742 Y154.885 E18.73601
G1 X118.069 Y154.77 E18.79051
G1 X117.388 Y154.741 E18.84492
G1 X116.707 Y154.799 E18.89948
G1 X116.039 Y154.941 E18.95399
G1 X115.395 Y155.168 E19.0085
G1 X114.785 Y155.472 E19.0629
G1 X114.267 Y155.818 E19.11263
G1 X114.259 Y155.801 E19.11413
G1 X113.669 Y156.324 E19.17707
G1 X112.976 Y156.892 E19.24859
G1 X112.844 Y156.993 E19.26186
G1 X111.611 Y157.884 E19.38329
G1 X111.471 Y157.977 E19.39671
G1 X110.701 Y158.454 E19.46901
G1 X110.56 Y158.534 E19.48195
G1 X109.754 Y158.954 E19.5545
G1 X109.604 Y159.025 E19.56775
G1 X108.792 Y159.377 E19.63839
G1 X108.631 Y159.441 E19.65222
G1 X107.925 Y159.693 E19.71206
G1 X106.771 Y160.066 E19.80887
G1 X105.889 Y160.319 E19.88211
G1 X105.716 Y160.361 E19.89633
G1 X104.836 Y160.545 E19.96809
G1 X104.662 Y160.576 E19.9822
G1 X103.833 Y160.691 E20.04901
G1 X103.36 Y160.74 E20.08696
G1 X102.402 Y160.808 E20.16363
G1 X102.249 Y160.813 E20.17585
G1 X101.343 Y160.811 E20.24817
G1 X101.181 Y160.805 E20.26111
G1 X100.292 Y160.738 E20.33228
G1 X100.119 Y160.719 E20.34617
G1 X99.859 Y160.68 E20.36715
G1 X99.088 Y160.623 E20.42887
G1 X84.887 Y160.624 E21.56245
G1 X84.275 Y160.66 E21.61139
G1 X83.413 Y160.762 E21.68068
G1 X83.242 Y160.776 E21.69437
G1 X82.341 Y160.817 E21.76637
G1 X82.174 Y160.818 E21.7797
G1 X81.271 Y160.794 E21.85181
G1 X81.096 Y160.784 E21.8658
G1 X80.115 Y160.686 E21.9445
G1 X79.212 Y160.555 E22.01733
G1 X79.046 Y160.525 E22.0308
G1 X78.14 Y160.327 E22.10483
G1 X78.008 Y160.293 E22.11571
G1 X77.192 Y160.053 E22.1836
G1 X76.433 Y159.806 E22.24732
G1 X75.291 Y159.382 E22.34456
G1 X74.835 Y159.188 E22.38411
G1 X74.024 Y158.814 E22.4554
G1 X73.837 Y158.719 E22.47215
G1 X73.079 Y158.301 E22.54124
G1 X72.899 Y158.192 E22.55804
G1 X72.177 Y157.722 E22.62681
G1 X71.722 Y157.401 E22.67126
G1 X71.011 Y156.883 E22.74148
G1 X70.854 Y156.76 E22.7574
G1 X70.179 Y156.189 E22.82797
G1 X70.072 Y156.091 E22.83956
G1 X69.303 Y155.33 E22.92592
G1 X68.602 Y154.527 E23.011
G1 X68.141 Y153.929 E23.07128
G1 X67.22 Y152.668 E23.19592
G1 X66.678 Y151.867 E23.27313
G1 X66.593 Y151.731 E23.28593
G1 X66.148 Y150.957 E23.35719
G1 X66.055 Y150.781 E23.37308
G1 X65.68 Y150.003 E23.44203
G1 X65.602 Y149.825 E23.45754
G1 X65.278 Y149 E23.52829
G1 X65.22 Y148.838 E23.54203
G1 X64.952 Y147.978 E23.61393
G1 X64.906 Y147.809 E23.62791
G1 X64.722 Y147.051 E23.69018
G1 X64.481 Y145.91 E23.78327
G1 X64.314 Y144.945 E23.86144
G1 X64.293 Y144.785 E23.87432
G1 X64.202 Y143.88 E23.94693
G1 X64.192 Y143.728 E23.95909
G1 X64.168 Y143.126 E24.00718
G1 X64.161 Y142.668 E24.04374
G1 X64.177 Y141.723 E24.11919
G1 X64.185 Y141.568 E24.13158
G1 X64.266 Y140.672 E24.20339
G1 X64.31 Y140.366 E24.22807
G1 X64.38 Y139.518 E24.29599
G1 X64.379 Y87.635 E28.43752
G1 X64.415 Y86.629 E28.51787
G1 X64.425 Y86.494 E28.52868
G1 X64.526 Y85.578 E28.60224
G1 X64.552 Y85.403 E28.61636
G1 X64.713 Y84.535 E28.68683
G1 X64.753 Y84.354 E28.70163
G1 X64.973 Y83.508 E28.7714
G1 X65.027 Y83.33 E28.78625
G1 X65.308 Y82.506 E28.85575
G1 X65.383 Y82.31 E28.8725
G1 X65.726 Y81.502 E28.94257
G1 X65.794 Y81.357 E28.95535
G1 X66.21 Y80.547 E29.02804
G1 X66.293 Y80.398 E29.04165
G1 X66.746 Y79.655 E29.11112
G1 X66.855 Y79.491 E29.12684
G1 X67.372 Y78.768 E29.19779
G1 X67.478 Y78.63 E29.21168
G1 X68.152 Y77.829 E29.29524
G1 X68.791 Y77.161 E29.36903
G1 X69.487 Y76.515 E29.44483
G0 F7200 X68.8 Y77.152
G1 F1350 X68.8 Y154.753 E35.63928
G0 F7200 X70.4 Y156.375
G1 F1350 X70.4 Y75.779 E42.0728
G0 F7200 X72 Y74.751
G1 F1350 X72 Y157.597 E48.68593
G0 F7200 X73.6 Y158.588
G1 F1350 X73.6 Y73.987 E55.43914
G0 F7200 X75.2 Y73.436
G1 F1350 X75.2 Y159.343 E62.29661
G0 F7200 X76.8 Y159.925
G1 F1350 X76.8 Y73.095 E69.22776
G0 F7200 X78.4 Y72.922
G1 F1350 X78.4 Y160.383 E76.20927
G0 F7200 X80 Y160.669
G1 F1350 X80 Y72.906 E83.2149
G0 F7200 X81.6 Y72.904
G1 F1350 X81.6 Y160.802 E90.23129
G0 F7200 X83.2 Y160.778
G1 F1350 X83.2 Y72.905 E97.2457
G0 F7200 X84.8 Y72.905
G1 F1350 X84.8 Y160.63 E104.24829
G0 F7200 X86.4 Y160.624
G1 F1350 X86.4 Y72.906 E111.25032
G0 F7200 X88 Y72.907
G1 F1350 X88 Y160.624 E118.25227
G0 F7200 X89.6 Y160.624
G1 F1350 X89.6 Y72.907 E125.25422
G0 F7200 X91.2 Y72.908
G1 F1350 X91.2 Y160.624 E132.25609
G0 F7200 X92.8 Y160.624
G1 F1350 X92.8 Y72.909 E139.25788
G0 F7200 X94.4 Y72.91
G1 F1350 X94.4 Y160.624 E146.25959
G0 F7200 X96 Y160.624
G1 F1350 X96 Y72.91 E153.2613
G0 F7200 X97.6 Y72.904
G1 F1350 X97.6 Y160.624 E160.26349
G0 F7200 X99.2 Y160.631
G1 F1350 X99.2 Y73.001 E167.25849
G0 F7200 X100.8 Y73.258
G1 F1350 X100.8 Y160.776 E174.24456
G0 F7200 X102.4 Y160.809
G1 F1350 X102.4 Y73.721 E181.1963
G0 F7200 X104 Y74.381
G1 F1350 X104 Y160.668 E188.0841
G0 F7200 X105.6 Y160.386
G1 F1350 X105.6 Y75.285 E194.87723
G0 F7200 X107.2 Y76.504
G1 F1350 X107.2 Y159.928 E201.5365
G0 F7200 X108.8 Y159.374
G1 F1350 X108.8 Y78.106 E208.02366
G0 F7200 X110.4 Y79.926
G1 F1350 X110.4 Y158.618 E214.30519
G0 F7200 X112 Y157.603
G1 F1350 X112 Y80.826 E220.43387
G0 F7200 X113.6 Y81.135
G1 F1350 X113.6 Y156.381 E226.44033
G0 F7200 X115.2 Y155.266
G1 F1350 X115.2 Y81.151 E232.35651
G0 F7200 X116.8 Y81.151
G1 F1350 X116.8 Y154.792 E238.23485
G0 F7200 X118.4 Y154.826
G1 F1350 X118.4 Y81.151 E244.11591
G0 F7200 X120 Y81.151
G1 F1350 X120 Y155.355 E250.03919
G0 F7200 X121.6 Y156.542
G1 F1350 X121.6 Y81.125 E256.0593
G0 F7200 X123.2 Y80.759
G1 F1350 X123.2 Y157.733 E262.2037
G0 F7200 X124.8 Y158.7
G1 F1350 X124.8 Y79.752 E268.50567
G0 F7200 X126.4 Y77.88
G1 F1350 X126.4 Y159.421 E275.01463
G0 F7200 X128 Y159.993
G1 F1350 X128 Y76.33 E281.69297
G0 F7200 X129.6 Y75.158
G1 F1350 X129.6 Y160.429 E288.49967
G0 F7200 X131.2 Y160.696
G1 F1350 X131.2 Y74.29 E295.39697
G0 F7200 X132.8 Y73.652
G1 F1350 X132.8 Y160.806 E302.35398
G0 F7200 X134.4 Y160.764
G1 F1350 X134.4 Y73.215 E309.34252
G0 F7200 X136 Y72.978
G1 F1350 X136 Y160.624 E316.3388
G0 F7200 X137.6 Y160.624
G1 F1350 X137.6 Y72.904 E323.34099
G0 F7200 X139.2 Y72.904
G1 F1350 X139.2 Y160.624 E330.34318
G0 F7200 X140.8 Y160.624
G1 F1350 X140.8 Y72.904 E337.34537
G0 F7200 X142.4 Y72.905
G1 F1350 X142.4 Y160.624 E344.34748
G0 F7200 X144 Y160.624
G1 F1350 X144 Y72.906 E351.34951
G0 F7200 X145.6 Y72.906
G1 F1350 X145.6 Y160.624 E358.35154
G0 F7200 X147.2 Y160.624
G1 F1350 X147.2 Y72.907 E365.35349
G0 F7200 X148.8 Y72.908
G1 F1350 X148.8 Y160.624 E372.35536
G0 F7200 X150.4 Y160.712
G1 F1350 X150.4 Y72.909 E379.36418
G0 F7200 X152 Y72.909
G1 F1350 X152 Y160.841 E386.38329
G0 F7200 X153.6 Y160.806
G1 F1350 X153.6 Y72.91 E393.39953
G0 F7200 X155.2 Y72.904
G1 F1350 X155.2 Y160.647 E400.40355
G0 F7200 X156.8 Y160.332
G1 F1350 X156.8 Y72.94 E407.37956
G0 F7200 X158.4 Y73.128
G1 F1350 X158.4 Y159.918 E414.30751
G0 F7200 X160 Y159.323
G1 F1350 X160 Y73.495 E421.15867
G0 F7200 X161.6 Y74.071
G1 F1350 X161.6 Y158.485 E427.89697
G0 F7200 X163.2 Y157.391
G1 F1350 X163.2 Y74.864 E434.48463
G0 F7200 X164.8 Y75.931
G1 F1350 X164.8 Y156.158 E440.88869
G0 F7200 X166.4 Y154.569
G1 F1350 X166.4 Y77.355 E447.05225
G0 F7200 X168 Y79.291
G1 F1350 X168 Y152.403 E452.88836
G0 F7200 X169.6 Y149.134
G1 F1350 X169.6 Y82.281 E458.22486
G0 F7200 X119.41 Y80.85
G0 X67.2 Y79.008
G1 F1350 X67.2 Y152.638 E464.10233
G0 F7200 X65.6 Y149.819
G1 F1350 X65.6 Y81.798 E469.53206
G0 F7200 X65.725 Y81.501
;TIME_ELAPSED:272.916770
;LAYER:-5
M140 S60
G0 X65.725 Y81.501 Z0.54
;TYPE:SUPPORT
G1 F1350 X65.369 Y82.34 E469.623
G1 X143.651 Y160.622 E480.66943
G1 X142.237 Y160.622 E480.81052
G1 X65.007 Y83.391 E491.70858
G0 F7200 X64.972 Y83.507
G1 F1350 X64.716 Y84.515 E491.81235
G1 X140.823 Y160.622 E502.55187
G1 X139.408 Y160.622 E502.69306
G1 X64.509 Y85.722 E513.26219
G1 X64.424 Y86.493 E513.33958
G1 X64.4 Y87.027 E513.39292
G1 X137.994 Y160.622 E523.7779
G1 X136.58 Y160.622 E523.91899
G1 X64.379 Y88.42 E534.1074
G1 X64.379 Y89.835 E534.24859
G1 X135.21 Y160.665 E544.24354
G1 X134.413 Y160.761 E544.32364
G0 F7200 X133.919 Y160.789
G1 F1350 X64.379 Y91.249 E554.13648
G1 X64.379 Y92.663 E554.27757
G1 X132.511 Y160.796 E563.89181
G1 X131.526 Y160.733 E563.99029
G1 X130.965 Y160.663 E564.0467
G1 X64.379 Y94.077 E573.4427
G1 X64.379 Y95.491 E573.58379
G1 X129.232 Y160.345 E582.73532
G1 X128.136 Y160.037 E582.84892
G1 X127.431 Y159.806 E582.92294
G0 F7200 X127.188 Y159.714
G1 F1350 X64.379 Y96.906 E591.7859
G1 X64.379 Y98.32 E591.92699
G1 X124.704 Y158.645 E600.4395
G1 X123.926 Y158.208 E600.52854
G1 X123.136 Y157.691 E600.62274
G1 X122.672 Y157.36 E600.67962
G1 X122.011 Y156.883 E600.76095
G1 X121.125 Y156.137 E600.87652
G1 X120.601 Y155.719 E600.9434
G1 X120.019 Y155.363 E601.01148
G0 F7200 X119.998 Y155.353
G1 F1350 X64.379 Y99.734 E608.85992
G1 X64.379 Y101.148 E609.00101
G1 X117.996 Y154.765 E616.56695
G1 X117.388 Y154.74 E616.62766
G1 X116.706 Y154.798 E616.69596
G0 F7200 X116.63 Y154.813
G1 F1350 X64.379 Y102.563 E624.06907
G1 X64.379 Y103.977 E624.21016
G1 X115.522 Y155.12 E631.42699
G1 X114.784 Y155.471 E631.50853
G0 F7200 X114.589 Y155.601
G1 F1350 X64.379 Y105.391 E638.5937
