;FLAVOR:Marlin
;TIME:10469
;Filament used: 10.4057m
;Layer height: 0.2
;MINX:62.699
;MINY:62.699
;MINZ:0.24
;MAXX:172.3
;MAXY:172.3
;MAXZ:11.09
;Generated with Cura_SteamEngine 4.1.0
M140 S60
M105
M190 S60
M104 S200
M105
M109 S200
M82 ;absolute extrusion mode
; Ender 3 Custom Start G-code
G28 ; Home all axes
G92 E0 ; Reset Extruder
G1 Z2.0 F3000 ; Move Z Axis up little to prevent scratching of Heat Bed
G1 X0.1 Y20 Z0.3 F5000.0 ; Move to start position
G1 X0.1 Y200.0 Z0.3 F1500.0 E15 ; Draw the first line
G1 X0.4 Y200.0 Z0.3 F5000.0 ; Move to side a little
G1 X0.4 Y20 Z0.3 F1500.0 E30 ; Draw the second line
G92 E0 ; Reset Extruder
G1 Z2.0 F3000 ; Move Z Axis up little to prevent scratching of Heat Bed
; End of custom start GCode
G92 E0
G92 E0
G1 F2400 E-5
;LAYER_COUNT:50
;LAYER:-6
M107
M204 S500
M205 X10 Y10
G0 F7200 X67.312 Y67.158 Z0.24
;TYPE:SUPPORT-INTERFACE
G1 F2400 E0
G1 F1350 X68.008 Y66.512 E0.0758
G1 X68.147 Y66.393 E0.09041
G1 X68.838 Y65.839 E0.1611
G1 X68.977 Y65.735 E0.17496
G1 X69.692 Y65.242 E0.24429
G1 X69.876 Y65.126 E0.26165
G1 X70.632 Y64.683 E0.3316
G1 X70.774 Y64.606 E0.34449
G1 X71.719 Y64.147 E0.42835
G1 X72.569 Y63.804 E0.50152
G1 X72.742 Y63.742 E0.51619
G1 X73.58 Y63.473 E0.58644
G1 X73.744 Y63.427 E0.60004
G1 X74.616 Y63.215 E0.67167
G1 X74.778 Y63.182 E0.68487
G1 X75.671 Y63.034 E0.75713
G1 X75.848 Y63.011 E0.77137
G1 X76.742 Y62.928 E0.84304
G1 X76.884 Y62.921 E0.85439
G1 X77.625 Y62.9 E0.91357
G1 X157.351 Y62.9 E7.27764
G1 X157.386 Y62.901 E7.28044
G1 X158.51 Y62.946 E7.37023
G1 X159.427 Y63.048 E7.44388
G1 X159.602 Y63.073 E7.45799
G1 X160.491 Y63.237 E7.53015
G1 X160.614 Y63.265 E7.54022
G1 X161.508 Y63.499 E7.61399
G1 X161.671 Y63.548 E7.62758
G1 X162.513 Y63.835 E7.69858
G1 X162.679 Y63.898 E7.71276
G1 X163.482 Y64.239 E7.7824
G1 X163.671 Y64.327 E7.79904
G1 X164.582 Y64.801 E7.88101
G1 X165.361 Y65.276 E7.95384
G1 X165.512 Y65.376 E7.9683
G1 X166.226 Y65.887 E8.03839
G1 X166.374 Y66 E8.05325
G1 X167.174 Y66.673 E8.1367
G1 X167.842 Y67.312 E8.21049
G1 X168.488 Y68.008 E8.2863
G1 X168.607 Y68.147 E8.3009
G1 X169.161 Y68.838 E8.3716
G1 X169.265 Y68.977 E8.38546
G1 X169.758 Y69.692 E8.45478
G1 X169.874 Y69.876 E8.47215
G1 X170.387 Y70.759 E8.55366
G1 X170.792 Y71.582 E8.62688
G1 X170.853 Y71.719 E8.63885
G1 X171.195 Y72.564 E8.71162
G1 X171.254 Y72.73 E8.72568
G1 X171.525 Y73.572 E8.79629
G1 X171.572 Y73.738 E8.81006
G1 X171.783 Y74.607 E8.88144
G1 X171.817 Y74.77 E8.89474
G1 X171.965 Y75.662 E8.96691
G1 X171.989 Y75.848 E8.98188
G1 X172.079 Y76.884 E9.06489
G1 X172.1 Y77.617 E9.12343
G1 X172.1 Y157.369 E15.48958
G1 X172.064 Y158.375 E15.56993
G1 X172.054 Y158.51 E15.58074
G1 X171.952 Y159.427 E15.65439
G1 X171.927 Y159.602 E15.6685
G1 X171.765 Y160.48 E15.73977
G1 X171.735 Y160.614 E15.75073
G1 X171.504 Y161.499 E15.82374
G1 X171.452 Y161.671 E15.83808
G1 X171.165 Y162.513 E15.90909
G1 X171.102 Y162.679 E15.92327
G1 X170.761 Y163.482 E15.99291
G1 X170.68 Y163.657 E16.0083
G1 X170.276 Y164.443 E16.07884
G1 X170.198 Y164.582 E16.09157
G1 X169.724 Y165.361 E16.16436
G1 X169.624 Y165.512 E16.17881
G1 X169.113 Y166.226 E16.2489
G1 X169 Y166.374 E16.26376
G1 X168.327 Y167.174 E16.34722
G1 X167.688 Y167.842 E16.42101
G1 X167.003 Y168.478 E16.49562
G1 X166.855 Y168.605 E16.51119
G1 X166.162 Y169.161 E16.58211
G1 X166.023 Y169.265 E16.59597
G1 X165.308 Y169.758 E16.66529
G1 X165.124 Y169.874 E16.68266
G1 X164.368 Y170.317 E16.7526
G1 X164.226 Y170.394 E16.7655
G1 X163.281 Y170.853 E16.84936
G1 X162.426 Y171.198 E16.92295
G1 X162.263 Y171.256 E16.93676
G1 X161.42 Y171.527 E17.00745
G1 X161.256 Y171.573 E17.02104
G1 X160.384 Y171.785 E17.09268
G1 X160.222 Y171.818 E17.10588
G1 X159.329 Y171.966 E17.17813
G1 X159.152 Y171.989 E17.19238
G1 X158.258 Y172.072 E17.26405
G1 X158.116 Y172.079 E17.2754
G1 X157.375 Y172.1 E17.33457
G1 X77.649 Y172.1 E23.69865
G1 X77.614 Y172.099 E23.70144
G1 X76.49 Y172.054 E23.79123
G1 X75.573 Y171.952 E23.86489
G1 X75.398 Y171.927 E23.879
G1 X74.509 Y171.763 E23.95116
G1 X74.386 Y171.735 E23.96123
G1 X73.492 Y171.501 E24.03499
G1 X73.329 Y171.452 E24.04858
G1 X72.487 Y171.165 E24.11959
G1 X72.321 Y171.102 E24.13376
G1 X71.518 Y170.761 E24.2034
G1 X71.329 Y170.673 E24.22004
G1 X70.418 Y170.199 E24.30202
G1 X69.639 Y169.724 E24.37485
G1 X69.488 Y169.624 E24.38931
G1 X68.774 Y169.113 E24.45939
G1 X68.626 Y169 E24.47426
G1 X67.826 Y168.327 E24.55771
G1 X67.154 Y167.684 E24.63195
G1 X66.51 Y166.99 E24.70753
G1 X66.393 Y166.853 E24.72191
G1 X65.843 Y166.167 E24.79209
G1 X65.727 Y166.011 E24.80761
G1 X65.242 Y165.308 E24.87579
G1 X65.126 Y165.124 E24.89315
G1 X64.683 Y164.368 E24.96309
G1 X64.606 Y164.226 E24.97599
G1 X64.147 Y163.281 E25.05985
G1 X63.798 Y162.417 E25.13423
G1 X63.742 Y162.259 E25.14761
G1 X63.47 Y161.411 E25.2187
G1 X63.428 Y161.261 E25.23114
G1 X63.212 Y160.373 E25.30409
G1 X63.183 Y160.23 E25.31573
G1 X63.033 Y159.324 E25.38904
G1 X63.011 Y159.152 E25.40288
G1 X62.928 Y158.253 E25.47495
G1 X62.921 Y158.116 E25.4859
G1 X62.9 Y157.383 E25.54443
G1 X62.9 Y77.631 E31.91058
G1 X62.936 Y76.625 E31.99094
G1 X62.946 Y76.49 E32.00174
G1 X63.047 Y75.575 E32.07523
G1 X63.073 Y75.4 E32.08935
G1 X63.235 Y74.52 E32.16077
G1 X63.265 Y74.386 E32.17174
G1 X63.496 Y73.5 E32.24482
G1 X63.548 Y73.329 E32.25909
G1 X63.835 Y72.487 E32.3301
G1 X63.898 Y72.321 E32.34427
G1 X64.239 Y71.518 E32.41391
G1 X64.32 Y71.343 E32.42931
G1 X64.801 Y70.418 E32.51253
G1 X65.276 Y69.639 E32.58536
G1 X65.376 Y69.488 E32.59982
G1 X65.892 Y68.767 E32.67059
G1 X66 Y68.626 E32.68477
G1 X66.673 Y67.826 E32.76822
G1 X67.312 Y67.158 E32.84201
G0 F7200 X67.2 Y67.275
G1 F1350 X67.2 Y167.728 E40.8606
G0 F7200 X68.8 Y169.131
G1 F1350 X68.8 Y65.869 E49.10342
G0 F7200 X70.4 Y64.818
G1 F1350 X70.4 Y170.188 E57.51451
G0 F7200 X72 Y170.965
G1 F1350 X72 Y64.033 E66.05029
G0 F7200 X73.6 Y63.467
G1 F1350 X73.6 Y171.529 E74.67626
G0 F7200 X75.2 Y171.89
G1 F1350 X75.2 Y63.112 E83.35939
G0 F7200 X76.8 Y62.925
G1 F1350 X76.8 Y172.066 E92.0715
G0 F7200 X78.4 Y172.1
G1 F1350 X78.4 Y62.9 E100.78832
G0 F7200 X80 Y62.9
G1 F1350 X80 Y172.1 E109.50513
G0 F7200 X81.6 Y172.1
G1 F1350 X81.6 Y62.9 E118.22195
G0 F7200 X83.2 Y62.9
G1 F1350 X83.2 Y172.1 E126.93877
G0 F7200 X84.8 Y172.1
G1 F1350 X84.8 Y62.9 E135.65558
G0 F7200 X86.4 Y62.9
G1 F1350 X86.4 Y172.1 E144.3724
G0 F7200 X88 Y172.1
G1 F1350 X88 Y62.9 E153.08921
G0 F7200 X89.6 Y62.9
G1 F1350 X89.6 Y172.1 E161.80603
G0 F7200 X91.2 Y172.1
G1 F1350 X91.2 Y62.9 E170.52285
G0 F7200 X92.8 Y62.9
G1 F1350 X92.8 Y172.1 E179.23966
G0 F7200 X94.4 Y172.1
G1 F1350 X94.4 Y62.9 E187.95648
G0 F7200 X96 Y62.9
G1 F1350 X96 Y172.1 E196.67329
G0 F7200 X97.6 Y172.1
G1 F1350 X97.6 Y62.9 E205.39011
G0 F7200 X99.2 Y62.9
G1 F1350 X99.2 Y172.1 E214.10693
G0 F7200 X100.8 Y172.1
G1 F1350 X100.8 Y62.9 E222.82374
G0 F7200 X102.4 Y62.9
G1 F1350 X102.4 Y172.1 E231.54056
G0 F7200 X104 Y172.1
G1 F1350 X104 Y62.9 E240.25738
G0 F7200 X105.6 Y62.9
G1 F1350 X105.6 Y172.1 E248.97419
G0 F7200 X107.2 Y172.1
G1 F1350 X107.2 Y62.9 E257.69101
G0 F7200 X108.8 Y62.9
G1 F1350 X108.8 Y172.1 E266.40782
G0 F7200 X110.4 Y172.1
G1 F1350 X110.4 Y62.9 E275.12464
G0 F7200 X112 Y62.9
G1 F1350 X112 Y172.1 E283.84146
G0 F7200 X113.6 Y172.1
G1 F1350 X113.6 Y62.9 E292.55827
G0 F7200 X115.2 Y62.9
G1 F1350 X115.2 Y172.1 E301.27509
G0 F7200 X116.8 Y172.1
G1 F1350 X116.8 Y62.9 E309.99191
G0 F7200 X118.4 Y62.9
G1 F1350 X118.4 Y172.1 E318.70872
G0 F7200 X120 Y172.1
G1 F1350 X120 Y62.9 E327.42554
G0 F7200 X121.6 Y62.9
G1 F1350 X121.6 Y172.1 E336.14235
G0 F7200 X123.2 Y172.1
G1 F1350 X123.2 Y62.9 E344.85917
G0 F7200 X124.8 Y62.9
G1 F1350 X124.8 Y172.1 E353.57599
G0 F7200 X126.4 Y172.1
G1 F1350 X126.4 Y62.9 E362.2928
G0 F7200 X128 Y62.9
G1 F1350 X128 Y172.1 E371.00962
G0 F7200 X129.6 Y172.1
G1 F1350 X129.6 Y62.9 E379.72643
G0 F7200 X131.2 Y62.9
G1 F1350 X131.2 Y172.1 E388.44325
G0 F7200 X132.8 Y172.1
G1 F1350 X132.8 Y62.9 E397.16007
G0 F7200 X134.4 Y62.9
G1 F1350 X134.4 Y172.1 E405.87688
G0 F7200 X136 Y172.1
G1 F1350 X136 Y62.9 E414.5937
G0 F7200 X137.6 Y62.9
G1 F1350 X137.6 Y172.1 E423.31052
G0 F7200 X139.2 Y172.1
G1 F1350 X139.2 Y62.9 E432.02733
G0 F7200 X140.8 Y62.9
G1 F1350 X140.8 Y172.1 E440.74415
G0 F7200 X142.4 Y172.1
G1 F1350 X142.4 Y62.9 E449.46096
G0 F7200 X144 Y62.9
G1 F1350 X144 Y172.1 E458.17778
G0 F7200 X145.6 Y172.1
G1 F1350 X145.6 Y62.9 E466.8946
G0 F7200 X147.2 Y62.9
G1 F1350 X147.2 Y172.1 E475.61141
G0 F7200 X148.8 Y172.1
G1 F1350 X148.8 Y62.9 E484.32823
G0 F7200 X150.4 Y62.9
G1 F1350 X150.4 Y172.1 E493.04505
G0 F7200 X152 Y172.1
G1 F1350 X152 Y62.9 E501.76186
G0 F7200 X153.6 Y62.9
G1 F1350 X153.6 Y172.1 E510.47868
G0 F7200 X155.2 Y172.1
G1 F1350 X155.2 Y62.9 E519.19549
G0 F7200 X156.8 Y62.9
G1 F1350 X156.8 Y172.1 E527.91231
G0 F7200 X158.4 Y172.059
G1 F1350 X158.4 Y62.942 E536.6225
G0 F7200 X160 Y63.147
G1 F1350 X160 Y171.855 E545.30004
G0 F7200 X161.6 Y171.47
G1 F1350 X161.6 Y63.527 E553.91652
G0 F7200 X163.2 Y64.12
G1 F1350 X163.2 Y170.886 E562.43904
G0 F7200 X164.8 Y170.064
G1 F1350 X164.8 Y64.934 E570.83098
G0 F7200 X166.4 Y66.022
G1 F1350 X166.4 Y168.971 E579.04881
G0 F7200 X168 Y167.516
G1 F1350 X168 Y67.483 E587.03388
G0 F7200 X169.6 Y69.463
G1 F1350 X169.6 Y165.546 E594.70364
G0 F7200 X171.2 Y162.411
G1 F1350 X171.2 Y72.579 E601.87442
G0 F7200 X65.6 Y69.175
G1 F1350 X65.6 Y165.826 E609.58952
G0 F7200 X64 Y162.917
G1 F1350 X64 Y72.08 E616.84052
G0 F7200 X64.238 Y71.517
;TIME_ELAPSED:355.839549
;LAYER:-5
M140 S60
G0 X64.238 Y71.517 Z0.54
;TYPE:SUPPORT
G1 F1350 X63.88 Y72.366 E616.93246
G1 X162.628 Y171.114 E630.86687
G1 X161.576 Y171.475 E630.97784
G1 X63.519 Y73.418 E644.81474
G0 F7200 X63.496 Y73.498
G1 F1350 X63.23 Y74.543 E644.92234
G1 X160.453 Y171.766 E658.64156
G1 X159.328 Y171.964 E658.75553
G0 F7200 X159.247 Y171.975
G1 F1350 X63.026 Y75.754 E672.33336
G1 X62.945 Y76.489 E672.40714
G1 X62.919 Y77.061 E672.46427
G1 X157.941 Y172.083 E685.8729
G1 X157.375 Y172.099 E685.9294
G1 X156.542 Y172.099 E686.01252
G1 X62.899 Y78.456 E699.22656
G1 X62.899 Y79.87 E699.36765
G1 X155.128 Y172.099 E712.38215
G1 X153.714 Y172.099 E712.52324
G1 X62.899 Y81.284 E725.33822
G1 X62.899 Y82.698 E725.47931
G1 X152.3 Y172.099 E738.09476
G1 X150.885 Y172.099 E738.23595
G1 X62.899 Y84.113 E750.65172
G1 X62.899 Y85.527 E750.79281
G1 X149.471 Y172.099 E763.00906
G1 X148.057 Y172.099 E763.15015
G1 X62.899 Y86.941 E775.16686
G1 X62.899 Y88.355 E775.30795
G1 X146.643 Y172.099 E787.12513
G1 X145.229 Y172.099 E787.26622
G1 X62.899 Y89.77 E798.8838
G1 X62.899 Y91.184 E799.02489
G1 X143.814 Y172.099 E810.44287
G1 X142.4 Y172.099 E810.58396
G1 X62.899 Y92.598 E821.80241
G1 X62.899 Y94.012 E821.9435
G1 X140.986 Y172.099 E832.96242
G1 X139.572 Y172.099 E833.10351
G1 X62.899 Y95.426 E843.9229
G1 X62.899 Y96.841 E844.06409
G1 X138.158 Y172.099 E854.68388
G1 X136.743 Y172.099 E854.82507
G1 X62.899 Y98.255 E865.24525
G1 X62.899 Y99.669 E865.38634
G1 X135.329 Y172.099 E875.607
G1 X133.915 Y172.099 E875.74809
G1 X62.899 Y101.083 E885.76921
G1 X62.899 Y102.497 E885.9103
G1 X132.501 Y172.099 E895.73189
G1 X131.086 Y172.099 E895.87308
G1 X62.899 Y103.912 E905.49501
G1 X62.899 Y105.326 E905.63609
G1 X129.672 Y172.099 E915.05849
G1 X128.258 Y172.099 E915.19958
G1 X62.899 Y106.74 E924.42244
G1 X62.899 Y108.154 E924.56353
G1 X126.844 Y172.099 E933.58686
G1 X125.43 Y172.099 E933.72795
G1 X62.899 Y109.569 E942.55168
G1 X62.899 Y110.983 E942.69276
G1 X124.015 Y172.099 E951.31689
G1 X122.601 Y172.099 E951.45798
G1 X62.899 Y112.397 E959.88258
G1 X62.899 Y113.811 E960.02367
G1 X121.187 Y172.099 E968.24874
G1 X119.773 Y172.099 E968.38982
G1 X62.899 Y115.225 E976.41536
G1 X62.899 Y116.64 E976.55655
G1 X118.359 Y172.099 E984.38248
G1 X116.944 Y172.099 E984.52367
G1 X62.899 Y118.054 E992.15001
G1 X62.899 Y119.468 E992.2911
G1 X115.53 Y172.099 E999.7179
G1 X114.116 Y172.099 E999.85899
G1 X62.899 Y120.882 E1007.08626
G1 X62.899 Y122.296 E1007.22735
G1 X112.702 Y172.099 E1014.25509
G1 X111.288 Y172.099 E1014.39618
G1 X62.899 Y123.711 E1021.22432
G1 X62.899 Y125.125 E1021.36541
G1 X109.873 Y172.099 E1027.99395
G1 X108.459 Y172.099 E1028.13504
G1 X62.899 Y126.539 E1034.56405
G1 X62.899 Y127.953 E1034.70514
G1 X107.045 Y172.099 E1040.93461
G1 X105.631 Y172.099 E1041.0757
G1 X62.899 Y129.368 E1047.10558
G1 X62.899 Y130.782 E1047.24667
G1 X104.216 Y172.099 E1053.07694
G1 X102.802 Y172.099 E1053.21803
G1 X62.899 Y132.196 E1058.84878
G1 X62.899 Y133.61 E1058.98987
G1 X101.388 Y172.099 E1064.42108
G1 X99.974 Y172.099 E1064.56217
G1 X62.899 Y135.024 E1069.79385
G1 X62.899 Y136.439 E1069.93504
G1 X98.56 Y172.099 E1074.96712
G1 X97.145 Y172.099 E1075.10831
G1 X62.899 Y137.853 E1079.94079
G1 X62.899 Y139.267 E1080.08188
G1 X95.731 Y172.099 E1084.71483
G1 X94.317 Y172.099 E1084.85592
G1 X62.899 Y140.681 E1089.28934
G1 X62.899 Y142.095 E1089.43043
G1 X92.903 Y172.099 E1093.66432
G1 X91.489 Y172.099 E1093.80541
G1 X62.899 Y143.51 E1097.8397
G1 X62.899 Y144.924 E1097.98079
G1 X90.074 Y172.099 E1101.81547
G1 X88.66 Y172.099 E1101.95656
G1 X62.899 Y146.338 E1105.59172
G1 X62.899 Y147.752 E1105.73281
G1 X87.246 Y172.099 E1109.16843
G1 X85.832 Y172.099 E1109.30952
G1 X62.899 Y149.167 E1112.54554
G1 X62.899 Y150.581 E1112.68663
G1 X84.417 Y172.099 E1115.72306
G1 X83.003 Y172.099 E1115.86415
G1 X62.899 Y151.995 E1118.70104
G1 X62.899 Y153.409 E1118.84213
G1 X81.589 Y172.099 E1121.47949
G1 X80.175 Y172.099 E1121.62058
G1 X62.899 Y154.823 E1124.05841
G1 X62.899 Y156.238 E1124.1996
G1 X78.761 Y172.099 E1126.43783
G1 X77.649 Y172.099 E1126.54878
G0 F7200 X77.334 Y172.086
G1 F1350 X62.907 Y157.659 E1128.58459
G1 X62.928 Y158.251 E1128.64369
G1 X63.014 Y159.181 E1128.73689
G1 X75.811 Y171.977 E1130.54261
G1 X74.509 Y171.761 E1130.6743
G0 F7200 X74.07 Y171.651
G1 F1350 X63.346 Y160.927 E1132.18757
G0 F7200 X63.469 Y161.409
G1 F1350 X63.798 Y162.416 E1132.29328
G1 X64.052 Y163.047 E1132.36115
G1 X71.947 Y170.942 E1133.47522
G1 X71.329 Y170.672 E1133.54251
G1 X70.417 Y170.197 E1133.64511
G1 X69.639 Y169.723 E1133.73602
G1 X68.773 Y169.112 E1133.84177
G0 F7200 X66.509 Y166.989
G1 F1350 X67.153 Y167.683 E1133.93624
G1 X67.826 Y168.326 E1134.02911
G1 X68.4 Y168.809 E1134.10396
G1 X66.192 Y166.601 E1134.41554
G0 F7200 X64.304 Y71.375
G1 F1350 X163.617 Y170.688 E1148.42967
G1 X164.551 Y170.208 E1148.53446
G1 X64.787 Y70.444 E1162.61223
G1 X65.275 Y69.638 E1162.70625
G0 F7200 X65.323 Y69.565
G1 F1350 X165.429 Y169.672 E1176.83236
G1 X166.256 Y169.084 E1176.93361
G1 X65.911 Y68.739 E1191.09337
G1 X66.552 Y67.967 E1191.19349
G1 X167.033 Y168.447 E1205.37238
G1 X167.763 Y167.763 E1205.4722
G1 X67.235 Y67.235 E1219.65778
G1 X67.965 Y66.551 E1219.7576
G1 X168.446 Y167.032 E1233.93656
G1 X169.087 Y166.259 E1234.03675
G1 X68.743 Y65.915 E1248.19638
G1 X69.569 Y65.326 E1248.2976
G1 X169.675 Y165.433 E1262.42371
G0 F7200 X169.723 Y165.36
G1 F1350 X170.212 Y164.555 E1262.51769
G1 X70.448 Y64.791 E1276.59547
G1 X71.381 Y64.31 E1276.70021
G1 X170.694 Y163.623 E1290.71435
G0 F7200 X170.76 Y163.481
G1 F1350 X171.118 Y162.633 E1290.80619
G1 X72.37 Y63.884 E1304.74067
G1 X73.423 Y63.523 E1304.85174
G1 X171.479 Y161.579 E1318.6885
G0 F7200 X171.503 Y161.498
G1 F1350 X171.768 Y160.455 E1318.79588
G1 X74.546 Y63.232 E1332.51503
G1 X75.67 Y63.034 E1332.62891
G0 F7200 X75.751 Y63.023
G1 F1350 X171.971 Y159.243 E1346.20659
G1 X172.053 Y158.51 E1346.28018
G1 X172.079 Y157.937 E1346.33742
G1 X77.058 Y62.916 E1359.74591
G1 X77.624 Y62.899 E1359.80241
G1 X78.456 Y62.899 E1359.88542
G1 X172.099 Y156.542 E1373.09946
G1 X172.099 Y155.128 E1373.24055
G1 X79.87 Y62.899 E1386.25506
G1 X81.284 Y62.899 E1386.39615
G1 X172.099 Y153.714 E1399.21113
G1 X172.099 Y152.3 E1399.35222
G1 X82.698 Y62.899 E1411.96766
G1 X84.113 Y62.899 E1412.10885
G1 X172.099 Y150.885 E1424.52463
G1 X172.099 Y149.471 E1424.66572
G1 X85.527 Y62.899 E1436.88196
G1 X86.941 Y62.899 E1437.02305
G1 X172.099 Y148.057 E1449.03977
G1 X172.099 Y146.643 E1449.18086
G1 X88.355 Y62.899 E1460.99804
G1 X89.77 Y62.899 E1461.13923
G1 X172.099 Y145.229 E1472.75681
G1 X172.099 Y143.814 E1472.898
G1 X91.184 Y62.899 E1484.31598
G1 X92.598 Y62.899 E1484.45707
