;FLAVOR:Marlin
;TIME:497
;Filament used: 0.205334m
;Layer height: 0.15
;Generated with Cura_SteamEngine 3.6.0
M140 S45
M105
M190 S45
M104 S200
M105
M109 S200
M82 ;absolute extrusion mode
; Ender 3 Custom Start G-code
G28 ; Home all axes
G92 E0 ; Reset Extruder
G1 Z2.0 F3000 ; Move Z Axis up little to prevent scratching of Heat Bed
G1 X0.1 Y20 Z0.3 F5000.0 ; Move to start position
G1 X0.1 Y200.0 Z0.3 F1500.0 E15 ; Draw the first line
G1 X0.4 Y200.0 Z0.3 F5000.0 ; Move to side a little
G1 X0.4 Y20 Z0.3 F1500.0 E30 ; Draw the second line
G92 E0 ; Reset Extruder
G1 Z2.0 F3000 ; Move Z Axis up little to prevent scratching of Heat Bed
; End of custom start GCode
G92 E0
G1 F2400 E-5
;LAYER_COUNT:40
;LAYER:0
M107
M204 S5000
M205 X30 Y30
G0 F3600 X107.235 Y106.485 Z0.2
M204 S500
M205 X20 Y20
;TYPE:SKIRT
G1 F2400 E0
G1 F1500 X110.235 Y103.485 E0.14111
G1 X110.821 Y102.955 E0.16739
G1 X111.457 Y102.488 E0.19363
G1 X112.137 Y102.087 E0.21989
G1 X112.855 Y101.757 E0.24617
G1 X113.602 Y101.502 E0.27243
G1 X114.371 Y101.323 E0.29869
G1 X115.155 Y101.223 E0.32497
G1 X115.75 Y101.2 E0.34478
G1 X122.25 Y101.2 E0.56097
G1 X123.039 Y101.24 E0.58725
G1 X123.819 Y101.359 E0.61349
G1 X124.584 Y101.557 E0.63977
G1 X125.324 Y101.831 E0.66602
G1 X126.033 Y102.179 E0.69229
G1 X126.704 Y102.597 E0.71858
G1 X127.328 Y103.08 E0.74482
G1 X127.901 Y103.623 E0.77108
G1 X128.416 Y104.222 E0.79735
G1 X128.867 Y104.87 E0.82361
G1 X129.251 Y105.561 E0.84991
G1 X129.563 Y106.286 E0.87616
G1 X129.8 Y107.039 E0.90241
G1 X129.959 Y107.813 E0.92869
G1 X130.04 Y108.598 E0.95494
G1 X130.05 Y109 E0.96832
G1 X130.05 Y110.5 E1.01821
G1 X130.01 Y111.289 E1.04448
G1 X129.891 Y112.069 E1.07073
G1 X129.693 Y112.834 E1.09701
G1 X129.419 Y113.574 E1.12325
G1 X129.071 Y114.283 E1.14952
G1 X128.653 Y114.954 E1.17582
G1 X128.17 Y115.578 E1.20206
G1 X127.765 Y116.015 E1.22188
G1 X126.765 Y117.015 E1.26892
G1 X126.227 Y117.502 E1.29305
G1 X126.328 Y117.58 E1.2973
G1 X126.765 Y117.985 E1.31711
G1 X127.765 Y118.985 E1.36415
G1 X128.295 Y119.571 E1.39043
G1 X128.762 Y120.207 E1.41667
G1 X129.163 Y120.887 E1.44293
G1 X129.493 Y121.605 E1.46921
G1 X129.748 Y122.352 E1.49547
G1 X129.927 Y123.121 E1.52173
G1 X130.027 Y123.905 E1.54801
G1 X130.05 Y124.5 E1.56782
G1 X130.05 Y126 E1.61771
G1 X130.01 Y126.789 E1.64398
G1 X129.891 Y127.569 E1.67023
G1 X129.693 Y128.334 E1.69651
G1 X129.419 Y129.074 E1.72276
G1 X129.071 Y129.783 E1.74902
G1 X128.653 Y130.454 E1.77532
G1 X128.17 Y131.078 E1.80156
G1 X127.627 Y131.651 E1.82782
G1 X127.028 Y132.166 E1.85409
G1 X126.38 Y132.617 E1.88035
G1 X125.689 Y133.001 E1.90665
G1 X124.964 Y133.313 E1.9329
G1 X124.211 Y133.55 E1.95915
G1 X123.437 Y133.709 E1.98543
G1 X122.652 Y133.79 E2.01168
G1 X122.25 Y133.8 E2.02506
G1 X115.75 Y133.8 E2.24125
G1 X114.961 Y133.76 E2.26752
G1 X114.181 Y133.641 E2.29377
G1 X113.416 Y133.443 E2.32005
G1 X112.676 Y133.169 E2.34629
G1 X111.967 Y132.821 E2.37256
G1 X111.296 Y132.403 E2.39886
G1 X110.672 Y131.92 E2.4251
G1 X110.235 Y131.515 E2.44492
G1 X107.235 Y128.515 E2.58603
G1 X106.705 Y127.929 E2.61231
G1 X106.238 Y127.293 E2.63855
G1 X105.837 Y126.613 E2.66481
G1 X105.507 Y125.895 E2.69109
G1 X105.252 Y125.148 E2.71735
G1 X105.073 Y124.379 E2.74361
G1 X104.973 Y123.595 E2.76989
G1 X104.95 Y123 E2.7897
G1 X104.95 Y112 E3.15556
G1 X104.99 Y111.211 E3.18184
G1 X105.109 Y110.431 E3.20808
G1 X105.307 Y109.666 E3.23436
G1 X105.581 Y108.926 E3.26061
G1 X105.929 Y108.217 E3.28688
G1 X106.347 Y107.546 E3.31317
G1 X106.83 Y106.922 E3.33941
G1 X107.235 Y106.485 E3.35923
M204 S5000
M205 X30 Y30
G0 F3600 X107.517 Y106.767
M204 S500
M205 X20 Y20
G1 F1500 X110.517 Y103.767 E3.50034
G1 X111.089 Y103.253 E3.52592
G1 X111.711 Y102.8 E3.55151
G1 X112.376 Y102.414 E3.57709
G1 X113.078 Y102.099 E3.60268
G1 X113.809 Y101.859 E3.62827
G1 X114.56 Y101.696 E3.65383
G1 X115.325 Y101.612 E3.67942
G1 X115.75 Y101.6 E3.69357
G1 X122.25 Y101.6 E3.90976
G1 X123.018 Y101.64 E3.93534
G1 X123.778 Y101.759 E3.96092
G1 X124.521 Y101.957 E3.9865
G1 X125.24 Y102.231 E4.01209
G1 X125.926 Y102.578 E4.03766
G1 X126.573 Y102.994 E4.06324
G1 X127.173 Y103.475 E4.08882
G1 X127.72 Y104.016 E4.11441
G1 X128.208 Y104.611 E4.14
G1 X128.631 Y105.253 E4.16557
G1 X128.986 Y105.936 E4.19117
G1 X129.267 Y106.651 E4.21672
G1 X129.473 Y107.393 E4.24234
G1 X129.601 Y108.151 E4.26791
G1 X129.65 Y109 E4.29619
G1 X129.65 Y110.5 E4.34608
G1 X129.61 Y111.268 E4.37166
G1 X129.491 Y112.028 E4.39724
G1 X129.293 Y112.771 E4.42282
G1 X129.019 Y113.49 E4.44841
G1 X128.672 Y114.176 E4.47398
G1 X128.256 Y114.823 E4.49956
G1 X127.775 Y115.423 E4.52514
G1 X127.483 Y115.733 E4.53931
G1 X126.483 Y116.733 E4.58634
G1 X125.911 Y117.247 E4.61192
G1 X125.572 Y117.494 E4.62587
G1 X125.573 Y117.494 E4.6259
G1 X126.173 Y117.975 E4.65148
G1 X126.483 Y118.267 E4.66565
G1 X127.483 Y119.267 E4.71268
G1 X127.997 Y119.839 E4.73826
G1 X128.45 Y120.461 E4.76385
G1 X128.836 Y121.126 E4.78943
G1 X129.151 Y121.828 E4.81502
G1 X129.391 Y122.559 E4.84061
G1 X129.554 Y123.31 E4.86617
G1 X129.638 Y124.075 E4.89176
G1 X129.65 Y124.5 E4.90591
G1 X129.65 Y126 E4.9558
G1 X129.61 Y126.768 E4.98137
G1 X129.491 Y127.528 E5.00696
G1 X129.293 Y128.271 E5.03254
G1 X129.019 Y128.99 E5.05813
G1 X128.672 Y129.676 E5.0837
G1 X128.256 Y130.323 E5.10928
G1 X127.775 Y130.923 E5.13486
G1 X127.234 Y131.47 E5.16045
G1 X126.639 Y131.958 E5.18604
G1 X125.997 Y132.381 E5.21161
G1 X125.314 Y132.736 E5.23721
G1 X124.599 Y133.017 E5.26276
G1 X123.857 Y133.223 E5.28838
G1 X123.099 Y133.351 E5.31395
G1 X122.25 Y133.4 E5.34223
G1 X115.75 Y133.4 E5.55842
G1 X114.982 Y133.36 E5.584
G1 X114.222 Y133.241 E5.60958
G1 X113.479 Y133.043 E5.63516
G1 X112.76 Y132.769 E5.66075
G1 X112.074 Y132.422 E5.68632
G1 X111.427 Y132.006 E5.7119
G1 X110.827 Y131.525 E5.73748
G1 X110.517 Y131.233 E5.75165
G1 X107.517 Y128.233 E5.89276
G1 X107.003 Y127.661 E5.91833
G1 X106.55 Y127.039 E5.94393
G1 X106.164 Y126.374 E5.9695
G1 X105.849 Y125.672 E5.99509
G1 X105.609 Y124.941 E6.02068
G1 X105.446 Y124.19 E6.04624
G1 X105.362 Y123.425 E6.07184
G1 X105.35 Y123 E6.08598
G1 X105.35 Y112 E6.45184
G1 X105.39 Y111.232 E6.47742
G1 X105.509 Y110.472 E6.50301
G1 X105.707 Y109.729 E6.52858
G1 X105.981 Y109.01 E6.55417
G1 X106.328 Y108.324 E6.57974
G1 X106.744 Y107.677 E6.60533
G1 X107.225 Y107.077 E6.6309
G1 X107.517 Y106.767 E6.64507
M204 S5000
M205 X30 Y30
G0 F3600 X107.8 Y107.05
M204 S500
M205 X20 Y20
G1 F1500 X110.8 Y104.05 E6.78618
G1 X111.357 Y103.55 E6.81107
G1 X111.963 Y103.113 E6.83592
G1 X112.613 Y102.742 E6.86082
G1 X113.299 Y102.443 E6.8857
G1 X114.013 Y102.219 E6.91059
G1 X114.746 Y102.072 E6.93546
G1 X115.75 Y102 E6.96894
G1 X122.25 Y102 E7.18513
G1 X122.997 Y102.04 E7.21001
G1 X123.735 Y102.159 E7.23487
G1 X124.457 Y102.357 E7.25977
G1 X125.153 Y102.63 E7.28464
G1 X125.816 Y102.977 E7.30953
G1 X126.439 Y103.392 E7.33443
G1 X127.013 Y103.871 E7.35929
G1 X127.534 Y104.408 E7.38418
G1 X127.993 Y104.998 E7.40904
G1 X128.388 Y105.634 E7.43394
G1 X128.712 Y106.308 E7.45881
G1 X128.962 Y107.013 E7.48369
G1 X129.136 Y107.741 E7.50859
G1 X129.231 Y108.483 E7.53347
G1 X129.25 Y109 E7.55068
G1 X129.25 Y110.5 E7.60057
G1 X129.21 Y111.247 E7.62545
G1 X129.091 Y111.985 E7.65031
G1 X128.893 Y112.707 E7.67521
G1 X128.62 Y113.403 E7.70008
G1 X128.273 Y114.066 E7.72497
G1 X127.858 Y114.689 E7.74986
G1 X127.2 Y115.45 E7.78332
G1 X126.2 Y116.45 E7.83036
G1 X125.643 Y116.95 E7.85526
G1 X125.037 Y117.387 E7.8801
G1 X124.845 Y117.496 E7.88745
G1 X125.439 Y117.892 E7.91119
G1 X126.2 Y118.55 E7.94465
G1 X127.2 Y119.55 E7.99169
G1 X127.7 Y120.107 E8.01659
G1 X128.137 Y120.713 E8.04143
G1 X128.508 Y121.363 E8.06633
G1 X128.807 Y122.049 E8.09122
G1 X129.031 Y122.763 E8.11611
G1 X129.178 Y123.496 E8.14097
G1 X129.25 Y124.5 E8.17445
G1 X129.25 Y126 E8.22434
G1 X129.21 Y126.747 E8.24922
G1 X129.091 Y127.485 E8.27408
G1 X128.893 Y128.207 E8.29898
G1 X128.62 Y128.903 E8.32385
G1 X128.273 Y129.566 E8.34874
G1 X127.858 Y130.189 E8.37364
G1 X127.379 Y130.763 E8.3985
G1 X126.842 Y131.284 E8.42339
G1 X126.252 Y131.743 E8.44825
G1 X125.616 Y132.138 E8.47315
G1 X124.942 Y132.462 E8.49803
G1 X124.237 Y132.712 E8.5229
G1 X123.509 Y132.886 E8.5478
G1 X122.767 Y132.981 E8.57268
G1 X122.25 Y133 E8.58989
G1 X115.75 Y133 E8.80608
G1 X115.003 Y132.96 E8.83096
G1 X114.265 Y132.841 E8.85582
G1 X113.543 Y132.643 E8.88072
G1 X112.847 Y132.37 E8.90559
G1 X112.184 Y132.023 E8.93048
G1 X111.561 Y131.608 E8.95538
G1 X110.8 Y130.95 E8.98884
G1 X107.8 Y127.95 E9.12995
G1 X107.3 Y127.393 E9.15484
G1 X106.863 Y126.787 E9.17969
G1 X106.492 Y126.137 E9.20458
G1 X106.193 Y125.451 E9.22947
G1 X105.969 Y124.737 E9.25436
G1 X105.822 Y124.004 E9.27923
G1 X105.75 Y123 E9.31271
G1 X105.75 Y112 E9.67857
G1 X105.79 Y111.253 E9.70345
G1 X105.909 Y110.515 E9.72831
G1 X106.107 Y109.793 E9.75321
G1 X106.38 Y109.097 E9.77808
G1 X106.727 Y108.434 E9.80297
G1 X107.142 Y107.811 E9.82787
G1 X107.8 Y107.05 E9.86133
M204 S5000
M205 X30 Y30
G0 F3600 X108.083 Y107.333
M204 S500
M205 X20 Y20
G1 F1500 X111.083 Y104.333 E10.00244
G1 X111.624 Y103.849 E10.02658
G1 X112.215 Y103.426 E10.05075
G1 X112.849 Y103.072 E10.0749
G1 X113.518 Y102.789 E10.09906
G1 X114.214 Y102.581 E10.12322
G1 X114.929 Y102.451 E10.1474
G1 X115.75 Y102.4 E10.17476
G1 X122.25 Y102.4 E10.39095
G1 X122.975 Y102.44 E10.4151
G1 X123.692 Y102.559 E10.43927
G1 X124.391 Y102.757 E10.46343
G1 X125.064 Y103.03 E10.48759
G1 X125.703 Y103.375 E10.51174
G1 X126.3 Y103.789 E10.53591
G1 X126.848 Y104.265 E10.56005
G1 X127.341 Y104.799 E10.58422
G1 X127.771 Y105.384 E10.60837
G1 X128.135 Y106.013 E10.63254
G1 X128.428 Y106.678 E10.65671
G1 X128.646 Y107.371 E10.68087
G1 X128.786 Y108.083 E10.70501
G1 X128.85 Y109 E10.73558
G1 X128.85 Y110.5 E10.78547
G1 X128.81 Y111.225 E10.80962
G1 X128.691 Y111.942 E10.8338
G1 X128.493 Y112.641 E10.85796
G1 X128.22 Y113.314 E10.88211
G1 X127.875 Y113.953 E10.90627
G1 X127.461 Y114.55 E10.93043
G1 X126.917 Y115.167 E10.95779
G1 X125.917 Y116.167 E11.00483
G1 X125.376 Y116.651 E11.02897
G1 X124.785 Y117.074 E11.05314
G1 X124.151 Y117.428 E11.07729
G1 X123.985 Y117.498 E11.08329
G1 X124.064 Y117.53 E11.08612
G1 X124.703 Y117.875 E11.11027
G1 X125.3 Y118.289 E11.13444
G1 X125.917 Y118.833 E11.1618
G1 X126.917 Y119.833 E11.20883
G1 X127.401 Y120.374 E11.23298
G1 X127.824 Y120.965 E11.25715
G1 X128.178 Y121.599 E11.2813
G1 X128.461 Y122.268 E11.30546
G1 X128.669 Y122.964 E11.32962
G1 X128.799 Y123.679 E11.35379
G1 X128.85 Y124.5 E11.38115
G1 X128.85 Y126 E11.43104
G1 X128.81 Y126.725 E11.45519
G1 X128.691 Y127.442 E11.47937
G1 X128.493 Y128.141 E11.50353
G1 X128.22 Y128.814 E11.52769
G1 X127.875 Y129.453 E11.55184
G1 X127.461 Y130.05 E11.576
G1 X126.985 Y130.598 E11.60014
G1 X126.451 Y131.091 E11.62432
G1 X125.866 Y131.521 E11.64847
G1 X125.237 Y131.885 E11.67264
G1 X124.572 Y132.178 E11.69681
G1 X123.879 Y132.396 E11.72097
G1 X123.167 Y132.536 E11.7451
G1 X122.25 Y132.6 E11.77568
G1 X115.75 Y132.6 E11.99187
G1 X115.025 Y132.56 E12.01602
G1 X114.308 Y132.441 E12.04019
G1 X113.609 Y132.243 E12.06436
G1 X112.936 Y131.97 E12.08851
G1 X112.297 Y131.625 E12.11266
G1 X111.7 Y131.211 E12.13683
G1 X111.083 Y130.667 E12.16419
G1 X108.083 Y127.667 E12.3053
G1 X107.599 Y127.126 E12.32944
G1 X107.176 Y126.535 E12.35361
G1 X106.822 Y125.901 E12.37777
G1 X106.539 Y125.232 E12.40193
G1 X106.331 Y124.536 E12.42609
G1 X106.201 Y123.821 E12.45026
G1 X106.15 Y123 E12.47762
G1 X106.15 Y112 E12.84348
G1 X106.19 Y111.275 E12.86763
G1 X106.309 Y110.558 E12.8918
G1 X106.507 Y109.859 E12.91597
G1 X106.78 Y109.186 E12.94012
G1 X107.125 Y108.547 E12.96427
G1 X107.539 Y107.95 E12.98844
G1 X108.083 Y107.333 E13.0158
M204 S5000
M205 X30 Y30
G0 F3600 X108.366 Y107.616
M204 S500
M205 X20 Y20
G1 F1500 X111.366 Y104.616 E13.15691
G1 X111.891 Y104.147 E13.18032
G1 X112.466 Y103.741 E13.20373
G1 X113.084 Y103.403 E13.22716
G1 X113.735 Y103.136 E13.25056
G1 X114.413 Y102.946 E13.27398
G1 X115.108 Y102.833 E13.2974
G1 X115.75 Y102.8 E13.31878
G1 X122.25 Y102.8 E13.53497
G1 X122.953 Y102.84 E13.55839
G1 X123.647 Y102.959 E13.58181
G1 X124.322 Y103.157 E13.60521
G1 X124.971 Y103.429 E13.62862
G1 X125.585 Y103.774 E13.65204
G1 X126.156 Y104.185 E13.67544
G1 X126.677 Y104.659 E13.69887
G1 X127.141 Y105.189 E13.7223
G1 X127.541 Y105.768 E13.7457
G1 X127.873 Y106.389 E13.76912
G1 X128.133 Y107.043 E13.79253
G1 X128.317 Y107.723 E13.81596
G1 X128.423 Y108.419 E13.83938
G1 X128.45 Y109 E13.85872
G1 X128.45 Y110.5 E13.90861
G1 X128.41 Y111.203 E13.93203
G1 X128.291 Y111.897 E13.95545
G1 X128.093 Y112.572 E13.97885
G1 X127.821 Y113.221 E14.00225
G1 X127.476 Y113.835 E14.02568
G1 X127.065 Y114.406 E14.04908
G1 X126.634 Y114.884 E14.07048
G1 X125.634 Y115.884 E14.11752
G1 X125.109 Y116.353 E14.14094
G1 X124.534 Y116.759 E14.16435
G1 X123.916 Y117.097 E14.18777
G1 X123.265 Y117.364 E14.21118
G1 X122.783 Y117.499 E14.22783
G1 X123.322 Y117.657 E14.24651
G1 X123.971 Y117.929 E14.26991
G1 X124.585 Y118.274 E14.29334
G1 X125.156 Y118.685 E14.31674
G1 X125.634 Y119.116 E14.33814
G1 X126.634 Y120.116 E14.38518
G1 X127.103 Y120.641 E14.4086
G1 X127.509 Y121.216 E14.43201
G1 X127.847 Y121.834 E14.45543
G1 X128.114 Y122.485 E14.47884
G1 X128.304 Y123.163 E14.50226
G1 X128.417 Y123.858 E14.52568
G1 X128.45 Y124.5 E14.54706
G1 X128.45 Y126 E14.59695
G1 X128.41 Y126.703 E14.62037
G1 X128.291 Y127.397 E14.64379
G1 X128.093 Y128.072 E14.66718
G1 X127.821 Y128.721 E14.69059
G1 X127.476 Y129.335 E14.71401
G1 X127.065 Y129.906 E14.73741
G1 X126.591 Y130.427 E14.76084
G1 X126.061 Y130.891 E14.78427
G1 X125.482 Y131.291 E14.80767
G1 X124.861 Y131.623 E14.8311
G1 X124.207 Y131.883 E14.8545
G1 X123.527 Y132.067 E14.87793
G1 X122.831 Y132.173 E14.90135
G1 X122.25 Y132.2 E14.92069
G1 X115.75 Y132.2 E15.13689
G1 X115.047 Y132.16 E15.16031
G1 X114.353 Y132.041 E15.18372
G1 X113.678 Y131.843 E15.20712
G1 X113.029 Y131.571 E15.23053
G1 X112.415 Y131.226 E15.25395
G1 X111.844 Y130.815 E15.27735
G1 X111.366 Y130.384 E15.29876
G1 X108.366 Y127.384 E15.43987
G1 X107.897 Y126.859 E15.46328
G1 X107.491 Y126.284 E15.48669
G1 X107.153 Y125.666 E15.51012
G1 X106.886 Y125.015 E15.53352
G1 X106.696 Y124.337 E15.55694
G1 X106.583 Y123.642 E15.58036
G1 X106.55 Y123 E15.60174
G1 X106.55 Y112 E15.96761
G1 X106.59 Y111.297 E15.99103
G1 X106.709 Y110.603 E16.01445
G1 X106.907 Y109.928 E16.03784
G1 X107.179 Y109.279 E16.06125
G1 X107.524 Y108.665 E16.08467
G1 X107.935 Y108.094 E16.10807
G1 X108.366 Y107.616 E16.12948
M204 S5000
M205 X30 Y30
G0 F3600 X108.649 Y107.899
M204 S500
M205 X20 Y20
G1 F1500 X111.649 Y104.899 E16.27059
G1 X112.158 Y104.446 E16.29325
G1 X112.716 Y104.057 E16.31588
G1 X113.316 Y103.735 E16.33852
G1 X113.95 Y103.486 E16.36118
G1 X114.609 Y103.313 E16.38384
G1 X115.283 Y103.219 E16.40647
G1 X115.75 Y103.2 E16.42202
G1 X122.25 Y103.2 E16.63821
G1 X122.93 Y103.24 E16.66087
G1 X123.6 Y103.359 E16.6835
G1 X124.252 Y103.556 E16.70615
G1 X124.876 Y103.828 E16.72879
G1 X125.464 Y104.172 E16.75145
G1 X126.008 Y104.582 E16.77411
G1 X126.499 Y105.053 E16.79674
G1 X126.933 Y105.578 E16.81939
G1 X127.302 Y106.15 E16.84203
G1 X127.601 Y106.762 E16.86469
G1 X127.826 Y107.404 E16.88731
G1 X127.975 Y108.069 E16.90998
G1 X128.05 Y109 E16.94105
G1 X128.05 Y110.5 E16.99094
G1 X128.01 Y111.18 E17.01359
G1 X127.891 Y111.85 E17.03623
G1 X127.694 Y112.502 E17.05888
G1 X127.422 Y113.126 E17.08152
G1 X127.078 Y113.714 E17.10418
G1 X126.668 Y114.258 E17.12683
G1 X126.351 Y114.601 E17.14237
G1 X125.351 Y115.601 E17.18941
G1 X124.842 Y116.054 E17.21207
G1 X124.284 Y116.443 E17.23469
G1 X123.684 Y116.765 E17.25734
G1 X123.05 Y117.014 E17.28
G1 X122.391 Y117.187 E17.30266
G1 X122.051 Y117.234 E17.31407
G1 X122.05 Y117.761 E17.3316
G1 X122.6 Y117.859 E17.35018
G1 X123.252 Y118.056 E17.37284
G1 X123.876 Y118.328 E17.39548
G1 X124.464 Y118.672 E17.41813
G1 X125.008 Y119.082 E17.44079
G1 X125.351 Y119.399 E17.45633
G1 X126.351 Y120.399 E17.50336
G1 X126.804 Y120.908 E17.52603
G1 X127.193 Y121.466 E17.54865
G1 X127.515 Y122.066 E17.5713
G1 X127.764 Y122.7 E17.59395
G1 X127.937 Y123.359 E17.61661
G1 X128.031 Y124.033 E17.63925
