;FLAVOR:Marlin
;TIME:4331
;Filament used: 3.12071m
;Layer height: 0.2
;MINX:90.627
;MINY:76.705
;MINZ:0.24
;MAXX:147.55
;MAXY:158.284
;MAXZ:31.09
;Generated with Cura_SteamEngine 4.1.0
M140 S60
M105
M190 S60
M104 S200
M105
M109 S200
M82 ;absolute extrusion mode
; Ender 3 Custom Start G-code
G28 ; Home all axes
G92 E0 ; Reset Extruder
G1 Z2.0 F3000 ; Move Z Axis up little to prevent scratching of Heat Bed
G1 X0.1 Y20 Z0.3 F5000.0 ; Move to start position
G1 X0.1 Y200.0 Z0.3 F1500.0 E15 ; Draw the first line
G1 X0.4 Y200.0 Z0.3 F5000.0 ; Move to side a little
G1 X0.4 Y20 Z0.3 F1500.0 E30 ; Draw the second line
G92 E0 ; Reset Extruder
G1 Z2.0 F3000 ; Move Z Axis up little to prevent scratching of Heat Bed
; End of custom start GCode
G92 E0
G92 E0
G1 F2400 E-5
;LAYER_COUNT:150
;LAYER:-6
M107
M204 S500
M205 X10 Y10
G0 F7200 X103.942 Y82.623 Z0.24
;TYPE:SUPPORT-INTERFACE
G1 F2400 E0
G1 F1350 X104.625 Y81.798 E0.08549
G1 X105.241 Y81.149 E0.15692
G1 X105.381 Y81.012 E0.17256
G1 X106.022 Y80.428 E0.24178
G1 X106.169 Y80.304 E0.25713
G1 X106.863 Y79.758 E0.32762
G1 X107.002 Y79.657 E0.34133
G1 X107.877 Y79.073 E0.4253
G1 X108.669 Y78.62 E0.49814
G1 X108.817 Y78.542 E0.51149
G1 X109.635 Y78.151 E0.58386
G1 X109.78 Y78.088 E0.59648
G1 X110.601 Y77.766 E0.66688
G1 X110.787 Y77.7 E0.68263
G1 X111.639 Y77.437 E0.75381
G1 X111.791 Y77.396 E0.76638
G1 X112.661 Y77.195 E0.83765
G1 X112.851 Y77.158 E0.85311
G1 X113.712 Y77.023 E0.92267
G1 X113.901 Y77.001 E0.93786
G1 X114.941 Y76.92 E1.02113
G1 X115.574 Y76.907 E1.07167
G1 X127.087 Y76.906 E1.99069
G1 X132.833 Y76.919 E2.44936
G1 X133.907 Y76.965 E2.53517
G1 X134.973 Y77.089 E2.62084
G1 X135.861 Y77.254 E2.69293
G1 X136.032 Y77.293 E2.70693
G1 X136.894 Y77.519 E2.77807
G1 X137.07 Y77.573 E2.79276
G1 X137.915 Y77.863 E2.86408
G1 X138.053 Y77.916 E2.87588
G1 X138.9 Y78.277 E2.94937
G1 X139.045 Y78.345 E2.96216
G1 X139.845 Y78.759 E3.03406
G1 X139.981 Y78.836 E3.04654
G1 X140.75 Y79.307 E3.11852
G1 X140.892 Y79.401 E3.13211
G1 X141.626 Y79.927 E3.2042
G1 X141.752 Y80.025 E3.21694
G1 X142.559 Y80.706 E3.30123
G1 X143.223 Y81.348 E3.37495
G1 X143.33 Y81.46 E3.38732
G1 X143.923 Y82.123 E3.45832
G1 X144.034 Y82.256 E3.47215
G1 X144.596 Y82.985 E3.54563
G1 X144.676 Y83.098 E3.55668
G1 X145.176 Y83.857 E3.62923
G1 X145.266 Y84.004 E3.64299
G1 X145.694 Y84.772 E3.71317
G1 X145.785 Y84.949 E3.72906
G1 X146.158 Y85.746 E3.7993
G1 X146.224 Y85.903 E3.8129
G1 X146.546 Y86.747 E3.88501
G1 X146.597 Y86.897 E3.89765
G1 X146.851 Y87.745 E3.96831
G1 X146.899 Y87.931 E3.98365
G1 X147.092 Y88.801 E4.05478
G1 X147.121 Y88.955 E4.06729
G1 X147.249 Y89.832 E4.13804
G1 X147.27 Y90.038 E4.15457
G1 X147.35 Y91.568 E4.27687
G1 X147.35 Y143.469 E8.41983
G1 X147.314 Y144.475 E8.50018
G1 X147.304 Y144.61 E8.51099
G1 X147.202 Y145.527 E8.58464
G1 X147.177 Y145.702 E8.59875
G1 X147.015 Y146.58 E8.67002
G1 X146.985 Y146.714 E8.68098
G1 X146.754 Y147.599 E8.75399
G1 X146.702 Y147.771 E8.76834
G1 X146.42 Y148.6 E8.83823
G1 X146.352 Y148.779 E8.85352
G1 X146.011 Y149.582 E8.92316
G1 X145.93 Y149.757 E8.93855
G1 X145.514 Y150.565 E9.0111
G1 X144.974 Y151.461 E9.0946
G1 X144.874 Y151.612 E9.10906
G1 X144.363 Y152.326 E9.17915
G1 X144.25 Y152.474 E9.19401
G1 X143.674 Y153.165 E9.26582
G1 X143.573 Y153.278 E9.27792
G1 X142.948 Y153.927 E9.34984
G1 X142.823 Y154.047 E9.36367
G1 X142.153 Y154.649 E9.43557
G1 X142.036 Y154.746 E9.4477
G1 X141.324 Y155.296 E9.51952
G1 X141.165 Y155.409 E9.53509
G1 X140.427 Y155.899 E9.60581
G1 X140.301 Y155.975 E9.61755
G1 X139.507 Y156.421 E9.69025
G1 X139.356 Y156.499 E9.70381
G1 X138.542 Y156.882 E9.77562
G1 X138.399 Y156.942 E9.788
G1 X137.54 Y157.271 E9.86143
G1 X137.39 Y157.323 E9.8741
G1 X136.54 Y157.578 E9.94494
G1 X136.367 Y157.624 E9.95923
G1 X135.472 Y157.825 E10.03245
G1 X135.342 Y157.848 E10.04299
G1 X134.437 Y157.982 E10.11602
G1 X134.269 Y158 E10.12951
G1 X133.195 Y158.075 E10.21545
G1 X132.691 Y158.083 E10.25568
G1 X114.748 Y158.083 E11.68797
G1 X113.624 Y158.038 E11.77776
G1 X112.557 Y157.916 E11.86349
G1 X111.651 Y157.749 E11.93703
G1 X111.51 Y157.717 E11.94857
G1 X110.478 Y157.443 E12.03381
G1 X109.634 Y157.154 E12.10502
G1 X109.444 Y157.082 E12.12124
G1 X108.628 Y156.735 E12.19202
G1 X108.487 Y156.669 E12.20445
G1 X107.685 Y156.257 E12.27642
G1 X107.533 Y156.173 E12.29028
G1 X106.776 Y155.71 E12.36111
G1 X106.621 Y155.607 E12.37597
G1 X105.904 Y155.095 E12.4463
G1 X105.763 Y154.985 E12.46057
G1 X105.073 Y154.412 E12.53217
G1 X104.956 Y154.308 E12.54466
G1 X104.302 Y153.678 E12.61715
G1 X104.176 Y153.546 E12.63172
G1 X103.578 Y152.879 E12.70323
G1 X103.487 Y152.769 E12.71462
G1 X102.927 Y152.046 E12.78762
G1 X102.834 Y151.915 E12.80045
G1 X102.331 Y151.157 E12.87306
G1 X102.258 Y151.036 E12.88434
G1 X101.806 Y150.232 E12.95797
G1 X101.73 Y150.084 E12.97125
G1 X101.353 Y149.278 E13.04228
G1 X101.286 Y149.122 E13.05583
G1 X100.96 Y148.27 E13.12865
G1 X100.91 Y148.122 E13.14112
G1 X100.648 Y147.254 E13.21349
G1 X100.61 Y147.108 E13.22554
G1 X100.386 Y146.087 E13.30898
G1 X100.254 Y145.191 E13.38127
G1 X100.114 Y144.536 E13.43474
G1 X99.888 Y143.892 E13.48922
G1 X99.584 Y143.281 E13.54369
G1 X99.206 Y142.717 E13.59789
G1 X98.94 Y142.397 E13.63111
G1 X98.343 Y141.73 E13.70256
G1 X98.235 Y141.601 E13.71599
G1 X97.676 Y140.877 E13.78901
G1 X97.572 Y140.73 E13.80338
G1 X97.079 Y139.987 E13.87456
G1 X97.006 Y139.866 E13.88584
G1 X96.493 Y138.947 E13.96985
G1 X96.279 Y138.511 E14.00862
G1 X96.035 Y137.982 E14.05512
G1 X95.439 Y136.488 E14.18352
G1 X95.29 Y136.039 E14.22128
G1 X94.871 Y134.549 E14.34484
G1 X94.766 Y134.069 E14.38406
G1 X94.672 Y133.519 E14.4286
G1 X94.517 Y132.867 E14.48209
G1 X94.276 Y132.224 E14.53691
G1 X93.863 Y131.475 E14.60518
G1 X93.794 Y131.371 E14.61514
G1 X93.702 Y131.219 E14.62933
G1 X93.281 Y130.464 E14.69833
G1 X93.187 Y130.281 E14.71475
G1 X93.104 Y130.103 E14.73043
G1 X92.988 Y129.871 E14.75114
G1 X92.601 Y129.079 E14.8215
G1 X92.526 Y128.912 E14.83611
G1 X92.2 Y128.104 E14.90566
G1 X92.127 Y127.901 E14.92288
G1 X91.864 Y127.084 E14.9914
G1 X91.812 Y126.898 E15.00681
G1 X91.569 Y125.876 E15.09067
G1 X91.472 Y125.343 E15.13391
G1 X91.301 Y124.271 E15.22057
G1 X91.173 Y123.239 E15.30358
G1 X91.126 Y122.698 E15.34692
G1 X91.077 Y121.802 E15.41855
G1 X91.073 Y121.619 E15.43316
G1 X91.091 Y120.506 E15.52202
G1 X91.069 Y120.204 E15.54619
G1 X91.096 Y120.204 E15.54835
G1 X91.017 Y119.616 E15.59571
G1 X90.89 Y118.506 E15.68489
G1 X90.857 Y117.909 E15.73262
G1 X90.826 Y117.068 E15.79979
G1 X90.836 Y115.789 E15.90189
G1 X90.879 Y114.908 E15.9723
G1 X90.96 Y113.964 E16.04793
G1 X90.984 Y113.777 E16.06298
G1 X91.237 Y112.344 E16.17914
G1 X91.354 Y111.84 E16.22044
G1 X91.6 Y110.917 E16.29669
G1 X91.647 Y110.762 E16.30962
G1 X91.945 Y109.905 E16.38205
G1 X92.006 Y109.748 E16.39549
G1 X92.428 Y108.785 E16.47942
G1 X92.608 Y108.404 E16.51306
G1 X92.651 Y108.3 E16.52204
G1 X92.721 Y108.151 E16.53518
G1 X93.137 Y107.339 E16.60801
G1 X93.218 Y107.193 E16.62134
G1 X93.682 Y106.431 E16.69255
G1 X93.767 Y106.302 E16.70488
G1 X94.297 Y105.559 E16.77774
G1 X94.405 Y105.42 E16.79179
G1 X94.983 Y104.724 E16.86401
G1 X95.239 Y104.444 E16.89429
G1 X95.901 Y103.74 E16.97143
G1 X96.38 Y103.26 E17.02556
G1 X97.587 Y102.149 E17.15651
G1 X98.276 Y101.594 E17.22713
G1 X98.418 Y101.487 E17.24133
G1 X98.626 Y101.344 E17.26147
G1 X99.152 Y100.93 E17.31491
G1 X99.632 Y100.444 E17.36943
G1 X100.045 Y99.9 E17.42395
G1 X100.388 Y99.309 E17.4785
G1 X100.653 Y98.68 E17.53298
G1 X100.836 Y98.022 E17.5875
G1 X100.934 Y97.351 E17.64163
G1 X100.952 Y96.912 E17.6767
G1 X100.952 Y95.002 E17.82917
G1 X100.927 Y91.581 E18.10226
G1 X100.954 Y90.632 E18.17804
G1 X100.965 Y90.476 E18.19052
G1 X101.055 Y89.582 E18.26225
G1 X101.077 Y89.426 E18.27482
G1 X101.234 Y88.535 E18.34704
G1 X101.27 Y88.367 E18.36076
G1 X101.488 Y87.504 E18.43181
G1 X101.537 Y87.337 E18.4457
G1 X101.819 Y86.485 E18.51734
G1 X101.886 Y86.309 E18.53237
G1 X102.22 Y85.503 E18.60202
G1 X102.293 Y85.344 E18.61598
G1 X102.693 Y84.549 E18.68702
G1 X102.782 Y84.388 E18.70171
G1 X103.232 Y83.637 E18.77159
G1 X103.337 Y83.473 E18.78714
G1 X103.852 Y82.741 E18.85858
G1 X103.942 Y82.623 E18.87043
G0 F7200 X104 Y82.552
G1 F1350 X104 Y153.349 E24.52175
G0 F7200 X105.6 Y154.849
G1 F1350 X105.6 Y80.812 E30.4317
G0 F7200 X107.2 Y79.524
G1 F1350 X107.2 Y155.969 E36.53387
G0 F7200 X108.8 Y156.808
G1 F1350 X108.8 Y78.55 E42.78077
G0 F7200 X110.4 Y77.844
G1 F1350 X110.4 Y157.416 E49.13255
G0 F7200 X112 Y157.813
G1 F1350 X112 Y77.347 E55.55569
G0 F7200 X113.6 Y77.04
G1 F1350 X113.6 Y158.035 E62.02106
G0 F7200 X115.2 Y158.083
G1 F1350 X115.2 Y76.914 E68.50032
G0 F7200 X116.8 Y76.906
G1 F1350 X116.8 Y158.083 E74.98022
G0 F7200 X118.4 Y158.083
G1 F1350 X118.4 Y76.906 E81.46012
G0 F7200 X120 Y76.906
G1 F1350 X120 Y158.083 E87.94002
G0 F7200 X121.6 Y158.083
G1 F1350 X121.6 Y76.906 E94.41992
G0 F7200 X123.2 Y76.906
G1 F1350 X123.2 Y158.083 E100.89982
G0 F7200 X124.8 Y158.083
G1 F1350 X124.8 Y76.906 E107.37972
G0 F7200 X126.4 Y76.906
G1 F1350 X126.4 Y158.083 E113.85962
G0 F7200 X128 Y158.083
G1 F1350 X128 Y76.909 E120.33928
G0 F7200 X129.6 Y76.912
G1 F1350 X129.6 Y158.083 E126.8187
G0 F7200 X131.2 Y158.083
G1 F1350 X131.2 Y76.916 E133.2978
G0 F7200 X132.8 Y76.919
G1 F1350 X132.8 Y158.082 E139.77658
G0 F7200 X134.4 Y157.986
G1 F1350 X134.4 Y77.023 E146.2394
G0 F7200 X136 Y77.286
G1 F1350 X136 Y157.707 E152.65895
G0 F7200 X137.6 Y157.249
G1 F1350 X137.6 Y77.755 E159.0045
G0 F7200 X139.2 Y78.426
G1 F1350 X139.2 Y156.573 E165.24254
G0 F7200 X140.8 Y155.652
G1 F1350 X140.8 Y79.341 E171.33401
G0 F7200 X142.4 Y80.572
G1 F1350 X142.4 Y154.428 E177.22951
G0 F7200 X144 Y152.774
G1 F1350 X144 Y82.216 E182.86176
G0 F7200 X145.6 Y84.604
G1 F1350 X145.6 Y150.398 E188.11372
G0 F7200 X147.2 Y145.541
G1 F1350 X147.2 Y89.497 E192.5874
G0 F7200 X102.4 Y85.131
G1 F1350 X102.4 Y151.26 E197.8661
G0 F7200 X100.8 Y147.757
G1 F1350 X100.8 Y98.151 E201.82586
G0 F7200 X99.2 Y100.881
G1 F1350 X99.2 Y142.709 E205.16476
G0 F7200 X97.6 Y140.769
G1 F1350 X97.6 Y102.138 E208.24845
G0 F7200 X96 Y103.64
G1 F1350 X96 Y137.894 E210.98275
G0 F7200 X94.4 Y132.554
G1 F1350 X94.4 Y105.426 E213.14823
G0 F7200 X92.8 Y107.996
G1 F1350 X92.8 Y129.486 E214.86365
G0 F7200 X91.2 Y123.456
G1 F1350 X91.2 Y112.553 E215.73397
G0 F7200 X92.607 Y108.403
;TIME_ELAPSED:128.133819
;LAYER:-5
M140 S60
G0 X92.607 Y108.403 Z0.54
;TYPE:SUPPORT
G1 F1350 X92.24 Y109.211 E215.82252
G1 X139.469 Y156.439 E222.48698
G1 X138.542 Y156.881 E222.58945
G0 F7200 X138.509 Y156.894
G1 F1350 X91.834 Y110.219 E229.17579
G1 X91.646 Y110.761 E229.23304
G1 X91.498 Y111.297 E229.28852
G1 X137.488 Y157.287 E235.77821
G1 X136.539 Y157.577 E235.87722
G0 F7200 X136.4 Y157.614
G1 F1350 X91.221 Y112.434 E242.25254
G1 X91.008 Y113.635 E242.37424
G1 X135.235 Y157.863 E248.61522
G1 X134.437 Y157.981 E248.69571
G0 F7200 X133.977 Y158.019
G1 F1350 X90.878 Y114.919 E254.77752
G1 X90.831 Y116.287 E254.9141
G1 X132.626 Y158.082 E260.81182
G1 X131.212 Y158.082 E260.95291
G1 X90.849 Y117.719 E266.64857
G0 F7200 X90.856 Y117.907
G1 F1350 X90.89 Y118.505 E266.70833
G1 X90.976 Y119.26 E266.78415
G1 X129.797 Y158.082 E272.26229
G1 X128.383 Y158.082 E272.40338
G1 X91.085 Y120.784 E277.66653
G1 X91.072 Y121.618 E277.74975
G1 X91.099 Y122.212 E277.80908
G1 X126.969 Y158.082 E282.87073
G1 X125.555 Y158.082 E283.01182
G1 X91.237 Y123.764 E287.85446
G1 X91.3 Y124.27 E287.90534
G1 X91.487 Y125.428 E288.02238
G1 X124.141 Y158.082 E292.63021
G1 X122.726 Y158.082 E292.7714
G1 X91.928 Y127.283 E297.1174
G1 X92.2 Y128.103 E297.20361
G1 X92.601 Y129.078 E297.3088
G1 X92.879 Y129.649 E297.37217
G1 X121.312 Y158.082 E301.38437
G1 X119.898 Y158.082 E301.52546
G1 X94.417 Y132.6 E305.12117
G0 F7200 X94.516 Y132.866
G1 F1350 X94.672 Y133.518 E305.18807
G1 X94.848 Y134.446 E305.28231
G1 X118.484 Y158.082 E308.61761
G1 X117.07 Y158.082 E308.7587
G1 X95.42 Y136.432 E311.81375
G0 F7200 X95.438 Y136.487
G1 F1350 X96.035 Y137.981 E311.97428
G1 X96.467 Y138.893 E312.07497
G1 X115.655 Y158.082 E314.78268
G1 X114.747 Y158.082 E314.87328
G1 X114.22 Y158.06 E314.92591
G1 X99.726 Y143.567 E316.9711
G0 F7200 X99.888 Y143.891
G1 F1350 X100.113 Y144.535 E317.03917
G1 X100.308 Y145.562 E317.14347
G1 X112.673 Y157.928 E318.88838
G1 X111.65 Y157.748 E318.99202
G1 X110.88 Y157.549 E319.07138
G1 X100.675 Y147.344 E320.51141
G1 X100.959 Y148.269 E320.60796
G1 X101.491 Y149.575 E320.74867
G1 X108.666 Y156.75 E321.76114
G1 X107.685 Y156.256 E321.87074
G1 X106.775 Y155.709 E321.97668
G1 X105.904 Y155.094 E322.08307
G1 X105.073 Y154.41 E322.19046
G1 X104.301 Y153.677 E322.29668
G1 X103.577 Y152.878 E322.40427
G1 X102.927 Y152.045 E322.5097
G1 X102.331 Y151.156 E322.61649
G1 X101.805 Y150.231 E322.72267
G0 F7200 X140.373 Y155.929
G1 F1350 X92.679 Y108.236 E329.45273
G0 F7200 X93.682 Y106.43
G1 F1350 X93.157 Y107.299 E329.55404
G1 X141.224 Y155.366 E336.33681
G1 X140.427 Y155.898 E336.43243
G0 F7200 X142.025 Y154.753
G1 F1350 X93.69 Y106.418 E343.25302
G0 F7200 X97.587 Y102.147
G1 F1350 X97.016 Y102.673 E343.33048
G1 X145.286 Y150.943 E350.1419
G1 X144.973 Y151.46 E350.2022
G0 F7200 X144.734 Y151.805
G1 F1350 X96.283 Y103.354 E357.03916
G1 X95.587 Y104.072 E357.13894
G1 X144.13 Y152.616 E363.98895
G1 X143.673 Y153.164 E364.06015
G0 F7200 X143.477 Y153.377
G1 F1350 X94.91 Y104.81 E370.91348
G1 X94.275 Y105.588 E371.01368
G1 X142.774 Y154.088 E377.85749
G1 X142.152 Y154.648 E377.941
G0 F7200 X146.614 Y148.028
G1 F1350 X99.332 Y100.746 E384.613
G0 F7200 X99.151 Y100.929
G1 F1350 X98.56 Y101.389 E384.68773
G1 X146.232 Y149.06 E391.41469
G1 X146.01 Y149.581 E391.4712
G1 X145.789 Y150.031 E391.52122
G1 X97.763 Y102.006 E398.29814
G0 F7200 X100.387 Y99.309
G1 F1350 X99.982 Y99.982 E398.37651
G1 X146.929 Y146.929 E405.00124
G1 X146.754 Y147.598 E405.07024
G0 F7200 X147.166 Y145.752
G1 F1350 X100.486 Y99.072 E411.65729
G0 F7200 X101.232 Y88.534
G1 F1350 X101.039 Y89.725 E411.77768
G1 X147.349 Y136.036 E418.31259
G1 X147.349 Y137.45 E418.45368
G1 X100.94 Y91.041 E425.00249
G1 X100.926 Y91.58 E425.05629
G1 X100.932 Y92.447 E425.14281
G1 X147.349 Y138.864 E431.69275
G1 X147.349 Y140.278 E431.83383
G1 X100.943 Y93.871 E438.38229
G1 X100.95 Y95.293 E438.52418
G1 X147.349 Y141.692 E445.07158
G1 X147.349 Y143.107 E445.21277
G1 X100.95 Y96.708 E451.76017
G1 X100.933 Y97.35 E451.82425
G1 X100.836 Y98.007 E451.89052
G1 X147.312 Y144.484 E458.44886
G1 X147.201 Y145.526 E458.55342
G0 F7200 X147.151 Y89.168
G1 F1350 X135.094 Y77.112 E460.25472
G0 F7200 X134.972 Y77.088
G1 F1350 X133.517 Y76.948 E460.40057
G1 X147.306 Y90.738 E462.34642
G1 X147.349 Y91.568 E462.42935
G1 X147.349 Y92.195 E462.49191
G1 X132.071 Y76.917 E464.6478
G1 X130.654 Y76.914 E464.78919
G1 X147.349 Y93.609 E467.14503
G1 X147.349 Y95.023 E467.28612
G1 X129.237 Y76.911 E469.84192
G1 X127.819 Y76.907 E469.98341
G1 X147.349 Y96.438 E472.73937
G1 X147.349 Y97.852 E472.88046
G1 X126.403 Y76.906 E475.83617
G1 X124.989 Y76.906 E475.97726
G1 X147.349 Y99.266 E479.1325
G1 X147.349 Y100.68 E479.27359
G1 X123.575 Y76.906 E482.62836
G1 X122.161 Y76.906 E482.76945
G1 X147.349 Y102.094 E486.32374
G1 X147.349 Y103.509 E486.46493
G1 X120.747 Y76.907 E490.21876
G1 X119.333 Y76.907 E490.35985
G1 X147.349 Y104.923 E494.31321
G1 X147.349 Y106.337 E494.4543
G1 X117.919 Y76.907 E498.60719
G1 X116.505 Y76.907 E498.74828
G1 X147.349 Y107.751 E503.1007
G1 X147.349 Y109.165 E503.24179
G1 X115.101 Y76.917 E507.79233
G0 F7200 X114.94 Y76.92
G1 F1350 X113.784 Y77.015 E507.90807
G1 X147.349 Y110.58 E512.64445
G1 X147.349 Y111.994 E512.78554
G1 X112.571 Y77.216 E517.69309
G1 X111.439 Y77.498 E517.8095
G1 X147.349 Y113.408 E522.87679
G1 X147.349 Y114.822 E523.01788
G1 X110.38 Y77.853 E528.2346
G1 X109.383 Y78.271 E528.34247
G1 X147.349 Y116.237 E533.69989
G1 X147.349 Y117.651 E533.84097
G1 X108.446 Y78.747 E539.33068
G1 X107.565 Y79.28 E539.43342
G1 X147.349 Y119.065 E545.04744
G1 X147.349 Y120.479 E545.18853
G1 X106.731 Y79.861 E550.92017
G1 X105.95 Y80.494 E551.02048
G1 X147.349 Y121.893 E556.86233
G1 X147.349 Y123.308 E557.00352
G1 X105.215 Y81.173 E562.94915
