; G-Code generated by Simplify3D(R) Version 3.0.2
; 1ÔÂ 22, 2016 at 12:41:52 ÉÏÎç
; Settings Summary
;   processName,Process3
;   applyToModels,1
;   profileName,me
;   profileVersion,2015-09-08 10:04:24
;   baseProfile,Default
;   printMaterial,PLA
;   printQuality,Medium
;   printExtruders,
;   extruderName,Extruder 1
;   extruderToolheadNumber,0
;   extruderDiameter,0.4
;   extruderAutoWidth,0
;   extruderWidth,0.4
;   extrusionMultiplier,0.9
;   extruderUseRetract,1
;   extruderRetractionDistance,5
;   extruderExtraRestartDistance,0
;   extruderRetractionZLift,0
;   extruderRetractionSpeed,6000
;   extruderUseCoasting,0
;   extruderCoastingDistance,0.2
;   extruderUseWipe,0
;   extruderWipeDistance,5
;   primaryExtruder,0
;   layerHeight,0.3
;   topSolidLayers,3
;   bottomSolidLayers,3
;   perimeterOutlines,2
;   printPerimetersInsideOut,1
;   startPointOption,2
;   startPointOriginX,0
;   startPointOriginY,0
;   startPointOriginZ,300
;   sequentialIslands,0
;   spiralVaseMode,0
;   firstLayerHeightPercentage,90
;   firstLayerWidthPercentage,100
;   firstLayerUnderspeed,0.5
;   useRaft,0
;   raftExtruder,0
;   raftLayers,3
;   raftOffset,3
;   raftSeparationDistance,0.14
;   raftInfill,85
;   disableRaftBaseLayers,0
;   useSkirt,1
;   skirtExtruder,0
;   skirtLayers,1
;   skirtOutlines,2
;   skirtOffset,10
;   usePrimePillar,0
;   primePillarExtruder,999
;   primePillarWidth,12
;   primePillarLocation,7
;   primePillarSpeedMultiplier,1
;   useOozeShield,0
;   oozeShieldExtruder,999
;   oozeShieldOffset,2
;   oozeShieldOutlines,1
;   oozeShieldSidewallShape,1
;   oozeShieldSidewallAngle,30
;   oozeShieldSpeedMultiplier,1
;   infillExtruder,0
;   internalInfillPattern,Rectilinear
;   externalInfillPattern,Rectilinear
;   infillPercentage,60
;   outlineOverlapPercentage,15
;   infillExtrusionWidthPercentage,100
;   minInfillLength,5
;   infillLayerInterval,1
;   infillAngles,45,-45
;   overlapInfillAngles,0
;   generateSupport,1
;   supportExtruder,0
;   supportInfillPercentage,20
;   supportExtraInflation,0
;   denseSupportLayers,0
;   denseSupportInfillPercentage,70
;   supportLayerInterval,1
;   supportHorizontalPartOffset,0.3
;   supportUpperSeparationLayers,1
;   supportLowerSeparationLayers,1
;   supportType,0
;   supportGridSpacing,4
;   maxOverhangAngle,45
;   supportAngles,0
;   temperatureName,Extruder 1 Temperature,Bed
;   temperatureNumber,0,0
;   temperatureSetpointCount,1,1
;   temperatureSetpointLayers,1,1
;   temperatureSetpointTemperatures,210,75
;   temperatureStabilizeAtStartup,1,1
;   temperatureHeatedBed,0,1
;   temperatureRelayBetweenLayers,0,0
;   temperatureRelayBetweenLoops,0,0
;   fanLayers,1,2
;   fanSpeeds,0,100
;   blipFanToFullPower,0
;   adjustSpeedForCooling,1
;   minSpeedLayerTime,15
;   minCoolingSpeedSlowdown,20
;   increaseFanForCooling,0
;   minFanLayerTime,45
;   maxCoolingFanSpeed,100
;   increaseFanForBridging,0
;   bridgingFanSpeed,100
;   use5D,1
;   relativeEdistances,0
;   allowEaxisZeroing,1
;   independentExtruderAxes,0
;   includeM10123,0
;   stickySupport,1
;   applyToolheadOffsets,0
;   gcodeXoffset,0
;   gcodeYoffset,0
;   gcodeZoffset,0
;   overrideMachineDefinition,1
;   machineTypeOverride,0
;   strokeXoverride,195
;   strokeYoverride,195
;   strokeZoverride,195
;   originOffsetXoverride,0
;   originOffsetYoverride,0
;   originOffsetZoverride,0
;   homeXdirOverride,-1
;   homeYdirOverride,-1
;   homeZdirOverride,-1
;   flipXoverride,1
;   flipYoverride,-1
;   flipZoverride,1
;   toolheadOffsets,0,0|0,0|0,0|0,0|0,0|0,0
;   overrideFirmwareConfiguration,1
;   firmwareTypeOverride,RepRap (Marlin/Repetier/Sprinter)
;   GPXconfigOverride,r2
;   baudRateOverride,115200
;   overridePrinterModels,0
;   printerModelsOverride
;   startingGcode,G28 ; home all axes
;   layerChangeGcode,
;   retractionGcode,
;   toolChangeGcode,
;   endingGcode,M104 S0 ; turn off extruder,M140 S0 ; turn off bed,M84 ; disable motors,G28 X0 Y0
;   createX3G,0
;   celebration,0
;   celebrationSong,Random Song
;   createMB5G,0
;   postProcessing,
;   defaultSpeed,3600
;   outlineUnderspeed,0.5
;   solidInfillUnderspeed,0.8
;   supportUnderspeed,0.8
;   rapidXYspeed,4800
;   rapidZspeed,1000
;   minBridgingArea,50
;   bridgingExtraInflation,0
;   bridgingExtrusionMultiplier,1
;   bridgingSpeedMultiplier,1
;   filamentDiameter,1.75
;   filamentPricePerKg,46
;   filamentDensity,1.25
;   useMinPrintHeight,0
;   minPrintHeight,0
;   useMaxPrintHeight,0
;   maxPrintHeight,0
;   useDiaphragm,0
;   diaphragmLayerInterval,20
;   robustSlicing,1
;   mergeAllIntoSolid,0
;   onlyRetractWhenCrossingOutline,1
;   retractBetweenLayers,1
;   useRetractionMinTravel,0
;   retractionMinTravel,3
;   retractWhileWiping,0
;   onlyWipeOutlines,1
;   avoidCrossingOutline,0
;   maxMovementDetourFactor,3
;   toolChangeRetractionDistance,12
;   toolChangeExtraRestartDistance,-0.5
;   toolChangeRetractionSpeed,600
;   allowThinWallGapFill,1
;   thinWallAllowedOverlapPercentage,10
;   horizontalSizeCompensation,0
G90
M82
M106 S0
M140 S75
M190 S75
M104 S210 T0
M109 S210 T0
G28 ; home all axes
G92 E0
G1 E-5.0000 F6000
G1 Z0.270 F1000
; layer 1, Z = 0.27
T0
; tool H0.300 W0.400
; skirt
G1 X77.296 Y74.985 F4800
G1 E0.0000 F1800
G92 E0
G1 X77.307 Y74.974 E0.0007 F1800
G1 X77.685 Y74.614 E0.0241
G1 X77.697 Y74.604 E0.0248
G1 X78.784 Y73.670 E0.0892
G1 X78.796 Y73.661 E0.0899
G1 X79.209 Y73.341 E0.1133
G1 X79.221 Y73.332 E0.1140
G1 X80.398 Y72.513 E0.1784
G1 X80.411 Y72.505 E0.1790
G1 X80.854 Y72.229 E0.2025
G1 X80.867 Y72.221 E0.2032
G1 X82.120 Y71.525 E0.2675
G1 X82.134 Y71.518 E0.2682
G1 X82.603 Y71.288 E0.2917
G1 X82.616 Y71.282 E0.2923
G1 X83.934 Y70.716 E0.3567
G1 X83.948 Y70.711 E0.3574
G1 X84.438 Y70.529 E0.3808
G1 X84.452 Y70.524 E0.3815
G1 X85.820 Y70.095 E0.4459
G1 X85.834 Y70.091 E0.4466
G1 X86.340 Y69.960 E0.4700
G1 X86.355 Y69.957 E0.4707
G1 X87.759 Y69.668 E0.5351
G1 X87.774 Y69.666 E0.5358
G1 X88.290 Y69.586 E0.5592
G1 X88.305 Y69.585 E0.5599
G1 X89.732 Y69.440 E0.6243
G1 X89.747 Y69.438 E0.6249
G1 X90.268 Y69.412 E0.6484
G1 X90.283 Y69.412 E0.6491
G1 X91.717 Y69.412 E0.7134
G1 X91.732 Y69.412 E0.7141
G1 X92.253 Y69.438 E0.7375
G1 X92.268 Y69.440 E0.7382
G1 X93.695 Y69.585 E0.8026
G1 X93.710 Y69.586 E0.8033
G1 X94.226 Y69.666 E0.8267
G1 X94.241 Y69.668 E0.8274
G1 X95.645 Y69.957 E0.8918
G1 X95.660 Y69.960 E0.8925
G1 X96.166 Y70.091 E0.9159
G1 X96.180 Y70.095 E0.9166
G1 X97.548 Y70.524 E0.9810
G1 X97.562 Y70.529 E0.9817
G1 X98.052 Y70.711 E1.0051
G1 X98.066 Y70.716 E1.0058
G1 X99.384 Y71.282 E1.0701
G1 X99.397 Y71.288 E1.0708
G1 X99.866 Y71.518 E1.0943
G1 X99.880 Y71.525 E1.0950
G1 X99.995 Y71.589 E1.1009
G1 X99.997 Y71.589 E1.1010
G1 X101.252 Y70.995 E1.1633
G1 X101.266 Y70.989 E1.1640
G1 X101.733 Y70.795 E1.1867
G1 X101.747 Y70.790 E1.1874
G1 X103.054 Y70.322 E1.2497
G1 X103.068 Y70.317 E1.2504
G1 X103.552 Y70.171 E1.2731
G1 X103.567 Y70.167 E1.2738
G1 X104.914 Y69.829 E1.3361
G1 X104.928 Y69.826 E1.3368
G1 X105.424 Y69.727 E1.3595
G1 X105.439 Y69.725 E1.3602
G1 X106.813 Y69.521 E1.4225
G1 X106.827 Y69.519 E1.4232
G1 X107.331 Y69.470 E1.4459
G1 X107.345 Y69.468 E1.4465
G1 X108.606 Y69.407 E1.5032
G1 X108.614 Y69.406 E1.5036
G1 X108.866 Y69.400 E1.5149
G1 X108.874 Y69.400 E1.5152
G1 X125.261 Y69.400 E2.2511
G1 X125.482 Y69.491 E2.2618
G1 X131.509 Y75.518 E2.6445
G1 X131.600 Y75.739 E2.6552
G1 X131.600 Y97.400 E3.6278
G1 X132.261 Y97.400 E3.6575
G1 X132.482 Y97.491 E3.6683
G1 X138.509 Y103.518 E4.0509
G1 X138.600 Y103.739 E4.0617
G1 X138.600 Y119.261 E4.7587
G1 X138.509 Y119.482 E4.7694
G1 X132.482 Y125.509 E5.1521
G1 X132.261 Y125.600 E5.1628
G1 X62.739 Y125.600 E8.2845
G1 X62.518 Y125.509 E8.2952
G1 X56.491 Y119.482 E8.6779
G1 X56.400 Y119.261 E8.6886
G1 X56.400 Y103.739 E9.3856
G1 X56.491 Y103.518 E9.3963
G1 X62.518 Y97.491 E9.7790
G1 X62.739 Y97.400 E9.7897
G1 X71.400 Y97.400 E10.1786
G1 X71.401 Y88.857 E10.5622
G1 X71.401 Y88.849 E10.5626
G1 X71.407 Y88.589 E10.5743
G1 X71.408 Y88.581 E10.5746
G1 X71.473 Y87.292 E10.6326
G1 X71.474 Y87.277 E10.6333
G1 X71.527 Y86.757 E10.6567
G1 X71.529 Y86.742 E10.6574
G1 X71.746 Y85.325 E10.7218
G1 X71.749 Y85.310 E10.7224
G1 X71.854 Y84.799 E10.7459
G1 X71.857 Y84.784 E10.7466
G1 X72.217 Y83.396 E10.8109
G1 X72.221 Y83.381 E10.8116
G1 X72.377 Y82.883 E10.8351
G1 X72.382 Y82.869 E10.8357
G1 X72.880 Y81.525 E10.9001
G1 X72.885 Y81.511 E10.9008
G1 X73.091 Y81.031 E10.9242
G1 X73.098 Y81.017 E10.9249
G1 X73.729 Y79.730 E10.9893
G1 X73.736 Y79.716 E10.9900
G1 X73.989 Y79.260 E11.0134
G1 X73.997 Y79.247 E11.0141
G1 X74.756 Y78.030 E11.0785
G1 X74.764 Y78.017 E11.0792
G1 X75.062 Y77.589 E11.1026
G1 X75.071 Y77.577 E11.1033
G1 X75.949 Y76.443 E11.1677
G1 X75.958 Y76.431 E11.1683
G1 X76.298 Y76.035 E11.1918
G1 X76.309 Y76.024 E11.1925
G1 X77.296 Y74.985 E11.2568
G1 X77.583 Y75.264 F4800
G92 E0
G1 X77.586 Y75.260 E0.0002 F1800
G1 X77.957 Y74.908 E0.0232
G1 X77.961 Y74.904 E0.0234
G1 X79.041 Y73.977 E0.0874
G1 X79.045 Y73.974 E0.0876
G1 X79.450 Y73.660 E0.1106
G1 X79.454 Y73.657 E0.1108
G1 X80.622 Y72.844 E0.1747
G1 X80.627 Y72.841 E0.1749
G1 X81.061 Y72.571 E0.1979
G1 X81.065 Y72.568 E0.1982
G1 X82.310 Y71.877 E0.2621
G1 X82.315 Y71.875 E0.2623
G1 X82.774 Y71.649 E0.2853
G1 X82.779 Y71.647 E0.2855
G1 X84.087 Y71.086 E0.3494
G1 X84.092 Y71.084 E0.3497
G1 X84.572 Y70.906 E0.3726
G1 X84.577 Y70.905 E0.3729
G1 X85.935 Y70.478 E0.4368
G1 X85.940 Y70.477 E0.4370
G1 X86.435 Y70.349 E0.4600
G1 X86.440 Y70.348 E0.4602
G1 X87.835 Y70.061 E0.5242
G1 X87.840 Y70.060 E0.5244
G1 X88.346 Y69.983 E0.5474
G1 X88.351 Y69.982 E0.5476
G1 X89.767 Y69.838 E0.6115
G1 X89.772 Y69.838 E0.6117
G1 X90.283 Y69.812 E0.6347
G1 X90.288 Y69.812 E0.6350
G1 X91.712 Y69.812 E0.6989
G1 X91.717 Y69.812 E0.6991
G1 X92.228 Y69.838 E0.7221
G1 X92.233 Y69.838 E0.7223
G1 X93.649 Y69.982 E0.7862
G1 X93.654 Y69.983 E0.7865
G1 X94.160 Y70.060 E0.8094
G1 X94.165 Y70.061 E0.8097
G1 X95.560 Y70.348 E0.8736
G1 X95.565 Y70.349 E0.8738
G1 X96.060 Y70.477 E0.8968
G1 X96.065 Y70.478 E0.8970
G1 X97.423 Y70.905 E0.9609
G1 X97.428 Y70.906 E0.9612
G1 X97.908 Y71.084 E0.9842
G1 X97.913 Y71.086 E0.9844
G1 X99.221 Y71.647 E1.0483
G1 X99.226 Y71.649 E1.0485
G1 X99.685 Y71.875 E1.0715
G1 X99.690 Y71.877 E1.0717
G1 X99.991 Y72.045 E1.0872
G1 X100.168 Y71.950 E1.0962
G1 X100.172 Y71.948 E1.0964
G1 X101.419 Y71.358 E1.1584
G1 X101.423 Y71.356 E1.1586
G1 X101.881 Y71.167 E1.1808
G1 X101.886 Y71.165 E1.1811
G1 X103.185 Y70.700 E1.2430
G1 X103.189 Y70.699 E1.2432
G1 X103.664 Y70.555 E1.2655
G1 X103.669 Y70.553 E1.2657
G1 X105.006 Y70.218 E1.3276
G1 X105.011 Y70.217 E1.3278
G1 X105.498 Y70.121 E1.3501
G1 X105.502 Y70.120 E1.3503
G1 X106.867 Y69.917 E1.4123
G1 X106.871 Y69.917 E1.4125
G1 X107.365 Y69.868 E1.4347
G1 X107.370 Y69.868 E1.4350
G1 X108.623 Y69.806 E1.4913
G1 X108.626 Y69.806 E1.4914
G1 X108.874 Y69.800 E1.5026
G1 X108.876 Y69.800 E1.5027
G1 X125.182 Y69.800 E2.2348
G1 X125.255 Y69.830 E2.2384
G1 X131.170 Y75.745 E2.6139
G1 X131.200 Y75.818 E2.6175
G1 X131.200 Y97.800 E3.6045
G1 X132.182 Y97.800 E3.6486
G1 X132.255 Y97.830 E3.6522
G1 X138.170 Y103.745 E4.0277
G1 X138.200 Y103.818 E4.0313
G1 X138.200 Y119.182 E4.7212
G1 X138.170 Y119.255 E4.7247
G1 X132.255 Y125.170 E5.1003
G1 X132.182 Y125.200 E5.1038
G1 X62.818 Y125.200 E8.2184
G1 X62.745 Y125.170 E8.2219
G1 X56.830 Y119.255 E8.5975
G1 X56.800 Y119.182 E8.6011
G1 X56.800 Y103.818 E9.2909
G1 X56.830 Y103.745 E9.2945
G1 X62.745 Y97.830 E9.6700
G1 X62.818 Y97.800 E9.6736
G1 X71.800 Y97.800 E10.0769
G1 X71.801 Y88.860 E10.4784
G1 X71.801 Y88.857 E10.4785
G1 X71.807 Y88.601 E10.4900
G1 X71.807 Y88.599 E10.4901
G1 X71.872 Y87.317 E10.5477
G1 X71.873 Y87.312 E10.5479
G1 X71.924 Y86.803 E10.5709
G1 X71.925 Y86.798 E10.5711
G1 X72.141 Y85.391 E10.6350
G1 X72.142 Y85.386 E10.6353
G1 X72.245 Y84.884 E10.6583
G1 X72.246 Y84.879 E10.6585
G1 X72.603 Y83.501 E10.7224
G1 X72.604 Y83.496 E10.7226
G1 X72.757 Y83.008 E10.7456
G1 X72.759 Y83.003 E10.7458
G1 X73.253 Y81.668 E10.8098
G1 X73.255 Y81.664 E10.8100
G1 X73.457 Y81.193 E10.8330
G1 X73.459 Y81.189 E10.8332
G1 X74.086 Y79.911 E10.8971
G1 X74.088 Y79.906 E10.8973
G1 X74.337 Y79.458 E10.9203
G1 X74.339 Y79.454 E10.9206
G1 X75.092 Y78.246 E10.9845
G1 X75.095 Y78.242 E10.9847
G1 X75.388 Y77.822 E11.0077
G1 X75.391 Y77.817 E11.0079
G1 X76.262 Y76.692 E11.0718
G1 X76.265 Y76.688 E11.0721
G1 X76.599 Y76.299 E11.0951
G1 X76.602 Y76.296 E11.0953
G1 X77.583 Y75.264 E11.1592
G92 E0
G1 E-5.0000 F6000
; inner perimeter
G1 X85.213 Y82.912 F4800
G1 E0.0000 F6000
G92 E0
G1 X85.859 Y82.358 E0.0382 F1350
G1 X86.557 Y81.872 E0.0764
G1 X87.301 Y81.459 E0.1146
G1 X88.083 Y81.124 E0.1528
G1 X88.895 Y80.869 E0.1910
G1 X89.728 Y80.698 E0.2292
G1 X90.575 Y80.612 E0.2674
G1 X91.425 Y80.612 E0.3056
G1 X92.272 Y80.698 E0.3438
G1 X93.105 Y80.869 E0.3820
G1 X93.917 Y81.124 E0.4202
G1 X94.699 Y81.459 E0.4584
G1 X95.443 Y81.872 E0.4966
G1 X96.141 Y82.358 E0.5348
G1 X96.787 Y82.912 E0.5730
G1 X97.373 Y83.529 E0.6113
G1 X97.894 Y84.202 E0.6495
G1 X98.344 Y84.924 E0.6877
G1 X98.719 Y85.688 E0.7259
G1 X99.014 Y86.485 E0.7641
G1 X99.227 Y87.309 E0.8023
G1 X99.356 Y88.150 E0.8405
G1 X99.430 Y89.600 E0.9057
G1 X100.571 Y89.600 E0.9569
G1 X100.641 Y88.177 E1.0209
G1 X100.762 Y87.361 E1.0579
G1 X100.962 Y86.562 E1.0949
G1 X101.240 Y85.786 E1.1319
G1 X101.592 Y85.041 E1.1689
G1 X102.016 Y84.334 E1.2059
G1 X102.507 Y83.671 E1.2430
G1 X103.061 Y83.061 E1.2800
G1 X103.672 Y82.507 E1.3170
G1 X104.334 Y82.016 E1.3540
G1 X105.041 Y81.592 E1.3910
G1 X105.786 Y81.240 E1.4280
G1 X106.562 Y80.962 E1.4650
G1 X107.361 Y80.762 E1.5020
G1 X108.177 Y80.641 E1.5390
G1 X109.015 Y80.600 E1.5767
G1 X120.400 Y80.600 E2.0879
G1 X120.400 Y87.400 E2.3933
G1 X113.516 Y87.400 E2.7024
G1 X113.449 Y87.195 E2.7121
G1 X113.142 Y86.570 E2.7433
G1 X112.747 Y85.997 E2.7746
G1 X112.273 Y85.487 E2.8058
G1 X111.731 Y85.051 E2.8370
G1 X111.132 Y84.698 E2.8683
G1 X110.487 Y84.435 E2.8995
G1 X109.812 Y84.268 E2.9308
G1 X109.119 Y84.200 E2.9620
G1 X108.424 Y84.233 E2.9933
G1 X107.741 Y84.366 E3.0245
G1 X107.085 Y84.597 E3.0558
G1 X106.468 Y84.920 E3.0870
G1 X105.905 Y85.329 E3.1183
G1 X105.407 Y85.815 E3.1495
G1 X104.984 Y86.368 E3.1808
G1 X104.646 Y86.976 E3.2120
G1 X104.399 Y87.626 E3.2433
G1 X104.249 Y88.306 E3.2745
G1 X104.198 Y89.000 E3.3057
G1 X104.249 Y89.694 E3.3370
G1 X104.399 Y90.374 E3.3682
G1 X104.646 Y91.024 E3.3995
G1 X104.984 Y91.632 E3.4307
G1 X105.407 Y92.185 E3.4620
G1 X105.905 Y92.671 E3.4932
G1 X106.468 Y93.080 E3.5245
G1 X107.085 Y93.403 E3.5557
G1 X107.741 Y93.634 E3.5870
G1 X108.424 Y93.767 E3.6182
G1 X109.119 Y93.800 E3.6495
G1 X109.812 Y93.732 E3.6807
G1 X110.487 Y93.565 E3.7120
G1 X111.132 Y93.302 E3.7432
G1 X111.731 Y92.949 E3.7745
G1 X112.273 Y92.513 E3.8057
G1 X112.747 Y92.003 E3.8369
G1 X113.142 Y91.430 E3.8682
G1 X113.449 Y90.805 E3.8994
G1 X113.516 Y90.600 E3.9091
G1 X120.400 Y90.600 E4.2182
G1 X120.400 Y108.600 E5.0265
G1 X127.400 Y108.600 E5.3408
G1 X127.400 Y114.400 E5.6012
G1 X67.600 Y114.400 E8.2863
G1 X67.600 Y108.600 E8.5467
G1 X82.600 Y108.600 E9.2202
G1 X82.601 Y89.003 E10.1002
G1 X82.644 Y88.150 E10.1385
G1 X82.773 Y87.309 E10.1767
G1 X82.986 Y86.486 E10.2149
G1 X83.281 Y85.688 E10.2531
G1 X83.656 Y84.924 E10.2913
G1 X84.106 Y84.202 E10.3295
G1 X84.627 Y83.529 E10.3677
G1 X85.213 Y82.912 E10.4059
; outer perimeter
G1 X84.937 Y82.622 F4800
G92 E0
G1 X85.614 Y82.041 E0.0400 F900
G1 X86.345 Y81.532 E0.0800
G1 X87.125 Y81.100 E0.1201
G1 X87.944 Y80.748 E0.1601
G1 X88.794 Y80.481 E0.2001
G1 X89.668 Y80.302 E0.2402
G1 X90.554 Y80.212 E0.2802
G1 X91.446 Y80.212 E0.3202
G1 X92.332 Y80.302 E0.3602
G1 X93.206 Y80.481 E0.4002
G1 X94.056 Y80.748 E0.4403
G1 X94.875 Y81.100 E0.4803
G1 X95.655 Y81.532 E0.5203
G1 X96.386 Y82.041 E0.5603
G1 X97.063 Y82.622 E0.6004
G1 X97.677 Y83.268 E0.6404
G1 X98.223 Y83.973 E0.6804
G1 X98.694 Y84.729 E0.7204
G1 X99.087 Y85.530 E0.7605
G1 X99.396 Y86.366 E0.8005
G1 X99.620 Y87.229 E0.8405
G1 X99.755 Y88.110 E0.8805
G1 X99.810 Y89.200 E0.9296
G1 X100.190 Y89.200 E0.9467
G1 X100.243 Y88.137 E0.9944
G1 X100.369 Y87.283 E1.0332
