; G-Code generated by Simplify3D(R) Version 3.0.2
; 1ÔÂ 22, 2016 at 12:45:17 ÉÏÎç
; Settings Summary
;   processName,Process3
;   applyToModels,15
;   profileName,me
;   profileVersion,2015-09-08 10:04:24
;   baseProfile,Default
;   printMaterial,PLA
;   printQuality,Medium
;   printExtruders,
;   extruderName,Extruder 1
;   extruderToolheadNumber,0
;   extruderDiameter,0.4
;   extruderAutoWidth,0
;   extruderWidth,0.4
;   extrusionMultiplier,0.9
;   extruderUseRetract,1
;   extruderRetractionDistance,5
;   extruderExtraRestartDistance,0
;   extruderRetractionZLift,0
;   extruderRetractionSpeed,6000
;   extruderUseCoasting,0
;   extruderCoastingDistance,0.2
;   extruderUseWipe,0
;   extruderWipeDistance,5
;   primaryExtruder,0
;   layerHeight,0.3
;   topSolidLayers,3
;   bottomSolidLayers,3
;   perimeterOutlines,2
;   printPerimetersInsideOut,1
;   startPointOption,2
;   startPointOriginX,0
;   startPointOriginY,0
;   startPointOriginZ,300
;   sequentialIslands,0
;   spiralVaseMode,0
;   firstLayerHeightPercentage,90
;   firstLayerWidthPercentage,100
;   firstLayerUnderspeed,0.5
;   useRaft,0
;   raftExtruder,0
;   raftLayers,3
;   raftOffset,3
;   raftSeparationDistance,0.14
;   raftInfill,85
;   disableRaftBaseLayers,0
;   useSkirt,1
;   skirtExtruder,0
;   skirtLayers,1
;   skirtOutlines,2
;   skirtOffset,10
;   usePrimePillar,0
;   primePillarExtruder,999
;   primePillarWidth,12
;   primePillarLocation,7
;   primePillarSpeedMultiplier,1
;   useOozeShield,0
;   oozeShieldExtruder,999
;   oozeShieldOffset,2
;   oozeShieldOutlines,1
;   oozeShieldSidewallShape,1
;   oozeShieldSidewallAngle,30
;   oozeShieldSpeedMultiplier,1
;   infillExtruder,0
;   internalInfillPattern,Rectilinear
;   externalInfillPattern,Rectilinear
;   infillPercentage,60
;   outlineOverlapPercentage,15
;   infillExtrusionWidthPercentage,100
;   minInfillLength,5
;   infillLayerInterval,1
;   infillAngles,45,-45
;   overlapInfillAngles,0
;   generateSupport,1
;   supportExtruder,0
;   supportInfillPercentage,20
;   supportExtraInflation,0
;   denseSupportLayers,0
;   denseSupportInfillPercentage,70
;   supportLayerInterval,1
;   supportHorizontalPartOffset,0.3
;   supportUpperSeparationLayers,1
;   supportLowerSeparationLayers,1
;   supportType,0
;   supportGridSpacing,4
;   maxOverhangAngle,45
;   supportAngles,0
;   temperatureName,Extruder 1 Temperature,Bed
;   temperatureNumber,0,0
;   temperatureSetpointCount,1,1
;   temperatureSetpointLayers,1,1
;   temperatureSetpointTemperatures,210,75
;   temperatureStabilizeAtStartup,1,1
;   temperatureHeatedBed,0,1
;   temperatureRelayBetweenLayers,0,0
;   temperatureRelayBetweenLoops,0,0
;   fanLayers,1,2
;   fanSpeeds,0,100
;   blipFanToFullPower,0
;   adjustSpeedForCooling,1
;   minSpeedLayerTime,15
;   minCoolingSpeedSlowdown,20
;   increaseFanForCooling,0
;   minFanLayerTime,45
;   maxCoolingFanSpeed,100
;   increaseFanForBridging,0
;   bridgingFanSpeed,100
;   use5D,1
;   relativeEdistances,0
;   allowEaxisZeroing,1
;   independentExtruderAxes,0
;   includeM10123,0
;   stickySupport,1
;   applyToolheadOffsets,0
;   gcodeXoffset,0
;   gcodeYoffset,0
;   gcodeZoffset,0
;   overrideMachineDefinition,1
;   machineTypeOverride,0
;   strokeXoverride,195
;   strokeYoverride,195
;   strokeZoverride,195
;   originOffsetXoverride,0
;   originOffsetYoverride,0
;   originOffsetZoverride,0
;   homeXdirOverride,-1
;   homeYdirOverride,-1
;   homeZdirOverride,-1
;   flipXoverride,1
;   flipYoverride,-1
;   flipZoverride,1
;   toolheadOffsets,0,0|0,0|0,0|0,0|0,0|0,0
;   overrideFirmwareConfiguration,1
;   firmwareTypeOverride,RepRap (Marlin/Repetier/Sprinter)
;   GPXconfigOverride,r2
;   baudRateOverride,115200
;   overridePrinterModels,0
;   printerModelsOverride
;   startingGcode,G28 ; home all axes
;   layerChangeGcode,
;   retractionGcode,
;   toolChangeGcode,
;   endingGcode,M104 S0 ; turn off extruder,M140 S0 ; turn off bed,M84 ; disable motors,G28 X0 Y0
;   createX3G,0
;   celebration,0
;   celebrationSong,Random Song
;   createMB5G,0
;   postProcessing,
;   defaultSpeed,3600
;   outlineUnderspeed,0.5
;   solidInfillUnderspeed,0.8
;   supportUnderspeed,0.8
;   rapidXYspeed,4800
;   rapidZspeed,1000
;   minBridgingArea,50
;   bridgingExtraInflation,0
;   bridgingExtrusionMultiplier,1
;   bridgingSpeedMultiplier,1
;   filamentDiameter,1.75
;   filamentPricePerKg,46
;   filamentDensity,1.25
;   useMinPrintHeight,0
;   minPrintHeight,0
;   useMaxPrintHeight,0
;   maxPrintHeight,0
;   useDiaphragm,0
;   diaphragmLayerInterval,20
;   robustSlicing,1
;   mergeAllIntoSolid,0
;   onlyRetractWhenCrossingOutline,1
;   retractBetweenLayers,1
;   useRetractionMinTravel,0
;   retractionMinTravel,3
;   retractWhileWiping,0
;   onlyWipeOutlines,1
;   avoidCrossingOutline,0
;   maxMovementDetourFactor,3
;   toolChangeRetractionDistance,12
;   toolChangeExtraRestartDistance,-0.5
;   toolChangeRetractionSpeed,600
;   allowThinWallGapFill,1
;   thinWallAllowedOverlapPercentage,10
;   horizontalSizeCompensation,0
G90
M82
M106 S0
M140 S75
M190 S75
M104 S210 T0
M109 S210 T0
G28 ; home all axes
G92 E0
G1 E-5.0000 F6000
G1 Z0.270 F1000
; layer 1, Z = 0.27
T0
; tool H0.300 W0.400
; skirt
G1 X76.991 Y69.018 F4800
G1 E0.0000 F1800
G92 E0
G1 X83.018 Y62.991 E0.3827 F1800
G1 X83.239 Y62.900 E0.3934
G1 X111.761 Y62.900 E1.6741
G1 X111.982 Y62.991 E1.6848
G1 X118.009 Y69.018 E2.0675
G1 X118.100 Y69.239 E2.0783
G1 X118.100 Y125.761 E4.6162
G1 X118.009 Y125.982 E4.6269
G1 X111.982 Y132.009 E5.0096
G1 X111.761 Y132.100 E5.0203
G1 X83.239 Y132.100 E6.3010
G1 X83.018 Y132.009 E6.3118
G1 X76.991 Y125.982 E6.6944
G1 X76.900 Y125.761 E6.7052
G1 X76.900 Y69.239 E9.2431
G1 X76.991 Y69.018 E9.2538
G1 X77.330 Y69.245 F4800
G92 E0
G1 X83.245 Y63.330 E0.3755 F1800
G1 X83.318 Y63.300 E0.3791
G1 X111.682 Y63.300 E1.6527
G1 X111.755 Y63.330 E1.6563
G1 X117.670 Y69.245 E2.0318
G1 X117.700 Y69.318 E2.0354
G1 X117.700 Y125.682 E4.5662
G1 X117.670 Y125.755 E4.5698
G1 X111.755 Y131.670 E4.9453
G1 X111.682 Y131.700 E4.9489
G1 X83.318 Y131.700 E6.2224
G1 X83.245 Y131.670 E6.2260
G1 X77.330 Y125.755 E6.6016
G1 X77.300 Y125.682 E6.6051
G1 X77.300 Y69.318 E9.1359
G1 X77.330 Y69.245 E9.1395
G92 E0
G1 E-5.0000 F6000
; inner perimeter
G1 X88.100 Y74.100 F4800
G1 E0.0000 F6000
G92 E0
G1 X106.900 Y74.100 E0.8441 F1350
G1 X106.900 Y120.900 E2.9455
G1 X88.100 Y120.900 E3.7897
G1 X88.100 Y74.100 E5.8910
; outer perimeter
G1 X87.700 Y73.700 F4800
G92 E0
G1 X107.300 Y73.700 E0.8801 F900
G1 X107.300 Y121.300 E3.0174
G1 X87.700 Y121.300 E3.8974
G1 X87.700 Y73.700 E6.0347
; inner perimeter
G1 X94.724 Y79.397 F4800
G92 E0
G1 X94.404 Y80.170 E0.0376 F1350
G1 X94.295 Y81.000 E0.0751
G1 X94.404 Y81.830 E0.1127
G1 X94.724 Y82.603 E0.1503
G1 X95.234 Y83.266 E0.1878
G1 X95.897 Y83.776 E0.2254
G1 X96.670 Y84.096 E0.2630
G1 X97.500 Y84.205 E0.3006
G1 X98.330 Y84.096 E0.3381
G1 X99.103 Y83.776 E0.3757
G1 X99.766 Y83.266 E0.4133
G1 X100.276 Y82.603 E0.4508
G1 X100.596 Y81.830 E0.4884
G1 X100.705 Y81.000 E0.5260
G1 X100.596 Y80.170 E0.5635
G1 X100.276 Y79.397 E0.6011
G1 X99.766 Y78.734 E0.6387
G1 X99.103 Y78.224 E0.6763
G1 X98.330 Y77.904 E0.7138
G1 X97.500 Y77.795 E0.7514
G1 X96.670 Y77.904 E0.7890
G1 X95.897 Y78.224 E0.8265
G1 X95.234 Y78.734 E0.8641
G1 X94.724 Y79.397 E0.9017
; outer perimeter
G1 X95.074 Y79.599 F4800
G92 E0
G1 X94.794 Y80.275 E0.0328 F900
G1 X94.698 Y81.000 E0.0657
G1 X94.794 Y81.725 E0.0985
G1 X95.074 Y82.401 E0.1314
G1 X95.519 Y82.981 E0.1642
G1 X96.099 Y83.426 E0.1970
G1 X96.775 Y83.706 E0.2299
G1 X97.500 Y83.802 E0.2627
G1 X98.225 Y83.706 E0.2956
G1 X98.901 Y83.426 E0.3284
G1 X99.481 Y82.981 E0.3612
G1 X99.926 Y82.401 E0.3941
G1 X100.206 Y81.725 E0.4269
G1 X100.302 Y81.000 E0.4598
G1 X100.206 Y80.275 E0.4926
G1 X99.926 Y79.599 E0.5254
G1 X99.481 Y79.019 E0.5583
G1 X98.901 Y78.574 E0.5911
G1 X98.225 Y78.294 E0.6240
G1 X97.500 Y78.198 E0.6568
G1 X96.775 Y78.294 E0.6897
G1 X96.099 Y78.574 E0.7225
G1 X95.519 Y79.019 E0.7553
G1 X95.074 Y79.599 E0.7882
G92 E0
G1 E-5.0000 F6000
; inner perimeter
G1 X95.897 Y111.224 F4800
G1 E0.0000 F6000
G92 E0
G1 X95.234 Y111.734 E0.0376 F1350
G1 X94.724 Y112.397 E0.0751
G1 X94.404 Y113.170 E0.1127
G1 X94.295 Y114.000 E0.1503
G1 X94.404 Y114.830 E0.1878
G1 X94.724 Y115.603 E0.2254
G1 X95.234 Y116.266 E0.2630
G1 X95.897 Y116.776 E0.3006
G1 X96.670 Y117.096 E0.3381
G1 X97.500 Y117.205 E0.3757
G1 X98.330 Y117.096 E0.4133
G1 X99.103 Y116.776 E0.4508
G1 X99.766 Y116.266 E0.4884
G1 X100.276 Y115.603 E0.5260
G1 X100.596 Y114.830 E0.5635
G1 X100.705 Y114.000 E0.6011
G1 X100.596 Y113.170 E0.6387
G1 X100.276 Y112.397 E0.6763
G1 X99.766 Y111.734 E0.7138
G1 X99.103 Y111.224 E0.7514
G1 X98.330 Y110.904 E0.7890
G1 X97.500 Y110.795 E0.8265
G1 X96.670 Y110.904 E0.8641
G1 X95.897 Y111.224 E0.9017
; outer perimeter
G1 X96.099 Y111.574 F4800
G92 E0
G1 X95.519 Y112.019 E0.0328 F900
G1 X95.074 Y112.599 E0.0657
G1 X94.794 Y113.275 E0.0985
G1 X94.698 Y114.000 E0.1314
G1 X94.794 Y114.725 E0.1642
G1 X95.074 Y115.401 E0.1970
G1 X95.519 Y115.981 E0.2299
G1 X96.099 Y116.426 E0.2627
G1 X96.775 Y116.706 E0.2956
G1 X97.500 Y116.802 E0.3284
G1 X98.225 Y116.706 E0.3612
G1 X98.901 Y116.426 E0.3941
G1 X99.481 Y115.981 E0.4269
G1 X99.926 Y115.401 E0.4598
G1 X100.206 Y114.725 E0.4926
G1 X100.302 Y114.000 E0.5254
G1 X100.206 Y113.275 E0.5583
G1 X99.926 Y112.599 E0.5911
G1 X99.481 Y112.019 E0.6240
G1 X98.901 Y111.574 E0.6568
G1 X98.225 Y111.294 E0.6897
G1 X97.500 Y111.198 E0.7225
G1 X96.775 Y111.294 E0.7553
G1 X96.099 Y111.574 E0.7882
; solid layer
G1 X96.916 Y110.529 F4800
G92 E0
G1 X106.560 Y100.885 E0.6124 F1440
G1 X106.560 Y101.451 E0.6378
G1 X97.552 Y110.459 E1.2098
G1 X98.052 Y110.525 E1.2324
G1 X106.560 Y102.016 E1.7727
G1 X106.560 Y102.582 E1.7981
G1 X98.525 Y110.617 E2.3083
G1 X98.925 Y110.783 E2.3277
G1 X106.560 Y103.148 E2.8125
G1 X106.560 Y103.714 E2.8379
G1 X99.315 Y110.959 E3.2980
G1 X99.635 Y111.204 E3.3161
G1 X106.560 Y104.279 E3.7558
G1 X106.560 Y104.845 E3.7812
G1 X99.955 Y111.450 E4.2007
G1 X100.009 Y111.491 E4.2037
G1 X100.213 Y111.757 E4.2188
G1 X106.560 Y105.411 E4.6218
G1 X106.560 Y105.976 E4.6472
G1 X100.459 Y112.077 E5.0346
G1 X100.573 Y112.226 E5.0430
G1 X100.662 Y112.440 E5.0534
G1 X106.560 Y106.542 E5.4280
G1 X106.560 Y107.108 E5.4534
G1 X100.827 Y112.840 E5.8174
G1 X100.927 Y113.082 E5.8292
G1 X100.953 Y113.280 E5.8381
G1 X106.560 Y107.673 E6.1942
G1 X106.560 Y108.239 E6.2196
G1 X101.019 Y113.780 E6.5714
G1 X101.048 Y114.000 E6.5814
G1 X101.000 Y114.365 E6.5979
G1 X106.560 Y108.805 E6.9509
G1 X106.560 Y109.370 E6.9763
G1 X100.867 Y115.063 E7.3378
G1 X106.560 Y120.118 F4800
G92 E0
G1 X106.118 Y120.560 E0.0280 F1440
G1 X105.553 Y120.560 E0.0534
G1 X106.560 Y119.553 E0.1174
G1 X106.560 Y118.987 E0.1428
G1 X104.987 Y120.560 E0.2427
G1 X104.421 Y120.560 E0.2681
G1 X106.560 Y118.421 E0.4039
G1 X106.560 Y117.856 E0.4293
G1 X103.856 Y120.560 E0.6010
G1 X103.290 Y120.560 E0.6264
G1 X106.560 Y117.290 E0.8341
G1 X106.560 Y116.724 E0.8595
G1 X102.724 Y120.560 E1.1030
G1 X102.159 Y120.560 E1.1284
G1 X106.560 Y116.159 E1.4079
G1 X106.560 Y115.593 E1.4333
G1 X101.593 Y120.560 E1.7487
G1 X101.027 Y120.560 E1.7741
G1 X106.560 Y115.027 E2.1254
G1 X106.560 Y114.462 E2.1508
G1 X100.462 Y120.560 E2.5381
G1 X99.896 Y120.560 E2.5635
G1 X106.560 Y113.896 E2.9867
G1 X106.560 Y113.330 E3.0121
G1 X99.330 Y120.560 E3.4712
G1 X98.765 Y120.560 E3.4966
G1 X106.560 Y112.765 E3.9916
G1 X106.560 Y112.199 E4.0170
G1 X98.199 Y120.560 E4.5479
G1 X97.633 Y120.560 E4.5733
G1 X106.560 Y111.633 E5.1402
G1 X106.560 Y111.067 E5.1656
G1 X97.067 Y120.560 E5.7683
G1 X96.502 Y120.560 E5.7937
G1 X106.560 Y110.502 E6.4324
G1 X106.560 Y109.936 E6.4578
G1 X100.080 Y116.416 E6.8693
G1 X100.009 Y116.509 E6.8746
G1 X99.916 Y116.580 E6.8798
G1 X95.936 Y120.560 E7.1325
G1 X95.370 Y120.560 E7.1579
G1 X98.563 Y117.367 E7.3607
G1 X98.418 Y117.427 E7.3677
G1 X97.865 Y117.500 E7.3928
G1 X94.805 Y120.560 E7.5871
G1 X94.239 Y120.560 E7.6125
G1 X97.280 Y117.519 E7.8056
G1 X96.780 Y117.453 E7.8282
G1 X93.673 Y120.560 E8.0255
G1 X93.108 Y120.560 E8.0509
G1 X96.340 Y117.327 E8.2562
G1 X95.940 Y117.162 E8.2756
G1 X92.542 Y120.560 E8.4914
G1 X91.976 Y120.560 E8.5168
G1 X95.577 Y116.959 E8.7455
G1 X95.257 Y116.713 E8.7636
G1 X91.411 Y120.560 E9.0079
G1 X90.845 Y120.560 E9.0333
G1 X94.950 Y116.455 E9.2940
G1 X94.704 Y116.135 E9.3121
G1 X90.279 Y120.560 E9.5931
G1 X89.714 Y120.560 E9.6185
G1 X94.459 Y115.815 E9.9198
G1 X94.427 Y115.774 E9.9221
G1 X94.283 Y115.425 E9.9390
G1 X89.148 Y120.560 E10.2651
G1 X88.582 Y120.560 E10.2905
G1 X94.117 Y115.025 E10.6420
G1 X94.073 Y114.918 E10.6472
G1 X94.025 Y114.552 E10.6638
G1 X88.440 Y120.136 E11.0184
G1 X88.440 Y119.571 E11.0438
G1 X93.959 Y114.052 E11.3942
G1 X93.952 Y114.000 E11.3966
G1 X94.029 Y113.416 E11.4230
G1 X88.440 Y119.005 E11.7779
G1 X88.440 Y118.439 E11.8033
G1 X94.267 Y112.612 E12.1733
G1 X94.427 Y112.226 E12.1921
G1 X94.991 Y111.491 E12.2337
G1 X95.726 Y110.927 E12.2753
G1 X96.112 Y110.767 E12.2940
G1 X106.560 Y100.319 E12.9575
G1 X106.560 Y99.754 E12.9829
G1 X88.440 Y117.874 E14.1335
G1 X88.440 Y117.308 E14.1589
G1 X106.560 Y99.188 E15.3095
G1 X106.560 Y98.622 E15.3349
G1 X88.440 Y116.742 E16.4855
G1 X88.440 Y116.177 E16.5109
G1 X106.560 Y98.057 E17.6615
G1 X106.560 Y97.491 E17.6869
G1 X88.440 Y115.611 E18.8376
G1 X88.440 Y115.045 E18.8630
G1 X106.560 Y96.925 E20.0136
G1 X106.560 Y96.360 E20.0390
G1 X88.440 Y114.480 E21.1896
G1 X88.440 Y113.914 E21.2150
G1 X106.560 Y95.794 E22.3656
G1 X106.560 Y95.228 E22.3910
G1 X88.440 Y113.348 E23.5416
G1 X88.440 Y112.783 E23.5670
G1 X106.560 Y94.663 E24.7176
G1 X106.560 Y94.097 E24.7430
G1 X88.440 Y112.217 E25.8937
G1 X88.440 Y111.651 E25.9191
G1 X106.560 Y93.531 E27.0697
G1 X106.560 Y92.966 E27.0951
G1 X88.440 Y111.086 E28.2457
G1 X88.440 Y110.520 E28.2711
G1 X106.560 Y92.400 E29.4217
G1 X106.560 Y91.834 E29.4471
G1 X88.440 Y109.954 E30.5977
G1 X88.440 Y109.388 E30.6231
G1 X106.560 Y91.268 E31.7737
G1 X106.560 Y90.703 E31.7991
G1 X88.440 Y108.823 E32.9498
G1 X88.440 Y108.257 E32.9752
G1 X106.560 Y90.137 E34.1258
G1 X106.560 Y89.571 E34.1512
G1 X88.440 Y107.691 E35.3018
G1 X88.440 Y107.126 E35.3272
G1 X106.560 Y89.006 E36.4778
G1 X106.560 Y88.440 E36.5032
G1 X88.440 Y106.560 E37.6538
G1 X88.440 Y105.994 E37.6792
G1 X106.560 Y87.874 E38.8298
G1 X106.560 Y87.309 E38.8552
G1 X88.440 Y105.429 E40.0059
G1 X88.440 Y104.863 E40.0313
G1 X106.560 Y86.743 E41.1819
G1 X106.560 Y86.177 E41.2073
G1 X88.440 Y104.297 E42.3579
G1 X88.440 Y103.732 E42.3833
G1 X106.560 Y85.612 E43.5339
G1 X106.560 Y85.046 E43.5593
G1 X88.440 Y103.166 E44.7099
G1 X88.440 Y102.600 E44.7353
G1 X106.560 Y84.480 E45.8860
G1 X106.560 Y83.915 E45.9114
G1 X88.440 Y102.035 E47.0620
G1 X88.440 Y101.469 E47.0874
G1 X106.560 Y83.349 E48.2380
G1 X106.560 Y82.783 E48.2634
G1 X88.440 Y100.903 E49.4140
G1 X88.440 Y100.337 E49.4394
G1 X106.560 Y82.217 E50.5900
G1 X106.560 Y81.652 E50.6154
G1 X88.440 Y99.772 E51.7660
G1 X88.440 Y99.206 E51.7914
G1 X106.560 Y81.086 E52.9421
G1 X106.560 Y80.520 E52.9675
G1 X88.440 Y98.640 E54.1181
G1 X88.440 Y98.075 E54.1435
G1 X106.560 Y79.955 E55.2941
G1 X106.560 Y79.389 E55.3195
G1 X88.440 Y97.509 E56.4701
G1 X88.440 Y96.943 E56.4955
G1 X106.560 Y78.823 E57.6461
G1 X106.560 Y78.258 E57.6715
G1 X88.440 Y96.378 E58.8221
G1 X88.440 Y95.812 E58.8475
G1 X106.560 Y77.692 E59.9982
G1 X106.560 Y77.126 E60.0236
G1 X88.440 Y95.246 E61.1742
G1 X88.440 Y94.681 E61.1996
G1 X98.888 Y84.233 E61.8630
G1 X98.418 Y84.427 E61.8859
G1 X98.084 Y84.471 E61.9010
G1 X88.440 Y94.115 E62.5134
G1 X88.440 Y93.549 E62.5388
G1 X97.448 Y84.541 E63.1108
G1 X96.948 Y84.475 E63.1334
G1 X88.440 Y92.984 E63.6737
G1 X88.440 Y92.418 E63.6991
G1 X96.475 Y84.383 E64.2093
G1 X96.075 Y84.217 E64.2287
G1 X88.440 Y91.852 E64.7136
G1 X88.440 Y91.287 E64.7390
G1 X95.685 Y84.041 E65.1990
G1 X95.365 Y83.796 E65.2171
G1 X88.440 Y90.721 E65.6569
G1 X88.440 Y90.155 E65.6823
G1 X95.045 Y83.550 E66.1017
G1 X94.991 Y83.509 E66.1047
G1 X94.787 Y83.243 E66.1198
G1 X88.440 Y89.589 E66.5228
G1 X88.440 Y89.024 E66.5482
G1 X94.541 Y82.923 E66.9357
