; G-Code generated by Simplify3D(R) Version 3.0.2
; 1ÔÂ 22, 2016 at 12:45:30 ÉÏÎç
; Settings Summary
;   processName,Process3
;   applyToModels,16
;   profileName,me
;   profileVersion,2015-09-08 10:04:24
;   baseProfile,Default
;   printMaterial,PLA
;   printQuality,Medium
;   printExtruders,
;   extruderName,Extruder 1
;   extruderToolheadNumber,0
;   extruderDiameter,0.4
;   extruderAutoWidth,0
;   extruderWidth,0.4
;   extrusionMultiplier,0.9
;   extruderUseRetract,1
;   extruderRetractionDistance,5
;   extruderExtraRestartDistance,0
;   extruderRetractionZLift,0
;   extruderRetractionSpeed,6000
;   extruderUseCoasting,0
;   extruderCoastingDistance,0.2
;   extruderUseWipe,0
;   extruderWipeDistance,5
;   primaryExtruder,0
;   layerHeight,0.3
;   topSolidLayers,3
;   bottomSolidLayers,3
;   perimeterOutlines,2
;   printPerimetersInsideOut,1
;   startPointOption,2
;   startPointOriginX,0
;   startPointOriginY,0
;   startPointOriginZ,300
;   sequentialIslands,0
;   spiralVaseMode,0
;   firstLayerHeightPercentage,90
;   firstLayerWidthPercentage,100
;   firstLayerUnderspeed,0.5
;   useRaft,0
;   raftExtruder,0
;   raftLayers,3
;   raftOffset,3
;   raftSeparationDistance,0.14
;   raftInfill,85
;   disableRaftBaseLayers,0
;   useSkirt,1
;   skirtExtruder,0
;   skirtLayers,1
;   skirtOutlines,2
;   skirtOffset,10
;   usePrimePillar,0
;   primePillarExtruder,999
;   primePillarWidth,12
;   primePillarLocation,7
;   primePillarSpeedMultiplier,1
;   useOozeShield,0
;   oozeShieldExtruder,999
;   oozeShieldOffset,2
;   oozeShieldOutlines,1
;   oozeShieldSidewallShape,1
;   oozeShieldSidewallAngle,30
;   oozeShieldSpeedMultiplier,1
;   infillExtruder,0
;   internalInfillPattern,Rectilinear
;   externalInfillPattern,Rectilinear
;   infillPercentage,60
;   outlineOverlapPercentage,15
;   infillExtrusionWidthPercentage,100
;   minInfillLength,5
;   infillLayerInterval,1
;   infillAngles,45,-45
;   overlapInfillAngles,0
;   generateSupport,1
;   supportExtruder,0
;   supportInfillPercentage,20
;   supportExtraInflation,0
;   denseSupportLayers,0
;   denseSupportInfillPercentage,70
;   supportLayerInterval,1
;   supportHorizontalPartOffset,0.3
;   supportUpperSeparationLayers,1
;   supportLowerSeparationLayers,1
;   supportType,0
;   supportGridSpacing,4
;   maxOverhangAngle,45
;   supportAngles,0
;   temperatureName,Extruder 1 Temperature,Bed
;   temperatureNumber,0,0
;   temperatureSetpointCount,1,1
;   temperatureSetpointLayers,1,1
;   temperatureSetpointTemperatures,210,75
;   temperatureStabilizeAtStartup,1,1
;   temperatureHeatedBed,0,1
;   temperatureRelayBetweenLayers,0,0
;   temperatureRelayBetweenLoops,0,0
;   fanLayers,1,2
;   fanSpeeds,0,100
;   blipFanToFullPower,0
;   adjustSpeedForCooling,1
;   minSpeedLayerTime,15
;   minCoolingSpeedSlowdown,20
;   increaseFanForCooling,0
;   minFanLayerTime,45
;   maxCoolingFanSpeed,100
;   increaseFanForBridging,0
;   bridgingFanSpeed,100
;   use5D,1
;   relativeEdistances,0
;   allowEaxisZeroing,1
;   independentExtruderAxes,0
;   includeM10123,0
;   stickySupport,1
;   applyToolheadOffsets,0
;   gcodeXoffset,0
;   gcodeYoffset,0
;   gcodeZoffset,0
;   overrideMachineDefinition,1
;   machineTypeOverride,0
;   strokeXoverride,195
;   strokeYoverride,195
;   strokeZoverride,195
;   originOffsetXoverride,0
;   originOffsetYoverride,0
;   originOffsetZoverride,0
;   homeXdirOverride,-1
;   homeYdirOverride,-1
;   homeZdirOverride,-1
;   flipXoverride,1
;   flipYoverride,-1
;   flipZoverride,1
;   toolheadOffsets,0,0|0,0|0,0|0,0|0,0|0,0
;   overrideFirmwareConfiguration,1
;   firmwareTypeOverride,RepRap (Marlin/Repetier/Sprinter)
;   GPXconfigOverride,r2
;   baudRateOverride,115200
;   overridePrinterModels,0
;   printerModelsOverride
;   startingGcode,G28 ; home all axes
;   layerChangeGcode,
;   retractionGcode,
;   toolChangeGcode,
;   endingGcode,M104 S0 ; turn off extruder,M140 S0 ; turn off bed,M84 ; disable motors,G28 X0 Y0
;   createX3G,0
;   celebration,0
;   celebrationSong,Random Song
;   createMB5G,0
;   postProcessing,
;   defaultSpeed,3600
;   outlineUnderspeed,0.5
;   solidInfillUnderspeed,0.8
;   supportUnderspeed,0.8
;   rapidXYspeed,4800
;   rapidZspeed,1000
;   minBridgingArea,50
;   bridgingExtraInflation,0
;   bridgingExtrusionMultiplier,1
;   bridgingSpeedMultiplier,1
;   filamentDiameter,1.75
;   filamentPricePerKg,46
;   filamentDensity,1.25
;   useMinPrintHeight,0
;   minPrintHeight,0
;   useMaxPrintHeight,0
;   maxPrintHeight,0
;   useDiaphragm,0
;   diaphragmLayerInterval,20
;   robustSlicing,1
;   mergeAllIntoSolid,0
;   onlyRetractWhenCrossingOutline,1
;   retractBetweenLayers,1
;   useRetractionMinTravel,0
;   retractionMinTravel,3
;   retractWhileWiping,0
;   onlyWipeOutlines,1
;   avoidCrossingOutline,0
;   maxMovementDetourFactor,3
;   toolChangeRetractionDistance,12
;   toolChangeExtraRestartDistance,-0.5
;   toolChangeRetractionSpeed,600
;   allowThinWallGapFill,1
;   thinWallAllowedOverlapPercentage,10
;   horizontalSizeCompensation,0
G90
M82
M106 S0
M140 S75
M190 S75
M104 S210 T0
M109 S210 T0
G28 ; home all axes
G92 E0
G1 E-5.0000 F6000
G1 Z0.270 F1000
; layer 1, Z = 0.27
T0
; tool H0.300 W0.400
; skirt
G1 X68.018 Y64.304 F4800
G1 E0.0000 F1800
G92 E0
G1 X68.239 Y64.213 E0.0107 F1800
G1 X126.761 Y64.213 E2.6385
G1 X126.982 Y64.304 E2.6492
G1 X133.009 Y70.330 E3.0319
G1 X133.100 Y70.551 E3.0426
G1 X133.100 Y124.449 E5.4627
G1 X133.009 Y124.670 E5.4734
G1 X126.982 Y130.696 E5.8561
G1 X126.761 Y130.787 E5.8668
G1 X114.239 Y130.787 E6.4291
G1 X114.018 Y130.696 E6.4398
G1 X107.991 Y124.670 E6.8225
G1 X107.900 Y124.449 E6.8332
G1 X107.900 Y121.412 E6.9696
G1 X94.600 Y121.412 E7.5668
G1 X94.600 Y124.449 E7.7031
G1 X94.509 Y124.670 E7.7138
G1 X88.482 Y130.696 E8.0965
G1 X88.261 Y130.787 E8.1072
G1 X78.952 Y130.787 E8.5252
G1 X78.836 Y130.764 E8.5305
G1 X75.051 Y129.197 E8.7145
G1 X74.953 Y129.131 E8.7198
G1 X63.556 Y117.735 E9.4435
G1 X63.491 Y117.636 E9.4488
G1 X61.923 Y113.852 E9.6327
G1 X61.900 Y113.736 E9.6380
G1 X61.900 Y70.551 E11.5771
G1 X61.991 Y70.330 E11.5878
G1 X68.018 Y64.304 E11.9705
G1 X68.245 Y64.643 F4800
G92 E0
G1 X68.318 Y64.612 E0.0036 F1800
G1 X126.682 Y64.612 E2.6242
G1 X126.755 Y64.643 E2.6278
G1 X132.670 Y70.557 E3.0033
G1 X132.700 Y70.631 E3.0069
G1 X132.700 Y124.369 E5.4198
G1 X132.670 Y124.443 E5.4234
G1 X126.755 Y130.357 E5.7989
G1 X126.682 Y130.387 E5.8025
G1 X114.318 Y130.387 E6.3576
G1 X114.245 Y130.357 E6.3612
G1 X108.330 Y124.443 E6.7368
G1 X108.300 Y124.369 E6.7403
G1 X108.300 Y121.013 E6.8911
G1 X94.200 Y121.013 E7.5242
G1 X94.200 Y124.369 E7.6749
G1 X94.170 Y124.443 E7.6785
G1 X88.255 Y130.357 E8.0540
G1 X88.182 Y130.387 E8.0576
G1 X78.991 Y130.387 E8.4703
G1 X78.953 Y130.380 E8.4720
G1 X75.241 Y128.842 E8.6524
G1 X75.208 Y128.820 E8.6542
G1 X63.867 Y117.480 E9.3744
G1 X63.845 Y117.447 E9.3761
G1 X62.308 Y113.735 E9.5565
G1 X62.300 Y113.696 E9.5583
G1 X62.300 Y70.631 E11.4920
G1 X62.330 Y70.557 E11.4956
G1 X68.245 Y64.643 E11.8711
G92 E0
G1 E-5.0000 F6000
; inner perimeter
G1 X73.100 Y75.412 F4800
G1 E0.0000 F6000
G92 E0
G1 X121.900 Y75.412 E2.1912 F1350
G1 X121.900 Y119.588 E4.1747
G1 X119.100 Y119.588 E4.3004
G1 X119.100 Y110.213 E4.7214
G1 X83.400 Y110.213 E6.3243
G1 X83.400 Y119.588 E6.7453
G1 X81.249 Y119.588 E6.8419
G1 X73.100 Y111.439 E7.3593
G1 X73.100 Y75.412 E8.9769
; outer perimeter
G1 X72.700 Y75.012 F4800
G92 E0
G1 X122.300 Y75.013 E2.2271 F900
G1 X122.300 Y119.987 E4.2465
G1 X118.700 Y119.987 E4.4082
G1 X118.700 Y110.612 E4.8291
G1 X83.800 Y110.612 E6.3962
G1 X83.800 Y119.987 E6.8171
G1 X81.083 Y119.987 E6.9391
G1 X72.700 Y111.605 E7.4714
G1 X72.700 Y75.013 E9.1145
; inner perimeter
G1 X78.622 Y94.791 F4800
G92 E0
G1 X78.180 Y95.047 E0.0229 F1350
G1 X77.809 Y95.398 E0.0459
G1 X77.529 Y95.825 E0.0688
G1 X77.355 Y96.305 E0.0917
G1 X77.296 Y96.812 E0.1146
G1 X77.355 Y97.320 E0.1376
G1 X77.529 Y97.800 E0.1605
G1 X77.809 Y98.227 E0.1834
G1 X78.180 Y98.578 E0.2063
G1 X78.622 Y98.834 E0.2293
G1 X79.110 Y98.982 E0.2522
G1 X79.620 Y99.013 E0.2751
G1 X80.123 Y98.927 E0.2980
G1 X80.593 Y98.727 E0.3210
G1 X81.004 Y98.424 E0.3439
G1 X81.334 Y98.034 E0.3668
G1 X81.600 Y97.513 E0.3931
G1 X81.600 Y96.112 E0.4560
G1 X81.334 Y95.591 E0.4823
G1 X81.004 Y95.201 E0.5052
G1 X80.593 Y94.898 E0.5281
G1 X80.123 Y94.698 E0.5511
G1 X79.620 Y94.612 E0.5740
G1 X79.110 Y94.643 E0.5969
G1 X78.622 Y94.791 E0.6198
; outer perimeter
G1 X78.782 Y95.160 F4800
G92 E0
G1 X78.421 Y95.370 E0.0187 F900
G1 X78.118 Y95.657 E0.0375
G1 X77.889 Y96.006 E0.0562
G1 X77.747 Y96.398 E0.0749
G1 X77.699 Y96.812 E0.0937
G1 X77.747 Y97.227 E0.1124
G1 X77.889 Y97.619 E0.1312
G1 X78.118 Y97.968 E0.1499
G1 X78.421 Y98.255 E0.1686
G1 X78.782 Y98.465 E0.1874
G1 X79.182 Y98.585 E0.2061
G1 X79.598 Y98.611 E0.2248
G1 X80.009 Y98.540 E0.2436
G1 X80.393 Y98.377 E0.2623
G1 X80.729 Y98.129 E0.2811
G1 X80.999 Y97.811 E0.2998
G1 X81.200 Y97.417 E0.3196
G1 X81.200 Y96.208 E0.3740
G1 X80.999 Y95.814 E0.3938
G1 X80.729 Y95.496 E0.4125
G1 X80.393 Y95.248 E0.4313
G1 X80.009 Y95.085 E0.4500
G1 X79.598 Y95.014 E0.4688
G1 X79.182 Y95.040 E0.4875
G1 X78.782 Y95.160 E0.5062
; inner perimeter
G1 X91.567 Y93.201 F4800
G92 E0
G1 X90.896 Y93.833 E0.0414 F1350
G1 X90.293 Y94.526 E0.0826
G1 X89.902 Y95.070 E0.1127
G1 X89.758 Y95.284 E0.1243
G1 X89.426 Y95.859 E0.1541
G1 X89.304 Y96.087 E0.1657
G1 X89.031 Y96.692 E0.1955
G1 X88.934 Y96.931 E0.2071
G1 X88.718 Y97.573 E0.2375
G1 X88.501 Y98.463 E0.2786
G1 X88.373 Y99.375 E0.3200
G1 X88.337 Y100.296 E0.3614
G1 X88.394 Y101.215 E0.4027
G1 X88.543 Y102.124 E0.4441
G1 X88.782 Y103.014 E0.4855
G1 X89.110 Y103.875 E0.5268
G1 X89.523 Y104.699 E0.5682
G1 X90.016 Y105.477 E0.6096
G1 X90.585 Y106.202 E0.6510
G1 X91.223 Y106.866 E0.6923
G1 X91.922 Y107.460 E0.7335
G1 X92.134 Y107.611 E0.7452
G1 X92.686 Y107.987 E0.7752
G1 X93.492 Y108.430 E0.8165
G1 X94.340 Y108.791 E0.8578
G1 X95.220 Y109.065 E0.8992
G1 X96.122 Y109.249 E0.9406
G1 X97.039 Y109.342 E0.9820
G1 X97.961 Y109.342 E1.0233
G1 X98.878 Y109.249 E1.0647
G1 X99.780 Y109.065 E1.1061
G1 X100.660 Y108.791 E1.1475
G1 X101.508 Y108.430 E1.1889
G1 X102.316 Y107.986 E1.2302
G1 X103.074 Y107.463 E1.2716
G1 X103.776 Y106.866 E1.3130
G1 X104.415 Y106.202 E1.3543
G1 X104.984 Y105.477 E1.3957
G1 X105.477 Y104.699 E1.4371
G1 X105.890 Y103.875 E1.4785
G1 X106.218 Y103.014 E1.5198
G1 X106.457 Y102.124 E1.5612
G1 X106.606 Y101.215 E1.6026
G1 X106.663 Y100.300 E1.6438
G1 X106.646 Y99.615 E1.6745
G1 X106.543 Y98.703 E1.7157
G1 X106.349 Y97.803 E1.7571
G1 X106.065 Y96.926 E1.7985
G1 X105.694 Y96.083 E1.8398
G1 X105.241 Y95.280 E1.8812
G1 X104.709 Y94.528 E1.9226
G1 X104.104 Y93.833 E1.9639
G1 X103.433 Y93.201 E2.0053
G1 X102.701 Y92.641 E2.0467
G1 X101.917 Y92.157 E2.0881
G1 X101.089 Y91.754 E2.1294
G1 X100.226 Y91.437 E2.1707
G1 X99.975 Y91.371 E2.1824
G1 X99.331 Y91.206 E2.2122
G1 X98.420 Y91.068 E2.2536
G1 X97.500 Y91.022 E2.2950
G1 X96.580 Y91.068 E2.3363
G1 X95.669 Y91.207 E2.3777
G1 X94.776 Y91.436 E2.4191
G1 X93.911 Y91.754 E2.4605
G1 X93.083 Y92.157 E2.5018
G1 X92.299 Y92.641 E2.5432
G1 X91.567 Y93.201 E2.5846
; outer perimeter
G1 X91.826 Y93.507 F4800
G92 E0
G1 X91.184 Y94.110 E0.0396 F900
G1 X90.607 Y94.775 E0.0791
G1 X90.230 Y95.299 E0.1081
G1 X90.097 Y95.496 E0.1188
G1 X89.775 Y96.053 E0.1477
G1 X89.664 Y96.263 E0.1583
G1 X89.399 Y96.850 E0.1872
G1 X89.309 Y97.070 E0.1979
G1 X89.103 Y97.684 E0.2270
G1 X88.894 Y98.538 E0.2665
G1 X88.772 Y99.411 E0.3060
G1 X88.737 Y100.291 E0.3456
G1 X88.792 Y101.170 E0.3852
G1 X88.934 Y102.040 E0.4247
G1 X89.163 Y102.891 E0.4643
G1 X89.477 Y103.714 E0.5038
G1 X89.871 Y104.502 E0.5434
G1 X90.343 Y105.246 E0.5830
G1 X90.887 Y105.940 E0.6225
G1 X91.498 Y106.575 E0.6621
G1 X92.168 Y107.144 E0.7016
G1 X92.363 Y107.282 E0.7123
G1 X92.895 Y107.645 E0.7412
G1 X93.667 Y108.070 E0.7808
G1 X94.478 Y108.415 E0.8204
G1 X95.319 Y108.677 E0.8599
G1 X96.183 Y108.853 E0.8995
G1 X97.059 Y108.942 E0.9391
G1 X97.941 Y108.942 E0.9786
G1 X98.817 Y108.853 E1.0182
G1 X99.681 Y108.677 E1.0578
G1 X100.522 Y108.415 E1.0973
G1 X101.333 Y108.070 E1.1369
G1 X102.105 Y107.645 E1.1765
G1 X102.831 Y107.145 E1.2160
G1 X103.502 Y106.575 E1.2556
G1 X104.113 Y105.940 E1.2952
G1 X104.657 Y105.246 E1.3347
G1 X105.129 Y104.502 E1.3743
G1 X105.523 Y103.714 E1.4139
G1 X105.837 Y102.891 E1.4534
G1 X106.066 Y102.040 E1.4930
G1 X106.208 Y101.170 E1.5325
G1 X106.262 Y100.293 E1.5720
G1 X106.246 Y99.642 E1.6013
G1 X106.148 Y98.768 E1.6408
G1 X105.962 Y97.907 E1.6803
G1 X105.690 Y97.069 E1.7199
G1 X105.336 Y96.262 E1.7594
G1 X104.902 Y95.495 E1.7990
G1 X104.394 Y94.775 E1.8386
G1 X103.816 Y94.110 E1.8781
G1 X103.174 Y93.507 E1.9177
G1 X102.474 Y92.971 E1.9573
G1 X101.724 Y92.508 E1.9968
G1 X100.932 Y92.122 E2.0364
G1 X100.105 Y91.819 E2.0759
G1 X99.875 Y91.758 E2.0866
G1 X99.251 Y91.599 E2.1155
G1 X98.380 Y91.467 E2.1551
G1 X97.500 Y91.422 E2.1947
G1 X96.620 Y91.467 E2.2342
G1 X95.749 Y91.599 E2.2738
G1 X94.895 Y91.818 E2.3134
G1 X94.068 Y92.122 E2.3529
G1 X93.276 Y92.508 E2.3925
G1 X92.526 Y92.971 E2.4321
G1 X91.826 Y93.507 E2.4716
G92 E0
G1 E-5.0000 F6000
; inner perimeter
G1 X113.591 Y95.710 F4800
G1 E0.0000 F6000
G92 E0
G1 X113.388 Y96.180 E0.0230 F1350
G1 X113.300 Y96.684 E0.0460
G1 X113.329 Y97.195 E0.0689
G1 X113.476 Y97.685 E0.0919
G1 X113.732 Y98.129 E0.1149
G1 X114.083 Y98.501 E0.1379
G1 X114.511 Y98.782 E0.1609
G1 X114.992 Y98.957 E0.1838
G1 X115.500 Y99.017 E0.2068
G1 X116.008 Y98.957 E0.2298
G1 X116.489 Y98.782 E0.2528
G1 X116.917 Y98.501 E0.2757
G1 X117.268 Y98.129 E0.2987
G1 X117.524 Y97.685 E0.3217
G1 X117.671 Y97.195 E0.3447
G1 X117.700 Y96.684 E0.3677
G1 X117.611 Y96.180 E0.3906
G1 X117.409 Y95.710 E0.4136
G1 X117.103 Y95.300 E0.4366
G1 X116.711 Y94.971 E0.4596
G1 X116.254 Y94.741 E0.4825
G1 X115.756 Y94.623 E0.5055
G1 X115.244 Y94.623 E0.5285
G1 X114.746 Y94.741 E0.5515
G1 X114.289 Y94.971 E0.5745
G1 X113.897 Y95.300 E0.5974
G1 X113.591 Y95.710 E0.6204
; outer perimeter
G1 X113.940 Y95.912 F4800
G92 E0
G1 X113.774 Y96.296 E0.0188 F900
G1 X113.702 Y96.708 E0.0376
G1 X113.726 Y97.125 E0.0563
G1 X113.846 Y97.526 E0.0751
G1 X114.055 Y97.888 E0.0939
G1 X114.342 Y98.192 E0.1127
G1 X114.692 Y98.422 E0.1315
G1 X115.085 Y98.565 E0.1502
G1 X115.500 Y98.614 E0.1690
G1 X115.915 Y98.565 E0.1878
G1 X116.308 Y98.422 E0.2066
G1 X116.658 Y98.192 E0.2254
G1 X116.945 Y97.888 E0.2441
G1 X117.154 Y97.526 E0.2629
G1 X117.274 Y97.125 E0.2817
G1 X117.298 Y96.708 E0.3005
G1 X117.226 Y96.296 E0.3193
G1 X117.060 Y95.912 E0.3380
G1 X116.810 Y95.576 E0.3568
G1 X116.490 Y95.307 E0.3756
G1 X116.116 Y95.120 E0.3944
G1 X115.709 Y95.023 E0.4132
G1 X115.291 Y95.023 E0.4319
G1 X114.884 Y95.120 E0.4507
G1 X114.510 Y95.307 E0.4695
G1 X114.190 Y95.576 E0.4883
G1 X113.940 Y95.912 E0.5071
; solid layer
G1 X115.425 Y94.283 F4800
G92 E0
G1 X121.560 Y88.148 E0.3896 F1440
G1 X121.560 Y88.714 E0.4150
G1 X115.953 Y94.321 E0.7710
G1 X116.371 Y94.420 E0.7903
G1 X116.403 Y94.436 E0.7920
G1 X121.560 Y89.279 E1.1194
G1 X121.560 Y89.845 E1.1448
G1 X116.780 Y94.625 E1.4484
G1 X116.899 Y94.685 E1.4544
G1 X117.109 Y94.861 E1.4667
G1 X121.560 Y90.411 E1.7493
G1 X121.560 Y90.976 E1.7747
G1 X117.403 Y95.133 E2.0386
G1 X117.644 Y95.458 E2.0568
G1 X121.560 Y91.542 E2.3054
G1 X121.560 Y92.108 E2.3308
G1 X117.833 Y95.835 E2.5675
G1 X117.939 Y96.082 E2.5796
G1 X117.971 Y96.262 E2.5878
G1 X121.560 Y92.673 E2.8157
G1 X121.560 Y93.239 E2.8411
G1 X118.036 Y96.763 E3.0649
G1 X118.008 Y97.255 E3.0870
G1 X117.964 Y97.401 E3.0938
G1 X121.560 Y93.805 E3.3222
G1 X121.560 Y94.370 E3.3476
G1 X106.058 Y109.873 E4.3320
G1 X105.492 Y109.873 E4.3574
G1 X116.073 Y99.292 E5.0292
G1 X115.500 Y99.359 E5.0551
G1 X115.446 Y99.353 E5.0575
G1 X104.927 Y109.873 E5.7256
G1 X104.361 Y109.873 E5.7510
G1 X114.940 Y99.293 E6.4227
G1 X114.913 Y99.290 E6.4240
G1 X114.520 Y99.147 E6.4427
G1 X103.795 Y109.873 E7.1238
G1 X103.229 Y109.873 E7.1492
G1 X114.150 Y98.952 E7.8426
G1 X113.863 Y98.763 E7.8580
G1 X113.819 Y98.717 E7.8609
G1 X102.664 Y109.873 E8.5693
G1 X102.098 Y109.873 E8.5947
G1 X113.545 Y98.426 E9.3215
G1 X106.624 Y109.872 F4800
G92 E0
