; G-Code generated by Simplify3D(R) Version 3.0.2
; 1ÔÂ 22, 2016 at 12:45:42 ÉÏÎç
; Settings Summary
;   processName,Process3
;   applyToModels,17
;   profileName,me
;   profileVersion,2015-09-08 10:04:24
;   baseProfile,Default
;   printMaterial,PLA
;   printQuality,Medium
;   printExtruders,
;   extruderName,Extruder 1
;   extruderToolheadNumber,0
;   extruderDiameter,0.4
;   extruderAutoWidth,0
;   extruderWidth,0.4
;   extrusionMultiplier,0.9
;   extruderUseRetract,1
;   extruderRetractionDistance,5
;   extruderExtraRestartDistance,0
;   extruderRetractionZLift,0
;   extruderRetractionSpeed,6000
;   extruderUseCoasting,0
;   extruderCoastingDistance,0.2
;   extruderUseWipe,0
;   extruderWipeDistance,5
;   primaryExtruder,0
;   layerHeight,0.3
;   topSolidLayers,3
;   bottomSolidLayers,3
;   perimeterOutlines,2
;   printPerimetersInsideOut,1
;   startPointOption,2
;   startPointOriginX,0
;   startPointOriginY,0
;   startPointOriginZ,300
;   sequentialIslands,0
;   spiralVaseMode,0
;   firstLayerHeightPercentage,90
;   firstLayerWidthPercentage,100
;   firstLayerUnderspeed,0.5
;   useRaft,0
;   raftExtruder,0
;   raftLayers,3
;   raftOffset,3
;   raftSeparationDistance,0.14
;   raftInfill,85
;   disableRaftBaseLayers,0
;   useSkirt,1
;   skirtExtruder,0
;   skirtLayers,1
;   skirtOutlines,2
;   skirtOffset,10
;   usePrimePillar,0
;   primePillarExtruder,999
;   primePillarWidth,12
;   primePillarLocation,7
;   primePillarSpeedMultiplier,1
;   useOozeShield,0
;   oozeShieldExtruder,999
;   oozeShieldOffset,2
;   oozeShieldOutlines,1
;   oozeShieldSidewallShape,1
;   oozeShieldSidewallAngle,30
;   oozeShieldSpeedMultiplier,1
;   infillExtruder,0
;   internalInfillPattern,Rectilinear
;   externalInfillPattern,Rectilinear
;   infillPercentage,60
;   outlineOverlapPercentage,15
;   infillExtrusionWidthPercentage,100
;   minInfillLength,5
;   infillLayerInterval,1
;   infillAngles,45,-45
;   overlapInfillAngles,0
;   generateSupport,1
;   supportExtruder,0
;   supportInfillPercentage,20
;   supportExtraInflation,0
;   denseSupportLayers,0
;   denseSupportInfillPercentage,70
;   supportLayerInterval,1
;   supportHorizontalPartOffset,0.3
;   supportUpperSeparationLayers,1
;   supportLowerSeparationLayers,1
;   supportType,0
;   supportGridSpacing,4
;   maxOverhangAngle,45
;   supportAngles,0
;   temperatureName,Extruder 1 Temperature,Bed
;   temperatureNumber,0,0
;   temperatureSetpointCount,1,1
;   temperatureSetpointLayers,1,1
;   temperatureSetpointTemperatures,210,75
;   temperatureStabilizeAtStartup,1,1
;   temperatureHeatedBed,0,1
;   temperatureRelayBetweenLayers,0,0
;   temperatureRelayBetweenLoops,0,0
;   fanLayers,1,2
;   fanSpeeds,0,100
;   blipFanToFullPower,0
;   adjustSpeedForCooling,1
;   minSpeedLayerTime,15
;   minCoolingSpeedSlowdown,20
;   increaseFanForCooling,0
;   minFanLayerTime,45
;   maxCoolingFanSpeed,100
;   increaseFanForBridging,0
;   bridgingFanSpeed,100
;   use5D,1
;   relativeEdistances,0
;   allowEaxisZeroing,1
;   independentExtruderAxes,0
;   includeM10123,0
;   stickySupport,1
;   applyToolheadOffsets,0
;   gcodeXoffset,0
;   gcodeYoffset,0
;   gcodeZoffset,0
;   overrideMachineDefinition,1
;   machineTypeOverride,0
;   strokeXoverride,195
;   strokeYoverride,195
;   strokeZoverride,195
;   originOffsetXoverride,0
;   originOffsetYoverride,0
;   originOffsetZoverride,0
;   homeXdirOverride,-1
;   homeYdirOverride,-1
;   homeZdirOverride,-1
;   flipXoverride,1
;   flipYoverride,-1
;   flipZoverride,1
;   toolheadOffsets,0,0|0,0|0,0|0,0|0,0|0,0
;   overrideFirmwareConfiguration,1
;   firmwareTypeOverride,RepRap (Marlin/Repetier/Sprinter)
;   GPXconfigOverride,r2
;   baudRateOverride,115200
;   overridePrinterModels,0
;   printerModelsOverride
;   startingGcode,G28 ; home all axes
;   layerChangeGcode,
;   retractionGcode,
;   toolChangeGcode,
;   endingGcode,M104 S0 ; turn off extruder,M140 S0 ; turn off bed,M84 ; disable motors,G28 X0 Y0
;   createX3G,0
;   celebration,0
;   celebrationSong,Random Song
;   createMB5G,0
;   postProcessing,
;   defaultSpeed,3600
;   outlineUnderspeed,0.5
;   solidInfillUnderspeed,0.8
;   supportUnderspeed,0.8
;   rapidXYspeed,4800
;   rapidZspeed,1000
;   minBridgingArea,50
;   bridgingExtraInflation,0
;   bridgingExtrusionMultiplier,1
;   bridgingSpeedMultiplier,1
;   filamentDiameter,1.75
;   filamentPricePerKg,46
;   filamentDensity,1.25
;   useMinPrintHeight,0
;   minPrintHeight,0
;   useMaxPrintHeight,0
;   maxPrintHeight,0
;   useDiaphragm,0
;   diaphragmLayerInterval,20
;   robustSlicing,1
;   mergeAllIntoSolid,0
;   onlyRetractWhenCrossingOutline,1
;   retractBetweenLayers,1
;   useRetractionMinTravel,0
;   retractionMinTravel,3
;   retractWhileWiping,0
;   onlyWipeOutlines,1
;   avoidCrossingOutline,0
;   maxMovementDetourFactor,3
;   toolChangeRetractionDistance,12
;   toolChangeExtraRestartDistance,-0.5
;   toolChangeRetractionSpeed,600
;   allowThinWallGapFill,1
;   thinWallAllowedOverlapPercentage,10
;   horizontalSizeCompensation,0
G90
M82
M106 S0
M140 S75
M190 S75
M104 S210 T0
M109 S210 T0
G28 ; home all axes
G92 E0
G1 E-5.0000 F6000
G1 Z0.270 F1000
; layer 1, Z = 0.27
T0
; tool H0.300 W0.400
; skirt
G1 X74.440 Y80.470 F4800
G1 E0.0000 F1800
G92 E0
G1 X76.038 Y78.961 E0.0987 F1800
G1 X76.059 Y78.944 E0.0999
G1 X76.792 Y78.368 E0.1418
G1 X76.814 Y78.352 E0.1430
G1 X78.658 Y77.156 E0.2417
G1 X78.681 Y77.142 E0.2429
G1 X79.506 Y76.707 E0.2847
G1 X79.531 Y76.696 E0.2860
G1 X81.559 Y75.851 E0.3846
G1 X81.585 Y75.841 E0.3858
G1 X82.474 Y75.562 E0.4277
G1 X82.501 Y75.555 E0.4289
G1 X84.648 Y75.089 E0.5276
G1 X84.675 Y75.085 E0.5288
G1 X85.600 Y74.970 E0.5707
G1 X85.627 Y74.968 E0.5719
G1 X87.824 Y74.896 E0.6706
G1 X87.851 Y74.897 E0.6718
G1 X88.782 Y74.950 E0.7137
G1 X88.809 Y74.953 E0.7149
G1 X90.982 Y75.278 E0.8136
G1 X91.009 Y75.283 E0.8148
G1 X91.915 Y75.504 E0.8567
G1 X91.941 Y75.511 E0.8579
G1 X94.021 Y76.222 E0.9565
G1 X94.046 Y76.232 E0.9578
G1 X94.897 Y76.612 E0.9996
G1 X94.922 Y76.624 E1.0009
G1 X96.839 Y77.697 E1.0995
G1 X96.862 Y77.711 E1.1007
G1 X97.130 Y77.894 E1.1153
G1 X118.961 Y77.894 E2.0956
G1 X119.182 Y77.985 E2.1063
G1 X125.209 Y84.012 E2.4890
G1 X125.300 Y84.233 E2.4997
G1 X125.300 Y103.756 E3.3763
G1 X125.209 Y103.976 E3.3870
G1 X119.182 Y110.003 E3.7697
G1 X118.961 Y110.094 E3.7804
G1 X117.300 Y110.094 E3.8550
G1 X117.300 Y113.756 E4.0194
G1 X117.209 Y113.976 E4.0301
G1 X111.182 Y120.003 E4.4128
G1 X110.961 Y120.094 E4.4236
G1 X76.039 Y120.094 E5.9916
G1 X75.818 Y120.003 E6.0024
G1 X69.791 Y113.976 E6.3850
G1 X69.700 Y113.756 E6.3958
G1 X69.700 Y92.261 E7.3609
G1 X69.700 Y92.248 E7.3615
G1 X69.721 Y91.782 E7.3824
G1 X69.722 Y91.769 E7.3830
G1 X69.900 Y89.812 E7.4712
G1 X69.903 Y89.785 E7.4724
G1 X70.071 Y88.868 E7.5143
G1 X70.077 Y88.842 E7.5155
G1 X70.667 Y86.725 E7.6142
G1 X70.675 Y86.699 E7.6154
G1 X71.005 Y85.827 E7.6573
G1 X71.016 Y85.802 E7.6585
G1 X71.976 Y83.825 E7.7572
G1 X71.989 Y83.801 E7.7584
G1 X72.471 Y83.003 E7.8003
G1 X72.486 Y82.980 E7.8015
G1 X73.787 Y81.209 E7.9002
G1 X73.804 Y81.188 E7.9014
G1 X74.421 Y80.489 E7.9433
G1 X74.440 Y80.470 E7.9445
G1 X74.721 Y80.754 F4800
G92 E0
G1 X76.306 Y79.259 E0.0979 F1800
G1 X76.313 Y79.253 E0.0983
G1 X77.032 Y78.688 E0.1393
G1 X77.040 Y78.682 E0.1397
G1 X78.868 Y77.496 E0.2376
G1 X78.876 Y77.492 E0.2380
G1 X79.685 Y77.065 E0.2791
G1 X79.693 Y77.061 E0.2795
G1 X81.705 Y76.223 E0.3773
G1 X81.713 Y76.220 E0.3777
G1 X82.586 Y75.947 E0.4188
G1 X82.594 Y75.944 E0.4192
G1 X84.724 Y75.482 E0.5170
G1 X84.733 Y75.481 E0.5175
G1 X85.641 Y75.368 E0.5585
G1 X85.650 Y75.368 E0.5589
G1 X87.828 Y75.296 E0.6568
G1 X87.837 Y75.296 E0.6572
G1 X88.750 Y75.349 E0.6982
G1 X88.759 Y75.350 E0.6986
G1 X90.914 Y75.672 E0.7965
G1 X90.923 Y75.674 E0.7969
G1 X91.812 Y75.890 E0.8380
G1 X91.820 Y75.893 E0.8384
G1 X93.883 Y76.597 E0.9362
G1 X93.891 Y76.601 E0.9366
G1 X94.726 Y76.973 E0.9777
G1 X94.734 Y76.977 E0.9781
G1 X96.636 Y78.041 E1.0760
G1 X96.644 Y78.046 E1.0764
G1 X97.006 Y78.294 E1.0961
G1 X118.882 Y78.294 E2.0783
G1 X118.955 Y78.325 E2.0819
G1 X124.870 Y84.239 E2.4574
G1 X124.900 Y84.312 E2.4610
G1 X124.900 Y103.676 E3.3305
G1 X124.870 Y103.750 E3.3341
G1 X118.955 Y109.664 E3.7096
G1 X118.882 Y109.694 E3.7132
G1 X116.900 Y109.694 E3.8022
G1 X116.900 Y113.676 E3.9810
G1 X116.870 Y113.750 E3.9845
G1 X110.955 Y119.664 E4.3601
G1 X110.882 Y119.694 E4.3636
G1 X76.118 Y119.694 E5.9246
G1 X76.045 Y119.664 E5.9282
G1 X70.130 Y113.750 E6.3037
G1 X70.100 Y113.676 E6.3073
G1 X70.100 Y92.266 E7.2686
G1 X70.100 Y92.261 E7.2688
G1 X70.121 Y91.805 E7.2893
G1 X70.121 Y91.800 E7.2896
G1 X70.297 Y89.858 E7.3771
G1 X70.299 Y89.849 E7.3775
G1 X70.463 Y88.949 E7.4186
G1 X70.465 Y88.940 E7.4190
G1 X71.049 Y86.841 E7.5169
G1 X71.052 Y86.832 E7.5173
G1 X71.376 Y85.977 E7.5583
G1 X71.380 Y85.968 E7.5587
G1 X72.332 Y84.008 E7.6566
G1 X72.337 Y84.000 E7.6570
G1 X72.809 Y83.217 E7.6981
G1 X72.814 Y83.210 E7.6985
G1 X74.104 Y81.453 E7.7963
G1 X74.110 Y81.446 E7.7967
G1 X74.715 Y80.761 E7.8378
G1 X74.721 Y80.754 E7.8382
G92 E0
G1 E-5.0000 F6000
; inner perimeter
G1 X82.506 Y88.257 F4800
G1 E0.0000 F6000
G92 E0
G1 X83.347 Y87.464 E0.0519 F1350
G1 X84.317 Y86.835 E0.1038
G1 X85.384 Y86.390 E0.1557
G1 X86.514 Y86.145 E0.2076
G1 X87.669 Y86.107 E0.2595
G1 X88.813 Y86.278 E0.3115
G1 X89.907 Y86.652 E0.3634
G1 X90.916 Y87.216 E0.4153
G1 X91.807 Y87.953 E0.4672
G1 X92.765 Y89.094 E0.5341
G1 X114.100 Y89.094 E1.4921
G1 X114.100 Y90.894 E1.5729
G1 X92.643 Y90.894 E2.5363
G1 X92.317 Y90.859 E2.5510
G1 X92.035 Y90.766 E2.5644
G1 X91.787 Y90.621 E2.5773
G1 X91.565 Y90.419 E2.5908
G1 X90.703 Y89.245 E2.6562
G1 X89.797 Y88.507 E2.7086
G1 X88.740 Y88.015 E2.7610
G1 X87.593 Y87.799 E2.8134
G1 X86.429 Y87.871 E2.8657
G1 X85.319 Y88.227 E2.9181
G1 X84.330 Y88.846 E2.9705
G1 X83.524 Y89.688 E3.0229
G1 X82.949 Y90.704 E3.0752
G1 X82.643 Y91.829 E3.1276
G1 X82.622 Y92.995 E3.1800
G1 X82.889 Y94.131 E3.2323
G1 X83.427 Y95.165 E3.2847
G1 X84.203 Y96.036 E3.3371
G1 X85.170 Y96.689 E3.3895
G1 X86.295 Y97.094 E3.4432
G1 X114.100 Y97.094 E4.6916
G1 X114.100 Y98.894 E4.7725
G1 X106.100 Y98.894 E5.1317
G1 X106.100 Y108.894 E5.5807
G1 X80.900 Y108.894 E6.7122
G1 X80.900 Y92.521 E7.4473
G1 X81.007 Y91.343 E7.5005
G1 X81.317 Y90.229 E7.5524
G1 X81.822 Y89.189 E7.6043
G1 X82.506 Y88.257 E7.6562
; outer perimeter
G1 X82.205 Y87.991 F4800
G92 E0
G1 X83.099 Y87.148 E0.0552 F900
G1 X84.130 Y86.479 E0.1103
G1 X85.264 Y86.007 E0.1655
G1 X86.465 Y85.746 E0.2207
G1 X87.693 Y85.706 E0.2758
G1 X88.908 Y85.888 E0.3310
G1 X90.071 Y86.285 E0.3862
G1 X91.143 Y86.885 E0.4413
G1 X92.089 Y87.668 E0.4965
G1 X92.951 Y88.694 E0.5567
G1 X114.500 Y88.694 E1.5242
G1 X114.500 Y91.294 E1.6410
G1 X92.622 Y91.294 E2.6233
G1 X92.232 Y91.253 E2.6409
G1 X91.870 Y91.133 E2.6581
G1 X91.549 Y90.946 E2.6747
G1 X91.266 Y90.688 E2.6919
G1 X90.410 Y89.523 E2.7569
G1 X89.583 Y88.849 E2.8048
G1 X88.616 Y88.399 E2.8526
G1 X87.568 Y88.201 E2.9005
G1 X86.504 Y88.267 E2.9484
G1 X85.488 Y88.593 E2.9963
G1 X84.584 Y89.158 E3.0442
G1 X83.847 Y89.929 E3.0921
G1 X83.322 Y90.857 E3.1400
G1 X83.042 Y91.886 E3.1878
G1 X83.023 Y92.952 E3.2357
G1 X83.267 Y93.990 E3.2836
G1 X83.759 Y94.937 E3.3315
G1 X84.469 Y95.733 E3.3794
G1 X85.352 Y96.330 E3.4273
G1 X86.365 Y96.694 E3.4756
G1 X114.500 Y96.694 E4.7389
G1 X114.500 Y99.294 E4.8556
G1 X106.500 Y99.294 E5.2148
G1 X106.500 Y109.294 E5.6638
G1 X80.500 Y109.294 E6.8313
G1 X80.500 Y92.503 E7.5852
G1 X80.612 Y91.271 E7.6408
G1 X80.941 Y90.087 E7.6959
G1 X81.478 Y88.982 E7.7511
G1 X82.205 Y87.991 E7.8063
; inner perimeter
G1 X82.500 Y98.694 F4800
G92 E0
G1 X82.500 Y107.094 E0.3772 F1350
G1 X104.300 Y107.094 E1.3560
G1 X104.300 Y98.694 E1.7332
G1 X82.500 Y98.694 E2.7120
; outer perimeter
G1 X82.900 Y99.094 F4800
G92 E0
G1 X82.900 Y106.694 E0.3412 F900
G1 X103.900 Y106.694 E1.2842
G1 X103.900 Y99.094 E1.6254
G1 X82.900 Y99.094 E2.5683
; solid layer
G1 X82.504 Y98.354 F4800
G92 E0
G1 X84.328 Y96.530 E0.1158 F1440
G1 X84.665 Y96.758 E0.1341
G1 X83.069 Y98.354 E0.2354
G1 X83.635 Y98.354 E0.2608
G1 X85.003 Y96.986 E0.3477
G1 X85.015 Y96.994 E0.3483
G1 X85.416 Y97.139 E0.3675
G1 X84.201 Y98.354 E0.4447
G1 X84.766 Y98.354 E0.4701
G1 X85.832 Y97.289 E0.5377
G1 X86.236 Y97.434 E0.5570
G1 X86.252 Y97.434 E0.5577
G1 X85.332 Y98.354 E0.6161
G1 X85.898 Y98.354 E0.6415
G1 X86.818 Y97.434 E0.7000
G1 X87.384 Y97.434 E0.7254
G1 X86.464 Y98.354 E0.7838
G1 X87.029 Y98.354 E0.8092
G1 X87.949 Y97.434 E0.8676
G1 X88.515 Y97.434 E0.8930
G1 X87.595 Y98.354 E0.9514
G1 X88.161 Y98.354 E0.9768
G1 X89.081 Y97.434 E1.0352
G1 X89.646 Y97.434 E1.0606
G1 X88.726 Y98.354 E1.1191
G1 X89.292 Y98.354 E1.1445
G1 X90.212 Y97.434 E1.2029
G1 X90.778 Y97.434 E1.2283
G1 X89.858 Y98.354 E1.2867
G1 X90.423 Y98.354 E1.3121
G1 X91.343 Y97.434 E1.3705
G1 X91.909 Y97.434 E1.3959
G1 X90.989 Y98.354 E1.4543
G1 X91.555 Y98.354 E1.4797
G1 X92.475 Y97.434 E1.5381
G1 X93.040 Y97.434 E1.5635
G1 X92.120 Y98.354 E1.6220
G1 X92.686 Y98.354 E1.6474
G1 X93.606 Y97.434 E1.7058
G1 X94.172 Y97.434 E1.7312
G1 X93.252 Y98.354 E1.7896
G1 X93.817 Y98.354 E1.8150
G1 X94.737 Y97.434 E1.8734
G1 X95.303 Y97.434 E1.8988
G1 X94.383 Y98.354 E1.9572
G1 X94.949 Y98.354 E1.9826
G1 X95.869 Y97.434 E2.0411
G1 X96.434 Y97.434 E2.0665
G1 X95.515 Y98.354 E2.1249
G1 X96.080 Y98.354 E2.1503
G1 X97.000 Y97.434 E2.2087
G1 X97.566 Y97.434 E2.2341
G1 X96.646 Y98.354 E2.2925
G1 X97.212 Y98.354 E2.3179
G1 X98.132 Y97.434 E2.3763
G1 X98.697 Y97.434 E2.4017
G1 X97.777 Y98.354 E2.4602
G1 X98.343 Y98.354 E2.4856
G1 X99.263 Y97.434 E2.5440
G1 X99.829 Y97.434 E2.5694
G1 X98.909 Y98.354 E2.6278
G1 X99.474 Y98.354 E2.6532
G1 X100.394 Y97.434 E2.7116
G1 X100.960 Y97.434 E2.7370
G1 X100.040 Y98.354 E2.7954
G1 X100.606 Y98.354 E2.8208
G1 X101.526 Y97.434 E2.8793
G1 X102.091 Y97.434 E2.9047
G1 X101.171 Y98.354 E2.9631
G1 X101.737 Y98.354 E2.9885
G1 X102.657 Y97.434 E3.0469
G1 X103.223 Y97.434 E3.0723
G1 X102.303 Y98.354 E3.1307
G1 X102.868 Y98.354 E3.1561
G1 X103.788 Y97.434 E3.2145
G1 X104.354 Y97.434 E3.2399
G1 X103.434 Y98.354 E3.2983
G1 X104.000 Y98.354 E3.3237
G1 X104.920 Y97.434 E3.3822
G1 X105.485 Y97.434 E3.4076
G1 X104.565 Y98.354 E3.4660
G1 X104.640 Y98.354 E3.4693
G1 X104.640 Y98.845 E3.4914
G1 X106.051 Y97.434 E3.5810
G1 X106.617 Y97.434 E3.6064
G1 X104.640 Y99.411 E3.7319
G1 X104.640 Y99.977 E3.7573
G1 X105.760 Y98.857 E3.8284
G1 X105.760 Y99.422 E3.8538
G1 X104.640 Y100.542 E3.9250
G1 X104.640 Y101.108 E3.9504
G1 X105.760 Y99.988 E4.0215
G1 X105.760 Y100.554 E4.0469
G1 X104.640 Y101.674 E4.1180
G1 X104.640 Y102.239 E4.1434
G1 X105.760 Y101.119 E4.2145
G1 X105.760 Y101.685 E4.2399
G1 X104.640 Y102.805 E4.3110
G1 X104.640 Y103.371 E4.3364
G1 X105.760 Y102.251 E4.4076
G1 X105.760 Y102.816 E4.4330
G1 X104.640 Y103.936 E4.5041
G1 X104.640 Y104.502 E4.5295
G1 X105.760 Y103.382 E4.6006
G1 X105.760 Y103.948 E4.6260
G1 X104.640 Y105.068 E4.6971
G1 X104.640 Y105.634 E4.7225
G1 X105.760 Y104.514 E4.7936
G1 X105.760 Y105.079 E4.8190
G1 X104.640 Y106.199 E4.8902
G1 X104.640 Y106.765 E4.9156
G1 X105.760 Y105.645 E4.9867
G1 X105.760 Y106.211 E5.0121
G1 X104.640 Y107.331 E5.0832
G1 X105.679 Y108.554 F4800
G92 E0
G1 X105.760 Y108.473 E0.0051 F1440
G1 X105.760 Y107.908 E0.0305
G1 X105.113 Y108.554 E0.0716
G1 X104.548 Y108.554 E0.0970
G1 X105.760 Y107.342 E0.1740
G1 X105.760 Y106.776 E0.1994
G1 X103.982 Y108.554 E0.3123
G1 X103.416 Y108.554 E0.3377
G1 X104.536 Y107.434 E0.4088
G1 X103.971 Y107.434 E0.4342
G1 X102.851 Y108.554 E0.5053
G1 X102.285 Y108.554 E0.5307
G1 X103.405 Y107.434 E0.6018
G1 X102.839 Y107.434 E0.6272
G1 X101.719 Y108.554 E0.6983
G1 X101.154 Y108.554 E0.7237
G1 X102.274 Y107.434 E0.7949
G1 X101.708 Y107.434 E0.8203
G1 X100.588 Y108.554 E0.8914
G1 X100.022 Y108.554 E0.9168
G1 X101.142 Y107.434 E0.9879
G1 X100.577 Y107.434 E1.0133
G1 X99.457 Y108.554 E1.0844
G1 X98.891 Y108.554 E1.1098
G1 X100.011 Y107.434 E1.1809
G1 X99.445 Y107.434 E1.2063
G1 X98.325 Y108.554 E1.2775
G1 X97.760 Y108.554 E1.3029
G1 X98.880 Y107.434 E1.3740
G1 X98.314 Y107.434 E1.3994
G1 X97.194 Y108.554 E1.4705
G1 X96.628 Y108.554 E1.4959
