; G-Code generated by Simplify3D(R) Version 3.0.2
; 1ÔÂ 22, 2016 at 12:42:15 ÉÏÎç
; Settings Summary
;   processName,Process3
;   applyToModels,2
;   profileName,me
;   profileVersion,2015-09-08 10:04:24
;   baseProfile,Default
;   printMaterial,PLA
;   printQuality,Medium
;   printExtruders,
;   extruderName,Extruder 1
;   extruderToolheadNumber,0
;   extruderDiameter,0.4
;   extruderAutoWidth,0
;   extruderWidth,0.4
;   extrusionMultiplier,0.9
;   extruderUseRetract,1
;   extruderRetractionDistance,5
;   extruderExtraRestartDistance,0
;   extruderRetractionZLift,0
;   extruderRetractionSpeed,6000
;   extruderUseCoasting,0
;   extruderCoastingDistance,0.2
;   extruderUseWipe,0
;   extruderWipeDistance,5
;   primaryExtruder,0
;   layerHeight,0.3
;   topSolidLayers,3
;   bottomSolidLayers,3
;   perimeterOutlines,2
;   printPerimetersInsideOut,1
;   startPointOption,2
;   startPointOriginX,0
;   startPointOriginY,0
;   startPointOriginZ,300
;   sequentialIslands,0
;   spiralVaseMode,0
;   firstLayerHeightPercentage,90
;   firstLayerWidthPercentage,100
;   firstLayerUnderspeed,0.5
;   useRaft,0
;   raftExtruder,0
;   raftLayers,3
;   raftOffset,3
;   raftSeparationDistance,0.14
;   raftInfill,85
;   disableRaftBaseLayers,0
;   useSkirt,1
;   skirtExtruder,0
;   skirtLayers,1
;   skirtOutlines,2
;   skirtOffset,10
;   usePrimePillar,0
;   primePillarExtruder,999
;   primePillarWidth,12
;   primePillarLocation,7
;   primePillarSpeedMultiplier,1
;   useOozeShield,0
;   oozeShieldExtruder,999
;   oozeShieldOffset,2
;   oozeShieldOutlines,1
;   oozeShieldSidewallShape,1
;   oozeShieldSidewallAngle,30
;   oozeShieldSpeedMultiplier,1
;   infillExtruder,0
;   internalInfillPattern,Rectilinear
;   externalInfillPattern,Rectilinear
;   infillPercentage,60
;   outlineOverlapPercentage,15
;   infillExtrusionWidthPercentage,100
;   minInfillLength,5
;   infillLayerInterval,1
;   infillAngles,45,-45
;   overlapInfillAngles,0
;   generateSupport,1
;   supportExtruder,0
;   supportInfillPercentage,20
;   supportExtraInflation,0
;   denseSupportLayers,0
;   denseSupportInfillPercentage,70
;   supportLayerInterval,1
;   supportHorizontalPartOffset,0.3
;   supportUpperSeparationLayers,1
;   supportLowerSeparationLayers,1
;   supportType,0
;   supportGridSpacing,4
;   maxOverhangAngle,45
;   supportAngles,0
;   temperatureName,Extruder 1 Temperature,Bed
;   temperatureNumber,0,0
;   temperatureSetpointCount,1,1
;   temperatureSetpointLayers,1,1
;   temperatureSetpointTemperatures,210,75
;   temperatureStabilizeAtStartup,1,1
;   temperatureHeatedBed,0,1
;   temperatureRelayBetweenLayers,0,0
;   temperatureRelayBetweenLoops,0,0
;   fanLayers,1,2
;   fanSpeeds,0,100
;   blipFanToFullPower,0
;   adjustSpeedForCooling,1
;   minSpeedLayerTime,15
;   minCoolingSpeedSlowdown,20
;   increaseFanForCooling,0
;   minFanLayerTime,45
;   maxCoolingFanSpeed,100
;   increaseFanForBridging,0
;   bridgingFanSpeed,100
;   use5D,1
;   relativeEdistances,0
;   allowEaxisZeroing,1
;   independentExtruderAxes,0
;   includeM10123,0
;   stickySupport,1
;   applyToolheadOffsets,0
;   gcodeXoffset,0
;   gcodeYoffset,0
;   gcodeZoffset,0
;   overrideMachineDefinition,1
;   machineTypeOverride,0
;   strokeXoverride,195
;   strokeYoverride,195
;   strokeZoverride,195
;   originOffsetXoverride,0
;   originOffsetYoverride,0
;   originOffsetZoverride,0
;   homeXdirOverride,-1
;   homeYdirOverride,-1
;   homeZdirOverride,-1
;   flipXoverride,1
;   flipYoverride,-1
;   flipZoverride,1
;   toolheadOffsets,0,0|0,0|0,0|0,0|0,0|0,0
;   overrideFirmwareConfiguration,1
;   firmwareTypeOverride,RepRap (Marlin/Repetier/Sprinter)
;   GPXconfigOverride,r2
;   baudRateOverride,115200
;   overridePrinterModels,0
;   printerModelsOverride
;   startingGcode,G28 ; home all axes
;   layerChangeGcode,
;   retractionGcode,
;   toolChangeGcode,
;   endingGcode,M104 S0 ; turn off extruder,M140 S0 ; turn off bed,M84 ; disable motors,G28 X0 Y0
;   createX3G,0
;   celebration,0
;   celebrationSong,Random Song
;   createMB5G,0
;   postProcessing,
;   defaultSpeed,3600
;   outlineUnderspeed,0.5
;   solidInfillUnderspeed,0.8
;   supportUnderspeed,0.8
;   rapidXYspeed,4800
;   rapidZspeed,1000
;   minBridgingArea,50
;   bridgingExtraInflation,0
;   bridgingExtrusionMultiplier,1
;   bridgingSpeedMultiplier,1
;   filamentDiameter,1.75
;   filamentPricePerKg,46
;   filamentDensity,1.25
;   useMinPrintHeight,0
;   minPrintHeight,0
;   useMaxPrintHeight,0
;   maxPrintHeight,0
;   useDiaphragm,0
;   diaphragmLayerInterval,20
;   robustSlicing,1
;   mergeAllIntoSolid,0
;   onlyRetractWhenCrossingOutline,1
;   retractBetweenLayers,1
;   useRetractionMinTravel,0
;   retractionMinTravel,3
;   retractWhileWiping,0
;   onlyWipeOutlines,1
;   avoidCrossingOutline,0
;   maxMovementDetourFactor,3
;   toolChangeRetractionDistance,12
;   toolChangeExtraRestartDistance,-0.5
;   toolChangeRetractionSpeed,600
;   allowThinWallGapFill,1
;   thinWallAllowedOverlapPercentage,10
;   horizontalSizeCompensation,0
G90
M82
M106 S0
M140 S75
M190 S75
M104 S210 T0
M109 S210 T0
G28 ; home all axes
G92 E0
G1 E-5.0000 F6000
G1 Z0.270 F1000
; layer 1, Z = 0.27
T0
; tool H0.300 W0.400
; skirt
G1 X69.518 Y69.491 F4800
G1 E0.0000 F1800
G92 E0
G1 X69.739 Y69.400 E0.0107 F1800
G1 X86.139 Y69.401 E0.7471
G1 X86.146 Y69.401 E0.7474
G1 X86.398 Y69.407 E0.7588
G1 X86.406 Y69.407 E0.7591
G1 X87.655 Y69.469 E0.8152
G1 X87.669 Y69.470 E0.8159
G1 X88.173 Y69.519 E0.8386
G1 X88.187 Y69.521 E0.8393
G1 X89.561 Y69.725 E0.9016
G1 X89.576 Y69.727 E0.9023
G1 X90.072 Y69.826 E0.9250
G1 X90.086 Y69.829 E0.9257
G1 X91.433 Y70.167 E0.9880
G1 X91.448 Y70.171 E0.9887
G1 X91.932 Y70.317 E1.0114
G1 X91.946 Y70.322 E1.0121
G1 X93.253 Y70.790 E1.0744
G1 X93.267 Y70.795 E1.0751
G1 X93.734 Y70.989 E1.0978
G1 X93.748 Y70.995 E1.0984
G1 X95.003 Y71.589 E1.1608
G1 X95.005 Y71.589 E1.1609
G1 X95.120 Y71.525 E1.1668
G1 X95.134 Y71.518 E1.1675
G1 X95.603 Y71.288 E1.1909
G1 X95.616 Y71.282 E1.1916
G1 X96.934 Y70.716 E1.2560
G1 X96.948 Y70.711 E1.2567
G1 X97.438 Y70.529 E1.2801
G1 X97.452 Y70.525 E1.2808
G1 X98.820 Y70.095 E1.3452
G1 X98.835 Y70.091 E1.3459
G1 X99.340 Y69.960 E1.3693
G1 X99.355 Y69.957 E1.3700
G1 X100.759 Y69.668 E1.4344
G1 X100.774 Y69.666 E1.4351
G1 X101.290 Y69.587 E1.4585
G1 X101.305 Y69.585 E1.4592
G1 X102.731 Y69.440 E1.5235
G1 X102.747 Y69.438 E1.5242
G1 X103.268 Y69.412 E1.5477
G1 X103.283 Y69.412 E1.5483
G1 X104.717 Y69.412 E1.6127
G1 X104.732 Y69.412 E1.6134
G1 X105.253 Y69.438 E1.6368
G1 X105.269 Y69.440 E1.6375
G1 X106.695 Y69.585 E1.7019
G1 X106.710 Y69.587 E1.7026
G1 X107.226 Y69.666 E1.7260
G1 X107.241 Y69.668 E1.7267
G1 X108.645 Y69.957 E1.7911
G1 X108.660 Y69.960 E1.7918
G1 X109.165 Y70.091 E1.8152
G1 X109.180 Y70.095 E1.8159
G1 X110.548 Y70.525 E1.8803
G1 X110.562 Y70.529 E1.8809
G1 X111.052 Y70.711 E1.9044
G1 X111.066 Y70.716 E1.9051
G1 X112.384 Y71.282 E1.9694
G1 X112.397 Y71.288 E1.9701
G1 X112.866 Y71.518 E1.9936
G1 X112.879 Y71.525 E1.9942
G1 X114.133 Y72.221 E2.0586
G1 X114.146 Y72.228 E2.0593
G1 X114.589 Y72.505 E2.0827
G1 X114.602 Y72.513 E2.0834
G1 X115.779 Y73.332 E2.1478
G1 X115.791 Y73.341 E2.1485
G1 X116.204 Y73.661 E2.1719
G1 X116.215 Y73.670 E2.1726
G1 X117.303 Y74.604 E2.2370
G1 X117.315 Y74.614 E2.2377
G1 X117.693 Y74.974 E2.2611
G1 X117.704 Y74.985 E2.2618
G1 X118.691 Y76.024 E2.3262
G1 X118.702 Y76.035 E2.3268
G1 X119.042 Y76.431 E2.3503
G1 X119.051 Y76.443 E2.3510
G1 X119.929 Y77.577 E2.4153
G1 X119.938 Y77.589 E2.4160
G1 X120.236 Y78.017 E2.4395
G1 X120.244 Y78.030 E2.4401
G1 X121.003 Y79.247 E2.5045
G1 X121.010 Y79.260 E2.5052
G1 X121.264 Y79.716 E2.5286
G1 X121.271 Y79.730 E2.5293
G1 X121.902 Y81.017 E2.5937
G1 X121.909 Y81.031 E2.5944
G1 X122.115 Y81.510 E2.6178
G1 X122.120 Y81.525 E2.6185
G1 X122.618 Y82.869 E2.6829
G1 X122.623 Y82.883 E2.6836
G1 X122.779 Y83.382 E2.7070
G1 X122.783 Y83.396 E2.7077
G1 X123.143 Y84.784 E2.7721
G1 X123.146 Y84.799 E2.7727
G1 X123.251 Y85.310 E2.7962
G1 X123.254 Y85.325 E2.7969
G1 X123.471 Y86.742 E2.8612
G1 X123.473 Y86.758 E2.8619
G1 X123.526 Y87.277 E2.8854
G1 X123.527 Y87.292 E2.8860
G1 X123.593 Y88.593 E2.9446
G1 X123.593 Y88.601 E2.9449
G1 X123.600 Y88.862 E2.9566
G1 X123.600 Y88.870 E2.9570
G1 X123.600 Y97.400 E3.3400
G1 X132.261 Y97.400 E3.7289
G1 X132.482 Y97.491 E3.7396
G1 X138.509 Y103.518 E4.1223
G1 X138.600 Y103.739 E4.1330
G1 X138.600 Y119.261 E4.8300
G1 X138.509 Y119.482 E4.8407
G1 X132.482 Y125.509 E5.2234
G1 X132.261 Y125.600 E5.2341
G1 X62.739 Y125.600 E8.3558
G1 X62.518 Y125.509 E8.3665
G1 X56.491 Y119.482 E8.7492
G1 X56.400 Y119.261 E8.7599
G1 X56.400 Y103.739 E9.4569
G1 X56.491 Y103.518 E9.4677
G1 X62.518 Y97.491 E9.8503
G1 X62.739 Y97.400 E9.8611
G1 X63.400 Y97.400 E9.8908
G1 X63.400 Y75.738 E10.8634
G1 X63.491 Y75.518 E10.8741
G1 X69.518 Y69.491 E11.2568
G1 X69.745 Y69.830 F4800
G92 E0
G1 X69.818 Y69.800 E0.0036 F1800
G1 X86.136 Y69.801 E0.7363
G1 X86.139 Y69.801 E0.7364
G1 X86.386 Y69.807 E0.7475
G1 X86.389 Y69.807 E0.7476
G1 X87.630 Y69.868 E0.8034
G1 X87.635 Y69.868 E0.8036
G1 X88.129 Y69.917 E0.8259
G1 X88.133 Y69.917 E0.8261
G1 X89.498 Y70.120 E0.8880
G1 X89.503 Y70.121 E0.8883
G1 X89.989 Y70.217 E0.9105
G1 X89.994 Y70.218 E0.9108
G1 X91.332 Y70.553 E0.9727
G1 X91.336 Y70.555 E0.9729
G1 X91.811 Y70.699 E0.9952
G1 X91.815 Y70.700 E0.9954
G1 X93.114 Y71.165 E1.0573
G1 X93.118 Y71.167 E1.0575
G1 X93.577 Y71.356 E1.0798
G1 X93.581 Y71.358 E1.0800
G1 X94.828 Y71.948 E1.1419
G1 X94.832 Y71.950 E1.1422
G1 X95.009 Y72.045 E1.1511
G1 X95.310 Y71.877 E1.1666
G1 X95.315 Y71.875 E1.1669
G1 X95.774 Y71.649 E1.1898
G1 X95.779 Y71.647 E1.1901
G1 X97.087 Y71.086 E1.2540
G1 X97.092 Y71.084 E1.2542
G1 X97.572 Y70.906 E1.2772
G1 X97.576 Y70.905 E1.2774
G1 X98.935 Y70.478 E1.3413
G1 X98.940 Y70.477 E1.3416
G1 X99.435 Y70.349 E1.3646
G1 X99.440 Y70.348 E1.3648
G1 X100.835 Y70.061 E1.4287
G1 X100.840 Y70.060 E1.4289
G1 X101.346 Y69.983 E1.4519
G1 X101.351 Y69.982 E1.4521
G1 X102.767 Y69.838 E1.5161
G1 X102.772 Y69.838 E1.5163
G1 X103.283 Y69.812 E1.5393
G1 X103.288 Y69.812 E1.5395
G1 X104.712 Y69.812 E1.6034
G1 X104.717 Y69.812 E1.6036
G1 X105.228 Y69.838 E1.6266
G1 X105.233 Y69.838 E1.6269
G1 X106.649 Y69.982 E1.6908
G1 X106.654 Y69.983 E1.6910
G1 X107.160 Y70.060 E1.7140
G1 X107.165 Y70.061 E1.7142
G1 X108.560 Y70.348 E1.7781
G1 X108.565 Y70.349 E1.7784
G1 X109.060 Y70.477 E1.8014
G1 X109.065 Y70.478 E1.8016
G1 X110.423 Y70.905 E1.8655
G1 X110.428 Y70.906 E1.8657
G1 X110.908 Y71.084 E1.8887
G1 X110.913 Y71.086 E1.8889
G1 X112.221 Y71.647 E1.9529
G1 X112.226 Y71.649 E1.9531
G1 X112.685 Y71.875 E1.9761
G1 X112.690 Y71.877 E1.9763
G1 X113.934 Y72.568 E2.0402
G1 X113.939 Y72.571 E2.0404
G1 X114.373 Y72.841 E2.0634
G1 X114.378 Y72.844 E2.0637
G1 X115.546 Y73.657 E2.1276
G1 X115.550 Y73.660 E2.1278
G1 X115.955 Y73.974 E2.1508
G1 X115.959 Y73.977 E2.1510
G1 X117.039 Y74.904 E2.2149
G1 X117.043 Y74.908 E2.2152
G1 X117.414 Y75.260 E2.2381
G1 X117.417 Y75.264 E2.2384
G1 X118.398 Y76.296 E2.3023
G1 X118.401 Y76.299 E2.3025
G1 X118.735 Y76.688 E2.3255
G1 X118.738 Y76.692 E2.3257
G1 X119.609 Y77.817 E2.3897
G1 X119.612 Y77.822 E2.3899
G1 X119.905 Y78.242 E2.4129
G1 X119.908 Y78.246 E2.4131
G1 X120.661 Y79.454 E2.4770
G1 X120.663 Y79.458 E2.4772
G1 X120.912 Y79.906 E2.5002
G1 X120.914 Y79.910 E2.5004
G1 X121.541 Y81.188 E2.5644
G1 X121.543 Y81.193 E2.5646
G1 X121.745 Y81.664 E2.5876
G1 X121.747 Y81.668 E2.5878
G1 X122.241 Y83.003 E2.6517
G1 X122.243 Y83.008 E2.6520
G1 X122.396 Y83.496 E2.6749
G1 X122.397 Y83.501 E2.6752
G1 X122.754 Y84.879 E2.7391
G1 X122.755 Y84.884 E2.7393
G1 X122.859 Y85.386 E2.7623
G1 X122.859 Y85.391 E2.7625
G1 X123.075 Y86.798 E2.8265
G1 X123.076 Y86.803 E2.8267
G1 X123.127 Y87.312 E2.8497
G1 X123.128 Y87.317 E2.8499
G1 X123.193 Y88.611 E2.9081
G1 X123.193 Y88.614 E2.9082
G1 X123.200 Y88.870 E2.9197
G1 X123.200 Y88.872 E2.9198
G1 X123.200 Y97.800 E3.3207
G1 X132.182 Y97.800 E3.7240
G1 X132.255 Y97.830 E3.7275
G1 X138.170 Y103.745 E4.1031
G1 X138.200 Y103.818 E4.1066
G1 X138.200 Y119.182 E4.7965
G1 X138.170 Y119.255 E4.8001
G1 X132.255 Y125.170 E5.1756
G1 X132.182 Y125.200 E5.1792
G1 X62.818 Y125.200 E8.2937
G1 X62.745 Y125.170 E8.2973
G1 X56.830 Y119.255 E8.6728
G1 X56.800 Y119.182 E8.6764
G1 X56.800 Y103.818 E9.3663
G1 X56.830 Y103.745 E9.3698
G1 X62.745 Y97.830 E9.7454
G1 X62.818 Y97.800 E9.7489
G1 X63.800 Y97.800 E9.7930
G1 X63.800 Y75.818 E10.7801
G1 X63.830 Y75.744 E10.7836
G1 X69.745 Y69.830 E11.1592
G92 E0
G1 E-5.0000 F6000
; inner perimeter
G1 X74.600 Y80.600 F4800
G1 E0.0000 F6000
G92 E0
G1 X85.997 Y80.601 E0.5118 F1350
G1 X86.823 Y80.641 E0.5489
G1 X87.639 Y80.762 E0.5859
G1 X88.438 Y80.962 E0.6229
G1 X89.214 Y81.240 E0.6599
G1 X89.959 Y81.593 E0.6969
G1 X90.666 Y82.016 E0.7339
G1 X91.328 Y82.507 E0.7709
G1 X91.939 Y83.061 E0.8080
G1 X92.493 Y83.672 E0.8450
G1 X92.984 Y84.334 E0.8820
G1 X93.408 Y85.041 E0.9190
G1 X93.760 Y85.786 E0.9560
G1 X94.038 Y86.562 E0.9930
G1 X94.238 Y87.361 E1.0300
G1 X94.359 Y88.177 E1.0670
G1 X94.429 Y89.600 E1.1310
G1 X95.570 Y89.600 E1.1823
G1 X95.644 Y88.150 E1.2474
G1 X95.773 Y87.309 E1.2857
G1 X95.986 Y86.486 E1.3239
G1 X96.281 Y85.688 E1.3621
G1 X96.656 Y84.924 E1.4003
G1 X97.106 Y84.202 E1.4385
G1 X97.627 Y83.529 E1.4767
G1 X98.213 Y82.912 E1.5149
G1 X98.859 Y82.358 E1.5531
G1 X99.557 Y81.872 E1.5913
G1 X100.301 Y81.459 E1.6295
G1 X101.083 Y81.124 E1.6677
G1 X101.895 Y80.869 E1.7059
G1 X102.728 Y80.698 E1.7441
G1 X103.575 Y80.612 E1.7823
G1 X104.425 Y80.612 E1.8205
G1 X105.272 Y80.698 E1.8587
G1 X106.105 Y80.869 E1.8969
G1 X106.917 Y81.124 E1.9351
G1 X107.699 Y81.459 E1.9733
G1 X108.443 Y81.872 E2.0115
G1 X109.141 Y82.358 E2.0497
G1 X109.787 Y82.912 E2.0879
G1 X110.373 Y83.529 E2.1261
G1 X110.894 Y84.202 E2.1643
G1 X111.344 Y84.924 E2.2025
G1 X111.719 Y85.688 E2.2407
G1 X112.014 Y86.486 E2.2789
G1 X112.227 Y87.309 E2.3171
G1 X112.356 Y88.150 E2.3553
G1 X112.400 Y89.015 E2.3942
G1 X112.400 Y108.600 E3.2736
G1 X127.400 Y108.600 E3.9471
G1 X127.400 Y114.400 E4.2076
G1 X67.600 Y114.400 E6.8926
G1 X67.600 Y108.600 E7.1531
G1 X74.600 Y108.600 E7.4674
G1 X74.600 Y90.600 E8.2756
G1 X81.484 Y90.600 E8.5847
G1 X81.551 Y90.805 E8.5944
G1 X81.858 Y91.429 E8.6257
G1 X82.253 Y92.003 E8.6569
G1 X82.726 Y92.513 E8.6881
G1 X83.269 Y92.949 E8.7194
G1 X83.868 Y93.302 E8.7506
G1 X84.513 Y93.565 E8.7819
G1 X85.188 Y93.732 E8.8131
G1 X85.881 Y93.800 E8.8444
G1 X86.576 Y93.767 E8.8756
G1 X87.259 Y93.634 E8.9069
G1 X87.915 Y93.403 E8.9381
G1 X88.532 Y93.080 E8.9694
G1 X89.095 Y92.671 E9.0006
G1 X89.593 Y92.185 E9.0319
G1 X90.016 Y91.632 E9.0631
G1 X90.354 Y91.024 E9.0944
G1 X90.601 Y90.374 E9.1256
G1 X90.751 Y89.694 E9.1569
G1 X90.802 Y89.000 E9.1881
G1 X90.751 Y88.306 E9.2193
G1 X90.601 Y87.626 E9.2506
G1 X90.354 Y86.976 E9.2818
G1 X90.016 Y86.368 E9.3131
G1 X89.593 Y85.815 E9.3443
G1 X89.095 Y85.329 E9.3756
G1 X88.532 Y84.920 E9.4068
G1 X87.915 Y84.597 E9.4381
G1 X87.259 Y84.366 E9.4693
G1 X86.576 Y84.233 E9.5006
G1 X85.881 Y84.200 E9.5318
G1 X85.188 Y84.268 E9.5631
G1 X84.513 Y84.435 E9.5943
G1 X83.868 Y84.698 E9.6256
G1 X83.269 Y85.051 E9.6568
G1 X82.726 Y85.487 E9.6881
G1 X82.253 Y85.997 E9.7193
G1 X81.858 Y86.571 E9.7505
G1 X81.551 Y87.195 E9.7818
G1 X81.484 Y87.400 E9.7915
G1 X74.600 Y87.400 E10.1006
G1 X74.600 Y80.600 E10.4059
; outer perimeter
G1 X74.200 Y80.200 F4800
G92 E0
G1 X86.007 Y80.201 E0.5301 F900
G1 X86.862 Y80.243 E0.5686
G1 X87.717 Y80.369 E0.6074
G1 X88.554 Y80.579 E0.6462
G1 X89.368 Y80.870 E0.6849
G1 X90.148 Y81.239 E0.7237
G1 X90.889 Y81.683 E0.7625
G1 X91.582 Y82.198 E0.8013
G1 X92.222 Y82.778 E0.8400
G1 X92.802 Y83.417 E0.8788
G1 X93.317 Y84.111 E0.9176
G1 X93.761 Y84.852 E0.9564
G1 X94.130 Y85.632 E0.9951
G1 X94.421 Y86.446 E1.0339
G1 X94.631 Y87.283 E1.0727
G1 X94.757 Y88.137 E1.1115
G1 X94.810 Y89.200 E1.1592
G1 X95.190 Y89.200 E1.1763
G1 X95.245 Y88.110 E1.2253
G1 X95.380 Y87.229 E1.2654
G1 X95.604 Y86.366 E1.3054
G1 X95.913 Y85.530 E1.3454
G1 X96.306 Y84.729 E1.3854
G1 X96.778 Y83.973 E1.4255
G1 X97.323 Y83.268 E1.4655
G1 X97.937 Y82.622 E1.5055
G1 X98.614 Y82.041 E1.5455
