; G-Code generated by Simplify3D(R) Version 3.0.2
; 1ÔÂ 23, 2016 at 12:42:04 ÉÏÎç
; Settings Summary
;   processName,Process3
;   applyToModels,20
;   profileName,me
;   profileVersion,2015-09-08 10:04:24
;   baseProfile,Default
;   printMaterial,PLA
;   printQuality,Medium
;   printExtruders,
;   extruderName,Extruder 1
;   extruderToolheadNumber,0
;   extruderDiameter,0.4
;   extruderAutoWidth,0
;   extruderWidth,0.4
;   extrusionMultiplier,0.9
;   extruderUseRetract,1
;   extruderRetractionDistance,5
;   extruderExtraRestartDistance,0
;   extruderRetractionZLift,0
;   extruderRetractionSpeed,6000
;   extruderUseCoasting,0
;   extruderCoastingDistance,0.2
;   extruderUseWipe,0
;   extruderWipeDistance,5
;   primaryExtruder,0
;   layerHeight,0.3
;   topSolidLayers,3
;   bottomSolidLayers,3
;   perimeterOutlines,2
;   printPerimetersInsideOut,1
;   startPointOption,2
;   startPointOriginX,0
;   startPointOriginY,0
;   startPointOriginZ,300
;   sequentialIslands,0
;   spiralVaseMode,0
;   firstLayerHeightPercentage,90
;   firstLayerWidthPercentage,100
;   firstLayerUnderspeed,0.5
;   useRaft,0
;   raftExtruder,0
;   raftLayers,3
;   raftOffset,3
;   raftSeparationDistance,0.14
;   raftInfill,85
;   disableRaftBaseLayers,0
;   useSkirt,1
;   skirtExtruder,0
;   skirtLayers,1
;   skirtOutlines,2
;   skirtOffset,10
;   usePrimePillar,0
;   primePillarExtruder,999
;   primePillarWidth,12
;   primePillarLocation,7
;   primePillarSpeedMultiplier,1
;   useOozeShield,0
;   oozeShieldExtruder,999
;   oozeShieldOffset,2
;   oozeShieldOutlines,1
;   oozeShieldSidewallShape,1
;   oozeShieldSidewallAngle,30
;   oozeShieldSpeedMultiplier,1
;   infillExtruder,0
;   internalInfillPattern,Rectilinear
;   externalInfillPattern,Rectilinear
;   infillPercentage,60
;   outlineOverlapPercentage,15
;   infillExtrusionWidthPercentage,100
;   minInfillLength,5
;   infillLayerInterval,1
;   infillAngles,45,-45
;   overlapInfillAngles,0
;   generateSupport,1
;   supportExtruder,0
;   supportInfillPercentage,20
;   supportExtraInflation,0
;   denseSupportLayers,0
;   denseSupportInfillPercentage,70
;   supportLayerInterval,1
;   supportHorizontalPartOffset,0.3
;   supportUpperSeparationLayers,1
;   supportLowerSeparationLayers,1
;   supportType,0
;   supportGridSpacing,4
;   maxOverhangAngle,45
;   supportAngles,0
;   temperatureName,Extruder 1 Temperature,Bed
;   temperatureNumber,0,0
;   temperatureSetpointCount,1,1
;   temperatureSetpointLayers,1,1
;   temperatureSetpointTemperatures,210,75
;   temperatureStabilizeAtStartup,1,1
;   temperatureHeatedBed,0,1
;   temperatureRelayBetweenLayers,0,0
;   temperatureRelayBetweenLoops,0,0
;   fanLayers,1,2
;   fanSpeeds,0,100
;   blipFanToFullPower,0
;   adjustSpeedForCooling,1
;   minSpeedLayerTime,15
;   minCoolingSpeedSlowdown,20
;   increaseFanForCooling,0
;   minFanLayerTime,45
;   maxCoolingFanSpeed,100
;   increaseFanForBridging,0
;   bridgingFanSpeed,100
;   use5D,1
;   relativeEdistances,0
;   allowEaxisZeroing,1
;   independentExtruderAxes,0
;   includeM10123,0
;   stickySupport,1
;   applyToolheadOffsets,0
;   gcodeXoffset,0
;   gcodeYoffset,0
;   gcodeZoffset,0
;   overrideMachineDefinition,1
;   machineTypeOverride,0
;   strokeXoverride,195
;   strokeYoverride,195
;   strokeZoverride,195
;   originOffsetXoverride,0
;   originOffsetYoverride,0
;   originOffsetZoverride,0
;   homeXdirOverride,-1
;   homeYdirOverride,-1
;   homeZdirOverride,-1
;   flipXoverride,1
;   flipYoverride,-1
;   flipZoverride,1
;   toolheadOffsets,0,0|0,0|0,0|0,0|0,0|0,0
;   overrideFirmwareConfiguration,1
;   firmwareTypeOverride,RepRap (Marlin/Repetier/Sprinter)
;   GPXconfigOverride,r2
;   baudRateOverride,115200
;   overridePrinterModels,0
;   printerModelsOverride
;   startingGcode,G28 ; home all axes
;   layerChangeGcode,
;   retractionGcode,
;   toolChangeGcode,
;   endingGcode,M104 S0 ; turn off extruder,M140 S0 ; turn off bed,M84 ; disable motors,G28 X0 Y0
;   createX3G,0
;   celebration,0
;   celebrationSong,Random Song
;   createMB5G,0
;   postProcessing,
;   defaultSpeed,3600
;   outlineUnderspeed,0.5
;   solidInfillUnderspeed,0.8
;   supportUnderspeed,0.8
;   rapidXYspeed,4800
;   rapidZspeed,1000
;   minBridgingArea,50
;   bridgingExtraInflation,0
;   bridgingExtrusionMultiplier,1
;   bridgingSpeedMultiplier,1
;   filamentDiameter,1.75
;   filamentPricePerKg,46
;   filamentDensity,1.25
;   useMinPrintHeight,0
;   minPrintHeight,0
;   useMaxPrintHeight,0
;   maxPrintHeight,0
;   useDiaphragm,0
;   diaphragmLayerInterval,20
;   robustSlicing,1
;   mergeAllIntoSolid,0
;   onlyRetractWhenCrossingOutline,1
;   retractBetweenLayers,1
;   useRetractionMinTravel,0
;   retractionMinTravel,3
;   retractWhileWiping,0
;   onlyWipeOutlines,1
;   avoidCrossingOutline,0
;   maxMovementDetourFactor,3
;   toolChangeRetractionDistance,12
;   toolChangeExtraRestartDistance,-0.5
;   toolChangeRetractionSpeed,600
;   allowThinWallGapFill,1
;   thinWallAllowedOverlapPercentage,10
;   horizontalSizeCompensation,0
G90
M82
M106 S0
M140 S75
M190 S75
M104 S210 T0
M109 S210 T0
G28 ; home all axes
G92 E0
G1 E-5.0000 F6000
G1 Z0.270 F1000
; layer 1, Z = 0.27
T0
; tool H0.300 W0.400
; skirt
G1 X60.858 Y74.579 F4800
G1 E0.0000 F1800
G92 E0
G1 X62.339 Y73.447 E0.0837 F1800
G1 X62.370 Y73.426 E0.0854
G1 X63.512 Y72.765 E0.1446
G1 X63.546 Y72.748 E0.1464
G1 X65.279 Y72.022 E0.2307
G1 X65.318 Y72.008 E0.2325
G1 X66.663 Y71.648 E0.2951
G1 X66.703 Y71.640 E0.2969
G1 X68.236 Y71.445 E0.3663
G1 X68.255 Y71.443 E0.3672
G1 X68.907 Y71.402 E0.3965
G1 X68.926 Y71.401 E0.3973
G1 X94.408 Y71.401 E1.5415
G1 X94.417 Y71.401 E1.5419
G1 X94.730 Y71.411 E1.5560
G1 X94.739 Y71.411 E1.5564
G1 X96.361 Y71.510 E1.6293
G1 X96.379 Y71.511 E1.6302
G1 X97.004 Y71.588 E1.6584
G1 X97.022 Y71.590 E1.6592
G1 X98.776 Y71.915 E1.7393
G1 X98.794 Y71.919 E1.7402
G1 X99.404 Y72.070 E1.7684
G1 X99.421 Y72.075 E1.7692
G1 X101.119 Y72.609 E1.8491
G1 X101.136 Y72.615 E1.8499
G1 X101.718 Y72.838 E1.8779
G1 X101.735 Y72.845 E1.8787
G1 X103.356 Y73.580 E1.9587
G1 X103.373 Y73.588 E1.9595
G1 X103.923 Y73.879 E1.9874
G1 X103.939 Y73.888 E1.9883
G1 X105.459 Y74.814 E2.0682
G1 X105.475 Y74.823 E2.0690
G1 X105.990 Y75.182 E2.0972
G1 X106.005 Y75.193 E2.0980
G1 X107.404 Y76.298 E2.1780
G1 X107.418 Y76.310 E2.1789
G1 X107.890 Y76.732 E2.2073
G1 X107.903 Y76.745 E2.2082
G1 X109.161 Y78.018 E2.2885
G1 X109.173 Y78.032 E2.2893
G1 X109.586 Y78.504 E2.3175
G1 X109.598 Y78.518 E2.3183
G1 X110.679 Y79.920 E2.3978
G1 X110.690 Y79.934 E2.3986
G1 X111.032 Y80.436 E2.4259
G1 X111.041 Y80.451 E2.4267
G1 X111.955 Y81.977 E2.5066
G1 X111.964 Y81.994 E2.5074
G1 X112.258 Y82.561 E2.5361
G1 X112.266 Y82.577 E2.5369
G1 X112.987 Y84.213 E2.6171
G1 X112.994 Y84.230 E2.6180
G1 X113.212 Y84.818 E2.6461
G1 X113.218 Y84.835 E2.6470
G1 X113.691 Y86.399 E2.7203
G1 X150.011 Y86.399 E4.3512
G1 X150.232 Y86.490 E4.3619
G1 X156.259 Y92.517 E4.7446
G1 X156.350 Y92.738 E4.7553
G1 X156.350 Y117.260 E5.8564
G1 X156.259 Y117.481 E5.8671
G1 X150.232 Y123.508 E6.2498
G1 X150.011 Y123.599 E6.2605
G1 X57.990 Y123.599 E10.3924
G1 X57.770 Y123.508 E10.4031
G1 X51.743 Y117.481 E10.7858
G1 X51.652 Y117.260 E10.7965
G1 X51.652 Y111.099 E11.0732
G1 X44.989 Y111.099 E11.3724
G1 X44.768 Y111.008 E11.3831
G1 X38.741 Y104.981 E11.7658
G1 X38.650 Y104.760 E11.7765
G1 X38.650 Y92.738 E12.3163
G1 X38.741 Y92.517 E12.3270
G1 X44.768 Y86.490 E12.7097
G1 X44.989 Y86.399 E12.7205
G1 X56.653 Y86.399 E13.2442
G1 X56.653 Y83.654 E13.3675
G1 X56.654 Y83.634 E13.3683
G1 X56.698 Y82.961 E13.3986
G1 X56.700 Y82.942 E13.3995
G1 X56.899 Y81.431 E13.4679
G1 X56.906 Y81.393 E13.4697
G1 X57.254 Y80.093 E13.5301
G1 X57.267 Y80.056 E13.5318
G1 X57.982 Y78.325 E13.6159
G1 X57.999 Y78.290 E13.6177
G1 X58.675 Y77.118 E13.6785
G1 X58.697 Y77.085 E13.6802
G1 X59.839 Y75.596 E13.7645
G1 X59.865 Y75.566 E13.7663
G1 X60.828 Y74.605 E13.8273
G1 X60.858 Y74.579 E13.8291
G1 X61.111 Y74.889 F4800
G92 E0
G1 X62.571 Y73.773 E0.0825 F1800
G1 X62.582 Y73.766 E0.0831
G1 X63.701 Y73.117 E0.1412
G1 X63.713 Y73.112 E0.1417
G1 X65.421 Y72.396 E0.2249
G1 X65.434 Y72.391 E0.2255
G1 X66.754 Y72.038 E0.2869
G1 X66.767 Y72.035 E0.2875
G1 X68.280 Y71.842 E0.3560
G1 X68.287 Y71.842 E0.3563
G1 X68.926 Y71.801 E0.3850
G1 X68.932 Y71.801 E0.3853
G1 X94.405 Y71.801 E1.5291
G1 X94.408 Y71.801 E1.5292
G1 X94.715 Y71.810 E1.5430
G1 X94.718 Y71.810 E1.5431
G1 X96.331 Y71.909 E1.6157
G1 X96.337 Y71.909 E1.6159
G1 X96.949 Y71.984 E1.6436
G1 X96.955 Y71.985 E1.6439
G1 X98.697 Y72.307 E1.7235
G1 X98.703 Y72.308 E1.7237
G1 X99.301 Y72.457 E1.7514
G1 X99.307 Y72.459 E1.7517
G1 X100.993 Y72.989 E1.8310
G1 X100.998 Y72.991 E1.8313
G1 X101.570 Y73.209 E1.8587
G1 X101.575 Y73.212 E1.8590
G1 X103.186 Y73.942 E1.9384
G1 X103.191 Y73.945 E1.9387
G1 X103.731 Y74.230 E1.9661
G1 X103.736 Y74.233 E1.9664
G1 X105.246 Y75.152 E2.0458
G1 X105.251 Y75.155 E2.0460
G1 X105.757 Y75.507 E2.0737
G1 X105.762 Y75.510 E2.0739
G1 X107.151 Y76.608 E2.1534
G1 X107.156 Y76.612 E2.1537
G1 X107.619 Y77.026 E2.1816
G1 X107.623 Y77.031 E2.1819
G1 X108.872 Y78.295 E2.2617
G1 X108.876 Y78.299 E2.2620
G1 X109.281 Y78.763 E2.2896
G1 X109.285 Y78.768 E2.2899
G1 X110.359 Y80.159 E2.3688
G1 X110.363 Y80.164 E2.3691
G1 X110.698 Y80.656 E2.3958
G1 X110.701 Y80.661 E2.3961
G1 X111.609 Y82.177 E2.4754
G1 X111.612 Y82.183 E2.4757
G1 X111.900 Y82.739 E2.5038
G1 X111.902 Y82.744 E2.5041
G1 X112.619 Y84.369 E2.5838
G1 X112.621 Y84.374 E2.5841
G1 X112.835 Y84.951 E2.6117
G1 X112.837 Y84.957 E2.6120
G1 X113.348 Y86.649 E2.6914
G1 X113.350 Y86.655 E2.6916
G1 X113.384 Y86.799 E2.6983
G1 X149.932 Y86.799 E4.3393
G1 X150.005 Y86.829 E4.3429
G1 X155.920 Y92.744 E4.7184
G1 X155.950 Y92.817 E4.7220
G1 X155.950 Y117.181 E5.8160
G1 X155.920 Y117.254 E5.8195
G1 X150.005 Y123.169 E6.1951
G1 X149.932 Y123.199 E6.1987
G1 X58.070 Y123.199 E10.3234
G1 X57.997 Y123.169 E10.3269
G1 X52.082 Y117.254 E10.7025
G1 X52.052 Y117.181 E10.7061
G1 X52.052 Y110.699 E10.9971
G1 X45.068 Y110.699 E11.3107
G1 X44.995 Y110.669 E11.3143
G1 X39.080 Y104.754 E11.6898
G1 X39.050 Y104.681 E11.6934
G1 X39.050 Y92.817 E12.2261
G1 X39.080 Y92.744 E12.2297
G1 X44.995 Y86.829 E12.6052
G1 X45.068 Y86.799 E12.6088
G1 X57.053 Y86.799 E13.1469
G1 X57.053 Y83.661 E13.2878
G1 X57.053 Y83.654 E13.2881
G1 X57.096 Y82.994 E13.3178
G1 X57.097 Y82.987 E13.3181
G1 X57.294 Y81.496 E13.3856
G1 X57.296 Y81.484 E13.3862
G1 X57.637 Y80.209 E13.4454
G1 X57.641 Y80.197 E13.4460
G1 X58.347 Y78.490 E13.5290
G1 X58.352 Y78.478 E13.5295
G1 X59.015 Y77.329 E13.5891
G1 X59.023 Y77.318 E13.5897
G1 X60.148 Y75.850 E13.6728
G1 X60.157 Y75.840 E13.6734
G1 X61.101 Y74.897 E13.7333
G1 X61.111 Y74.889 E13.7339
G92 E0
G1 E-5.0000 F6000
; inner perimeter
G1 X68.264 Y83.015 F4800
G1 E0.0000 F6000
G92 E0
G1 X68.555 Y82.793 E0.0165 F1350
G1 X68.891 Y82.652 E0.0328
G1 X69.290 Y82.601 E0.0509
G1 X94.234 Y82.601 E1.1709
G1 X95.331 Y82.668 E1.2203
G1 X96.395 Y82.864 E1.2688
G1 X97.426 Y83.189 E1.3173
G1 X98.413 Y83.637 E1.3660
G1 X99.337 Y84.199 E1.4146
G1 X100.184 Y84.867 E1.4630
G1 X100.946 Y85.639 E1.5117
G1 X101.606 Y86.494 E1.5602
G1 X102.162 Y87.424 E1.6089
G1 X102.599 Y88.413 E1.6574
G1 X102.911 Y89.447 E1.7059
G1 X103.077 Y90.399 E1.7493
G1 X101.264 Y90.399 E1.8307
G1 X101.050 Y89.448 E1.8745
G1 X100.667 Y88.459 E1.9221
G1 X100.139 Y87.533 E1.9700
G1 X99.481 Y86.698 E2.0177
G1 X98.704 Y85.971 E2.0655
G1 X97.830 Y85.365 E2.1133
G1 X96.875 Y84.902 E2.1609
G1 X95.858 Y84.581 E2.2088
G1 X94.805 Y84.423 E2.2566
G1 X93.741 Y84.421 E2.3044
G1 X92.691 Y84.574 E2.3520
G1 X91.672 Y84.882 E2.3998
G1 X90.714 Y85.341 E2.4475
G1 X89.834 Y85.940 E2.4953
G1 X89.052 Y86.663 E2.5432
G1 X88.390 Y87.491 E2.5908
G1 X87.854 Y88.413 E2.6387
G1 X87.467 Y89.401 E2.6863
G1 X87.227 Y90.439 E2.7341
G1 X87.150 Y91.499 E2.7818
G1 X87.227 Y92.561 E2.8296
G1 X87.467 Y93.597 E2.8774
G1 X87.854 Y94.589 E2.9252
G1 X88.389 Y95.507 E2.9729
G1 X89.051 Y96.338 E3.0206
G1 X89.834 Y97.063 E3.0685
G1 X90.715 Y97.657 E3.1162
G1 X91.670 Y98.115 E3.1638
G1 X92.689 Y98.430 E3.2117
G1 X93.741 Y98.585 E3.2594
G1 X94.808 Y98.581 E3.3073
G1 X95.858 Y98.417 E3.3550
G1 X96.874 Y98.102 E3.4028
G1 X97.830 Y97.634 E3.4506
G1 X98.703 Y97.034 E3.4982
G1 X99.481 Y96.306 E3.5460
G1 X100.139 Y95.469 E3.5938
G1 X100.667 Y94.548 E3.6415
G1 X101.050 Y93.558 E3.6892
G1 X101.265 Y92.599 E3.7333
G1 X103.150 Y92.600 E3.8179
G1 X103.150 Y97.599 E4.0424
G1 X145.150 Y97.599 E5.9282
G1 X145.150 Y112.399 E6.5928
G1 X62.852 Y112.399 E10.2880
G1 X62.852 Y99.899 E10.8493
G1 X49.850 Y99.899 E11.4331
G1 X49.850 Y97.599 E11.5364
G1 X67.852 Y97.599 E12.3447
G1 X67.853 Y84.031 E12.9539
G1 X67.905 Y83.639 E12.9716
G1 X68.044 Y83.301 E12.9881
G1 X68.264 Y83.015 E13.0043
; outer perimeter
G1 X67.979 Y82.730 F4800
G92 E0
G1 X68.353 Y82.444 E0.0212 F900
G1 X68.786 Y82.262 E0.0423
G1 X69.265 Y82.201 E0.0639
G1 X94.246 Y82.201 E1.1856
G1 X95.380 Y82.270 E1.2366
G1 X96.492 Y82.475 E1.2874
G1 X97.569 Y82.814 E1.3381
G1 X98.601 Y83.282 E1.3890
G1 X99.566 Y83.870 E1.4397
G1 X100.451 Y84.569 E1.4903
G1 X101.248 Y85.375 E1.5412
G1 X101.937 Y86.269 E1.5919
G1 X102.518 Y87.240 E1.6427
G1 X102.974 Y88.274 E1.6935
G1 X103.301 Y89.354 E1.7442
G1 X103.494 Y90.460 E1.7945
G1 X103.492 Y90.539 E1.7981
G1 X103.473 Y90.610 E1.8014
G1 X103.439 Y90.674 E1.8047
G1 X103.395 Y90.723 E1.8076
G1 X103.336 Y90.764 E1.8108
G1 X103.270 Y90.790 E1.8140
G1 X103.186 Y90.799 E1.8178
G1 X101.190 Y90.799 E1.9074
G1 X101.109 Y90.791 E1.9111
G1 X101.038 Y90.762 E1.9145
G1 X100.982 Y90.726 E1.9175
G1 X100.937 Y90.674 E1.9206
G1 X100.902 Y90.615 E1.9237
G1 X100.666 Y89.565 E1.9720
G1 X100.305 Y88.631 E2.0170
G1 X99.806 Y87.757 E2.0622
G1 X99.186 Y86.969 E2.1072
G1 X98.452 Y86.283 E2.1523
G1 X97.627 Y85.712 E2.1973
G1 X96.726 Y85.275 E2.2423
G1 X95.767 Y84.972 E2.2875
G1 X94.775 Y84.823 E2.3325
G1 X93.770 Y84.821 E2.3776
G1 X92.778 Y84.965 E2.4226
G1 X91.817 Y85.256 E2.4677
G1 X90.914 Y85.689 E2.5127
G1 X90.083 Y86.254 E2.5578
G1 X89.345 Y86.936 E2.6029
G1 X88.721 Y87.718 E2.6479
G1 X88.215 Y88.588 E2.6930
G1 X87.850 Y89.520 E2.7380
G1 X87.624 Y90.499 E2.7831
G1 X87.551 Y91.499 E2.8281
G1 X87.624 Y92.501 E2.8732
G1 X87.850 Y93.478 E2.9183
G1 X88.215 Y94.414 E2.9634
G1 X88.721 Y95.280 E3.0084
G1 X89.345 Y96.065 E3.0534
G1 X90.083 Y96.748 E3.0986
G1 X90.914 Y97.309 E3.1436
G1 X91.817 Y97.742 E3.1886
G1 X92.778 Y98.039 E3.2337
G1 X93.770 Y98.185 E3.2787
G1 X94.776 Y98.181 E3.3239
G1 X95.767 Y98.026 E3.3690
G1 X96.726 Y97.729 E3.4140
G1 X97.627 Y97.288 E3.4591
G1 X98.452 Y96.721 E3.5040
G1 X99.186 Y96.035 E3.5491
G1 X99.806 Y95.245 E3.5942
G1 X100.305 Y94.375 E3.6393
G1 X100.666 Y93.441 E3.6842
G1 X100.902 Y92.390 E3.7326
G1 X100.937 Y92.328 E3.7358
G1 X100.984 Y92.274 E3.7390
G1 X101.042 Y92.234 E3.7422
G1 X101.110 Y92.210 E3.7454
G1 X101.193 Y92.199 E3.7492
G1 X103.240 Y92.200 E3.8411
G1 X103.326 Y92.215 E3.8450
G1 X103.402 Y92.245 E3.8487
G1 X103.464 Y92.291 E3.8522
G1 X103.510 Y92.351 E3.8555
G1 X103.540 Y92.422 E3.8590
G1 X103.550 Y92.510 E3.8630
G1 X103.550 Y97.199 E4.0735
G1 X145.550 Y97.199 E5.9594
G1 X145.550 Y112.799 E6.6598
G1 X62.452 Y112.799 E10.3910
G1 X62.452 Y100.299 E10.9523
G1 X49.450 Y100.299 E11.5361
G1 X49.450 Y97.199 E11.6753
G1 X67.452 Y97.199 E12.4836
G1 X67.453 Y84.005 E13.0760
G1 X67.515 Y83.535 E13.0973
G1 X67.695 Y83.100 E13.1185
G1 X67.979 Y82.730 E13.1394
; inner perimeter
; outer perimeter
G1 X69.357 Y84.604 F4800
G92 E0
G1 X69.077 Y84.968 E0.0206 F900
G1 X68.903 Y85.390 E0.0411
G1 X68.846 Y85.845 E0.0617
G1 X68.903 Y86.296 E0.0821
G1 X69.077 Y86.720 E0.1027
G1 X69.357 Y87.081 E0.1232
G1 X69.719 Y87.364 E0.1438
G1 X70.143 Y87.536 E0.1644
G1 X70.596 Y87.595 E0.1849
G1 X71.045 Y87.536 E0.2052
G1 X71.469 Y87.364 E0.2258
G1 X71.835 Y87.081 E0.2465
G1 X72.111 Y86.719 E0.2670
G1 X72.285 Y86.297 E0.2875
G1 X72.346 Y85.845 E0.3080
G1 X72.285 Y85.389 E0.3286
G1 X72.111 Y84.969 E0.3490
G1 X71.835 Y84.604 E0.3696
G1 X71.468 Y84.326 E0.3902
G1 X71.046 Y84.152 E0.4107
G1 X70.596 Y84.093 E0.4311
G1 X70.142 Y84.152 E0.4517
G1 X69.719 Y84.326 E0.4722
G1 X69.357 Y84.604 E0.4927
; inner perimeter
