; G-Code generated by Simplify3D(R) Version 3.0.2
; 1ÔÂ 23, 2016 at 12:42:20 ÉÏÎç
; Settings Summary
;   processName,Process3
;   applyToModels,21
;   profileName,me
;   profileVersion,2015-09-08 10:04:24
;   baseProfile,Default
;   printMaterial,PLA
;   printQuality,Medium
;   printExtruders,
;   extruderName,Extruder 1
;   extruderToolheadNumber,0
;   extruderDiameter,0.4
;   extruderAutoWidth,0
;   extruderWidth,0.4
;   extrusionMultiplier,0.9
;   extruderUseRetract,1
;   extruderRetractionDistance,5
;   extruderExtraRestartDistance,0
;   extruderRetractionZLift,0
;   extruderRetractionSpeed,6000
;   extruderUseCoasting,0
;   extruderCoastingDistance,0.2
;   extruderUseWipe,0
;   extruderWipeDistance,5
;   primaryExtruder,0
;   layerHeight,0.3
;   topSolidLayers,3
;   bottomSolidLayers,3
;   perimeterOutlines,2
;   printPerimetersInsideOut,1
;   startPointOption,2
;   startPointOriginX,0
;   startPointOriginY,0
;   startPointOriginZ,300
;   sequentialIslands,0
;   spiralVaseMode,0
;   firstLayerHeightPercentage,90
;   firstLayerWidthPercentage,100
;   firstLayerUnderspeed,0.5
;   useRaft,0
;   raftExtruder,0
;   raftLayers,3
;   raftOffset,3
;   raftSeparationDistance,0.14
;   raftInfill,85
;   disableRaftBaseLayers,0
;   useSkirt,1
;   skirtExtruder,0
;   skirtLayers,1
;   skirtOutlines,2
;   skirtOffset,10
;   usePrimePillar,0
;   primePillarExtruder,999
;   primePillarWidth,12
;   primePillarLocation,7
;   primePillarSpeedMultiplier,1
;   useOozeShield,0
;   oozeShieldExtruder,999
;   oozeShieldOffset,2
;   oozeShieldOutlines,1
;   oozeShieldSidewallShape,1
;   oozeShieldSidewallAngle,30
;   oozeShieldSpeedMultiplier,1
;   infillExtruder,0
;   internalInfillPattern,Rectilinear
;   externalInfillPattern,Rectilinear
;   infillPercentage,60
;   outlineOverlapPercentage,15
;   infillExtrusionWidthPercentage,100
;   minInfillLength,5
;   infillLayerInterval,1
;   infillAngles,45,-45
;   overlapInfillAngles,0
;   generateSupport,1
;   supportExtruder,0
;   supportInfillPercentage,20
;   supportExtraInflation,0
;   denseSupportLayers,0
;   denseSupportInfillPercentage,70
;   supportLayerInterval,1
;   supportHorizontalPartOffset,0.3
;   supportUpperSeparationLayers,1
;   supportLowerSeparationLayers,1
;   supportType,0
;   supportGridSpacing,4
;   maxOverhangAngle,45
;   supportAngles,0
;   temperatureName,Extruder 1 Temperature,Bed
;   temperatureNumber,0,0
;   temperatureSetpointCount,1,1
;   temperatureSetpointLayers,1,1
;   temperatureSetpointTemperatures,210,75
;   temperatureStabilizeAtStartup,1,1
;   temperatureHeatedBed,0,1
;   temperatureRelayBetweenLayers,0,0
;   temperatureRelayBetweenLoops,0,0
;   fanLayers,1,2
;   fanSpeeds,0,100
;   blipFanToFullPower,0
;   adjustSpeedForCooling,1
;   minSpeedLayerTime,15
;   minCoolingSpeedSlowdown,20
;   increaseFanForCooling,0
;   minFanLayerTime,45
;   maxCoolingFanSpeed,100
;   increaseFanForBridging,0
;   bridgingFanSpeed,100
;   use5D,1
;   relativeEdistances,0
;   allowEaxisZeroing,1
;   independentExtruderAxes,0
;   includeM10123,0
;   stickySupport,1
;   applyToolheadOffsets,0
;   gcodeXoffset,0
;   gcodeYoffset,0
;   gcodeZoffset,0
;   overrideMachineDefinition,1
;   machineTypeOverride,0
;   strokeXoverride,195
;   strokeYoverride,195
;   strokeZoverride,195
;   originOffsetXoverride,0
;   originOffsetYoverride,0
;   originOffsetZoverride,0
;   homeXdirOverride,-1
;   homeYdirOverride,-1
;   homeZdirOverride,-1
;   flipXoverride,1
;   flipYoverride,-1
;   flipZoverride,1
;   toolheadOffsets,0,0|0,0|0,0|0,0|0,0|0,0
;   overrideFirmwareConfiguration,1
;   firmwareTypeOverride,RepRap (Marlin/Repetier/Sprinter)
;   GPXconfigOverride,r2
;   baudRateOverride,115200
;   overridePrinterModels,0
;   printerModelsOverride
;   startingGcode,G28 ; home all axes
;   layerChangeGcode,
;   retractionGcode,
;   toolChangeGcode,
;   endingGcode,M104 S0 ; turn off extruder,M140 S0 ; turn off bed,M84 ; disable motors,G28 X0 Y0
;   createX3G,0
;   celebration,0
;   celebrationSong,Random Song
;   createMB5G,0
;   postProcessing,
;   defaultSpeed,3600
;   outlineUnderspeed,0.5
;   solidInfillUnderspeed,0.8
;   supportUnderspeed,0.8
;   rapidXYspeed,4800
;   rapidZspeed,1000
;   minBridgingArea,50
;   bridgingExtraInflation,0
;   bridgingExtrusionMultiplier,1
;   bridgingSpeedMultiplier,1
;   filamentDiameter,1.75
;   filamentPricePerKg,46
;   filamentDensity,1.25
;   useMinPrintHeight,0
;   minPrintHeight,0
;   useMaxPrintHeight,0
;   maxPrintHeight,0
;   useDiaphragm,0
;   diaphragmLayerInterval,20
;   robustSlicing,1
;   mergeAllIntoSolid,0
;   onlyRetractWhenCrossingOutline,1
;   retractBetweenLayers,1
;   useRetractionMinTravel,0
;   retractionMinTravel,3
;   retractWhileWiping,0
;   onlyWipeOutlines,1
;   avoidCrossingOutline,0
;   maxMovementDetourFactor,3
;   toolChangeRetractionDistance,12
;   toolChangeExtraRestartDistance,-0.5
;   toolChangeRetractionSpeed,600
;   allowThinWallGapFill,1
;   thinWallAllowedOverlapPercentage,10
;   horizontalSizeCompensation,0
G90
M82
M106 S0
M140 S75
M190 S75
M104 S210 T0
M109 S210 T0
G28 ; home all axes
G92 E0
G1 E-5.0000 F6000
G1 Z0.270 F1000
; layer 1, Z = 0.27
T0
; tool H0.300 W0.400
; skirt
G1 X72.330 Y76.995 F4800
G1 E0.0000 F1800
G92 E0
G1 X72.341 Y76.984 E0.0007 F1800
G1 X73.413 Y76.034 E0.0650
G1 X73.424 Y76.025 E0.0656
G1 X73.784 Y75.733 E0.0864
G1 X73.794 Y75.725 E0.0871
G1 X74.933 Y74.885 E0.1506
G1 X74.945 Y74.877 E0.1512
G1 X75.378 Y74.590 E0.1746
G1 X75.391 Y74.582 E0.1753
G1 X76.634 Y73.846 E0.2401
G1 X76.648 Y73.838 E0.2408
G1 X77.107 Y73.597 E0.2641
G1 X77.120 Y73.590 E0.2648
G1 X78.407 Y72.994 E0.3284
G1 X78.419 Y72.988 E0.3291
G1 X78.856 Y72.810 E0.3503
G1 X78.869 Y72.805 E0.3509
G1 X80.209 Y72.328 E0.4147
G1 X80.223 Y72.323 E0.4154
G1 X80.716 Y72.175 E0.4385
G1 X80.731 Y72.171 E0.4392
G1 X82.126 Y71.826 E0.5038
G1 X82.141 Y71.823 E0.5044
G1 X82.645 Y71.724 E0.5275
G1 X82.660 Y71.722 E0.5282
G1 X84.063 Y71.521 E0.5918
G1 X84.077 Y71.519 E0.5924
G1 X84.541 Y71.474 E0.6134
G1 X84.555 Y71.473 E0.6140
G1 X85.833 Y71.406 E0.6714
G1 X85.840 Y71.406 E0.6718
G1 X86.108 Y71.399 E0.6838
G1 X86.115 Y71.399 E0.6841
G1 X111.512 Y71.399 E1.8245
G1 X111.528 Y71.399 E1.8252
G1 X112.053 Y71.426 E1.8488
G1 X112.069 Y71.427 E1.8495
G1 X113.204 Y71.544 E1.9008
G1 X113.232 Y71.548 E1.9020
G1 X114.186 Y71.738 E1.9457
G1 X114.214 Y71.745 E1.9470
G1 X115.564 Y72.149 E2.0103
G1 X115.593 Y72.160 E2.0117
G1 X116.578 Y72.569 E2.0596
G1 X116.606 Y72.583 E2.0609
G1 X117.835 Y73.251 E2.1238
G1 X117.859 Y73.265 E2.1250
G1 X118.644 Y73.790 E2.1674
G1 X118.666 Y73.806 E2.1687
G1 X119.750 Y74.685 E2.2313
G1 X119.773 Y74.706 E2.2327
G1 X120.523 Y75.453 E2.2803
G1 X120.544 Y75.476 E2.2816
G1 X121.449 Y76.585 E2.3459
G1 X121.466 Y76.609 E2.3472
G1 X122.029 Y77.458 E2.3930
G1 X122.044 Y77.484 E2.3943
G1 X122.696 Y78.716 E2.4569
G1 X122.708 Y78.742 E2.4582
G1 X123.086 Y79.658 E2.5027
G1 X123.095 Y79.685 E2.5040
G1 X123.497 Y81.010 E2.5661
G1 X123.504 Y81.037 E2.5674
G1 X123.699 Y82.008 E2.6119
G1 X123.703 Y82.037 E2.6132
G1 X123.821 Y83.181 E2.6648
G1 X123.822 Y83.196 E2.6655
G1 X123.849 Y83.722 E2.6891
G1 X123.849 Y83.738 E2.6898
G1 X123.849 Y87.610 E2.8637
G1 X127.193 Y90.954 E3.0760
G1 X127.258 Y91.052 E3.0813
G1 X128.826 Y94.837 E3.2653
G1 X128.849 Y94.953 E3.2706
G1 X128.849 Y117.262 E4.2723
G1 X128.758 Y117.483 E4.2830
G1 X122.731 Y123.510 E4.6657
G1 X122.510 Y123.601 E4.6764
G1 X72.489 Y123.601 E6.9225
G1 X72.269 Y123.510 E6.9332
G1 X66.242 Y117.483 E7.3159
G1 X66.151 Y117.262 E7.3266
G1 X66.152 Y92.179 E8.4529
G1 X66.152 Y92.161 E8.4537
G1 X66.191 Y91.531 E8.4820
G1 X66.193 Y91.513 E8.4828
G1 X66.222 Y91.274 E8.4936
G1 X66.201 Y91.122 E8.5005
G1 X66.198 Y91.077 E8.5025
G1 X66.218 Y89.542 E8.5715
G1 X66.222 Y89.497 E8.5735
G1 X66.534 Y87.584 E8.6605
G1 X66.536 Y87.570 E8.6612
G1 X66.640 Y87.084 E8.6835
G1 X66.643 Y87.070 E8.6841
G1 X67.007 Y85.691 E8.7482
G1 X67.011 Y85.677 E8.7488
G1 X67.163 Y85.197 E8.7714
G1 X67.168 Y85.183 E8.7721
G1 X67.664 Y83.848 E8.8361
G1 X67.669 Y83.834 E8.8367
G1 X67.863 Y83.380 E8.8589
G1 X67.869 Y83.367 E8.8595
G1 X68.488 Y82.090 E8.9232
G1 X68.495 Y82.078 E8.9239
G1 X68.734 Y81.640 E8.9463
G1 X68.741 Y81.627 E8.9469
G1 X69.486 Y80.407 E9.0111
G1 X69.494 Y80.394 E9.0118
G1 X69.782 Y79.972 E9.0347
G1 X69.791 Y79.960 E9.0354
G1 X70.647 Y78.828 E9.0991
G1 X70.655 Y78.817 E9.0998
G1 X70.964 Y78.447 E9.1214
G1 X70.973 Y78.436 E9.1220
G1 X71.936 Y77.383 E9.1861
G1 X71.947 Y77.372 E9.1868
G1 X72.330 Y76.995 E9.2109
G1 X72.607 Y77.284 F4800
G92 E0
G1 X72.611 Y77.280 E0.0002 F1800
G1 X73.675 Y76.336 E0.0641
G1 X73.679 Y76.333 E0.0643
G1 X74.032 Y76.047 E0.0847
G1 X74.035 Y76.044 E0.0849
G1 X75.166 Y75.210 E0.1480
G1 X75.170 Y75.208 E0.1482
G1 X75.595 Y74.926 E0.1711
G1 X75.599 Y74.923 E0.1714
G1 X76.834 Y74.192 E0.2358
G1 X76.838 Y74.190 E0.2360
G1 X77.289 Y73.953 E0.2588
G1 X77.293 Y73.951 E0.2591
G1 X78.571 Y73.359 E0.3223
G1 X78.575 Y73.357 E0.3225
G1 X79.004 Y73.182 E0.3433
G1 X79.008 Y73.180 E0.3435
G1 X80.338 Y72.706 E0.4069
G1 X80.343 Y72.705 E0.4071
G1 X80.827 Y72.559 E0.4298
G1 X80.831 Y72.558 E0.4300
G1 X82.218 Y72.215 E0.4942
G1 X82.222 Y72.214 E0.4944
G1 X82.717 Y72.118 E0.5170
G1 X82.722 Y72.117 E0.5172
G1 X84.116 Y71.917 E0.5804
G1 X84.120 Y71.917 E0.5806
G1 X84.575 Y71.872 E0.6012
G1 X84.580 Y71.872 E0.6014
G1 X85.851 Y71.806 E0.6585
G1 X85.853 Y71.806 E0.6586
G1 X86.115 Y71.799 E0.6704
G1 X86.118 Y71.799 E0.6705
G1 X111.507 Y71.799 E1.8105
G1 X111.512 Y71.799 E1.8108
G1 X112.028 Y71.825 E1.8339
G1 X112.033 Y71.826 E1.8342
G1 X113.154 Y71.941 E1.8848
G1 X113.163 Y71.942 E1.8852
G1 X114.099 Y72.129 E1.9280
G1 X114.108 Y72.131 E1.9285
G1 X115.440 Y72.530 E1.9909
G1 X115.449 Y72.533 E1.9913
G1 X116.414 Y72.935 E2.0383
G1 X116.424 Y72.939 E2.0387
G1 X117.636 Y73.598 E2.1007
G1 X117.644 Y73.603 E2.1011
G1 X118.414 Y74.118 E2.1427
G1 X118.421 Y74.123 E2.1431
G1 X119.491 Y74.990 E2.2049
G1 X119.498 Y74.996 E2.2054
G1 X120.234 Y75.730 E2.2520
G1 X120.241 Y75.737 E2.2524
G1 X121.132 Y76.830 E2.3158
G1 X121.138 Y76.838 E2.3162
G1 X121.690 Y77.671 E2.3611
G1 X121.695 Y77.679 E2.3615
G1 X122.338 Y78.894 E2.4233
G1 X122.342 Y78.903 E2.4237
G1 X122.712 Y79.802 E2.4673
G1 X122.715 Y79.811 E2.4678
G1 X123.111 Y81.116 E2.5290
G1 X123.113 Y81.126 E2.5294
G1 X123.305 Y82.078 E2.5730
G1 X123.306 Y82.087 E2.5735
G1 X123.422 Y83.217 E2.6245
G1 X123.422 Y83.222 E2.6247
G1 X123.449 Y83.738 E2.6479
G1 X123.449 Y83.743 E2.6481
G1 X123.449 Y87.776 E2.8292
G1 X126.882 Y91.209 E3.0472
G1 X126.904 Y91.242 E3.0490
G1 X128.441 Y94.954 E3.2294
G1 X128.449 Y94.992 E3.2311
G1 X128.449 Y117.183 E4.2275
G1 X128.419 Y117.256 E4.2311
G1 X122.504 Y123.171 E4.6066
G1 X122.431 Y123.201 E4.6102
G1 X72.569 Y123.201 E6.8491
G1 X72.495 Y123.171 E6.8526
G1 X66.581 Y117.256 E7.2282
G1 X66.551 Y117.183 E7.2318
G1 X66.552 Y92.185 E8.3542
G1 X66.552 Y92.179 E8.3545
G1 X66.590 Y91.562 E8.3822
G1 X66.590 Y91.556 E8.3825
G1 X66.625 Y91.271 E8.3954
G1 X66.600 Y91.082 E8.4039
G1 X66.599 Y91.067 E8.4046
G1 X66.618 Y89.562 E8.4722
G1 X66.619 Y89.547 E8.4729
G1 X66.928 Y87.653 E8.5590
G1 X66.929 Y87.648 E8.5593
G1 X67.030 Y87.172 E8.5811
G1 X67.031 Y87.168 E8.5813
G1 X67.392 Y85.798 E8.6450
G1 X67.394 Y85.793 E8.6452
G1 X67.543 Y85.322 E8.6673
G1 X67.544 Y85.318 E8.6676
G1 X68.037 Y83.991 E8.7311
G1 X68.039 Y83.987 E8.7313
G1 X68.229 Y83.542 E8.7530
G1 X68.231 Y83.537 E8.7533
G1 X68.846 Y82.269 E8.8165
G1 X68.848 Y82.265 E8.8167
G1 X69.082 Y81.836 E8.8387
G1 X69.085 Y81.832 E8.8389
G1 X69.825 Y80.619 E8.9027
G1 X69.828 Y80.615 E8.9029
G1 X70.110 Y80.201 E8.9254
G1 X70.113 Y80.197 E8.9256
G1 X70.963 Y79.073 E8.9889
G1 X70.966 Y79.069 E8.9891
G1 X71.268 Y78.706 E9.0104
G1 X71.271 Y78.703 E9.0106
G1 X72.228 Y77.657 E9.0742
G1 X72.231 Y77.653 E9.0744
G1 X72.607 Y77.284 E9.0981
G92 E0
G1 E-5.0000 F6000
; inner perimeter
G1 X79.997 Y85.165 F4800
G1 E0.0000 F6000
G92 E0
G1 X80.651 Y84.585 E0.0392 F1350
G1 X81.347 Y84.071 E0.0781
G1 X82.092 Y83.630 E0.1170
G1 X82.876 Y83.267 E0.1557
G1 X83.696 Y82.975 E0.1948
G1 X84.534 Y82.768 E0.2336
G1 X85.396 Y82.644 E0.2727
G1 X86.265 Y82.599 E0.3118
G1 X111.218 Y82.599 E1.4322
G1 X111.521 Y82.630 E1.4459
G1 X111.781 Y82.708 E1.4581
G1 X112.024 Y82.840 E1.4705
G1 X112.239 Y83.014 E1.4829
G1 X112.410 Y83.224 E1.4951
G1 X112.538 Y83.464 E1.5073
G1 X112.618 Y83.730 E1.5197
G1 X112.649 Y84.032 E1.5334
G1 X112.649 Y92.250 E1.9023
G1 X117.649 Y97.250 E2.2198
G1 X117.649 Y112.401 E2.9002
G1 X77.351 Y112.401 E4.7096
G1 X77.352 Y92.601 E5.5986
G1 X79.235 Y92.602 E5.6832
G1 X79.400 Y93.367 E5.7183
G1 X79.676 Y94.186 E5.7571
G1 X80.052 Y94.969 E5.7961
G1 X80.525 Y95.701 E5.8353
G1 X81.079 Y96.367 E5.8742
G1 X81.711 Y96.963 E5.9132
G1 X82.415 Y97.477 E5.9523
G1 X83.173 Y97.901 E5.9913
G1 X83.974 Y98.226 E6.0301
G1 X84.810 Y98.458 E6.0691
G1 X85.673 Y98.580 E6.1082
G1 X86.542 Y98.598 E6.1473
G1 X87.406 Y98.508 E6.1863
G1 X88.253 Y98.312 E6.2253
G1 X89.069 Y98.019 E6.2642
G1 X89.841 Y97.628 E6.3031
G1 X90.564 Y97.142 E6.3422
G1 X91.220 Y96.572 E6.3812
G1 X91.801 Y95.928 E6.4202
G1 X92.301 Y95.216 E6.4592
G1 X92.710 Y94.453 E6.4981
G1 X93.023 Y93.637 E6.5373
G1 X93.230 Y92.798 E6.5761
G1 X93.337 Y91.934 E6.6152
G1 X93.337 Y91.068 E6.6541
G1 X93.230 Y90.206 E6.6931
G1 X93.023 Y89.361 E6.7322
G1 X92.710 Y88.551 E6.7712
G1 X92.301 Y87.784 E6.8102
G1 X91.801 Y87.074 E6.8492
G1 X91.219 Y86.429 E6.8882
G1 X90.563 Y85.863 E6.9271
G1 X89.841 Y85.379 E6.9661
G1 X89.071 Y84.986 E7.0049
G1 X88.252 Y84.686 E7.0441
G1 X87.403 Y84.498 E7.0832
G1 X86.543 Y84.408 E7.1220
G1 X85.673 Y84.424 E7.1611
G1 X84.812 Y84.548 E7.2001
G1 X83.973 Y84.774 E7.2391
G1 X83.172 Y85.106 E7.2781
G1 X82.416 Y85.526 E7.3169
G1 X81.711 Y86.038 E7.3560
G1 X81.079 Y86.633 E7.3950
G1 X80.525 Y87.299 E7.4339
G1 X80.053 Y88.029 E7.4729
G1 X79.676 Y88.812 E7.5120
G1 X79.400 Y89.634 E7.5509
G1 X79.234 Y90.401 E7.5861
G1 X77.422 Y90.401 E7.6675
G1 X77.543 Y89.659 E7.7012
G1 X77.765 Y88.819 E7.7402
G1 X78.067 Y88.005 E7.7792
G1 X78.444 Y87.227 E7.8180
G1 X78.896 Y86.488 E7.8570
G1 X79.418 Y85.798 E7.8958
G1 X79.997 Y85.165 E7.9343
; outer perimeter
G1 X79.716 Y84.879 F4800
G92 E0
G1 X80.399 Y84.274 E0.0410 F900
G1 X81.126 Y83.737 E0.0816
G1 X81.905 Y83.276 E0.1222
G1 X82.724 Y82.896 E0.1628
G1 X83.581 Y82.591 E0.2036
G1 X84.458 Y82.375 E0.2441
G1 X85.357 Y82.246 E0.2849
G1 X86.254 Y82.199 E0.3253
G1 X111.239 Y82.199 E1.4471
G1 X111.600 Y82.236 E1.4634
G1 X111.936 Y82.337 E1.4791
G1 X112.247 Y82.506 E1.4951
G1 X112.523 Y82.729 E1.5110
G1 X112.745 Y83.002 E1.5268
G1 X112.909 Y83.311 E1.5425
G1 X113.012 Y83.651 E1.5584
G1 X113.049 Y84.011 E1.5747
G1 X113.049 Y92.084 E1.9372
G1 X118.049 Y97.084 E2.2547
G1 X118.049 Y112.801 E2.9604
G1 X76.951 Y112.801 E4.8057
G1 X76.952 Y92.507 E5.7170
G1 X76.962 Y92.423 E5.7208
G1 X76.992 Y92.351 E5.7243
G1 X77.038 Y92.290 E5.7277
G1 X77.102 Y92.242 E5.7313
G1 X77.171 Y92.212 E5.7347
G1 X77.263 Y92.201 E5.7388
G1 X79.321 Y92.202 E5.8312
G1 X79.389 Y92.209 E5.8343
G1 X79.458 Y92.235 E5.8376
G1 X79.518 Y92.274 E5.8409
G1 X79.565 Y92.327 E5.8440
G1 X79.598 Y92.388 E5.8471
G1 X79.786 Y93.260 E5.8872
G1 X80.047 Y94.035 E5.9239
G1 X80.402 Y94.773 E5.9607
G1 X80.848 Y95.464 E5.9976
G1 X81.371 Y96.092 E6.0343
G1 X81.967 Y96.655 E6.0711
G1 X82.631 Y97.140 E6.1080
G1 X83.346 Y97.540 E6.1448
G1 X84.102 Y97.847 E6.1815
G1 X84.892 Y98.065 E6.2183
G1 X85.705 Y98.181 E6.2551
G1 X86.525 Y98.197 E6.2920
G1 X87.340 Y98.113 E6.3288
G1 X88.140 Y97.927 E6.3656
G1 X88.910 Y97.651 E6.4024
G1 X89.638 Y97.282 E6.4390
G1 X90.321 Y96.824 E6.4759
G1 X90.939 Y96.286 E6.5127
G1 X91.488 Y95.678 E6.5495
G1 X91.960 Y95.006 E6.5864
G1 X92.345 Y94.286 E6.6230
G1 X92.640 Y93.517 E6.6600
G1 X92.836 Y92.725 E6.6966
G1 X92.937 Y91.909 E6.7336
G1 X92.937 Y91.093 E6.7702
G1 X92.836 Y90.279 E6.8071
G1 X92.640 Y89.481 E6.8439
G1 X92.345 Y88.718 E6.8807
G1 X91.960 Y87.994 E6.9175
G1 X91.488 Y87.324 E6.9543
G1 X90.939 Y86.716 E6.9911
G1 X90.320 Y86.182 E7.0278
G1 X89.638 Y85.724 E7.0646
G1 X88.911 Y85.353 E7.1013
G1 X88.139 Y85.071 E7.1382
G1 X87.339 Y84.893 E7.1750
