; G-Code generated by Simplify3D(R) Version 3.0.2
; 1ÔÂ 22, 2016 at 12:43:13 ÉÏÎç
; Settings Summary
;   processName,Process3
;   applyToModels,5
;   profileName,me
;   profileVersion,2015-09-08 10:04:24
;   baseProfile,Default
;   printMaterial,PLA
;   printQuality,Medium
;   printExtruders,
;   extruderName,Extruder 1
;   extruderToolheadNumber,0
;   extruderDiameter,0.4
;   extruderAutoWidth,0
;   extruderWidth,0.4
;   extrusionMultiplier,0.9
;   extruderUseRetract,1
;   extruderRetractionDistance,5
;   extruderExtraRestartDistance,0
;   extruderRetractionZLift,0
;   extruderRetractionSpeed,6000
;   extruderUseCoasting,0
;   extruderCoastingDistance,0.2
;   extruderUseWipe,0
;   extruderWipeDistance,5
;   primaryExtruder,0
;   layerHeight,0.3
;   topSolidLayers,3
;   bottomSolidLayers,3
;   perimeterOutlines,2
;   printPerimetersInsideOut,1
;   startPointOption,2
;   startPointOriginX,0
;   startPointOriginY,0
;   startPointOriginZ,300
;   sequentialIslands,0
;   spiralVaseMode,0
;   firstLayerHeightPercentage,90
;   firstLayerWidthPercentage,100
;   firstLayerUnderspeed,0.5
;   useRaft,0
;   raftExtruder,0
;   raftLayers,3
;   raftOffset,3
;   raftSeparationDistance,0.14
;   raftInfill,85
;   disableRaftBaseLayers,0
;   useSkirt,1
;   skirtExtruder,0
;   skirtLayers,1
;   skirtOutlines,2
;   skirtOffset,10
;   usePrimePillar,0
;   primePillarExtruder,999
;   primePillarWidth,12
;   primePillarLocation,7
;   primePillarSpeedMultiplier,1
;   useOozeShield,0
;   oozeShieldExtruder,999
;   oozeShieldOffset,2
;   oozeShieldOutlines,1
;   oozeShieldSidewallShape,1
;   oozeShieldSidewallAngle,30
;   oozeShieldSpeedMultiplier,1
;   infillExtruder,0
;   internalInfillPattern,Rectilinear
;   externalInfillPattern,Rectilinear
;   infillPercentage,60
;   outlineOverlapPercentage,15
;   infillExtrusionWidthPercentage,100
;   minInfillLength,5
;   infillLayerInterval,1
;   infillAngles,45,-45
;   overlapInfillAngles,0
;   generateSupport,1
;   supportExtruder,0
;   supportInfillPercentage,20
;   supportExtraInflation,0
;   denseSupportLayers,0
;   denseSupportInfillPercentage,70
;   supportLayerInterval,1
;   supportHorizontalPartOffset,0.3
;   supportUpperSeparationLayers,1
;   supportLowerSeparationLayers,1
;   supportType,0
;   supportGridSpacing,4
;   maxOverhangAngle,45
;   supportAngles,0
;   temperatureName,Extruder 1 Temperature,Bed
;   temperatureNumber,0,0
;   temperatureSetpointCount,1,1
;   temperatureSetpointLayers,1,1
;   temperatureSetpointTemperatures,210,75
;   temperatureStabilizeAtStartup,1,1
;   temperatureHeatedBed,0,1
;   temperatureRelayBetweenLayers,0,0
;   temperatureRelayBetweenLoops,0,0
;   fanLayers,1,2
;   fanSpeeds,0,100
;   blipFanToFullPower,0
;   adjustSpeedForCooling,1
;   minSpeedLayerTime,15
;   minCoolingSpeedSlowdown,20
;   increaseFanForCooling,0
;   minFanLayerTime,45
;   maxCoolingFanSpeed,100
;   increaseFanForBridging,0
;   bridgingFanSpeed,100
;   use5D,1
;   relativeEdistances,0
;   allowEaxisZeroing,1
;   independentExtruderAxes,0
;   includeM10123,0
;   stickySupport,1
;   applyToolheadOffsets,0
;   gcodeXoffset,0
;   gcodeYoffset,0
;   gcodeZoffset,0
;   overrideMachineDefinition,1
;   machineTypeOverride,0
;   strokeXoverride,195
;   strokeYoverride,195
;   strokeZoverride,195
;   originOffsetXoverride,0
;   originOffsetYoverride,0
;   originOffsetZoverride,0
;   homeXdirOverride,-1
;   homeYdirOverride,-1
;   homeZdirOverride,-1
;   flipXoverride,1
;   flipYoverride,-1
;   flipZoverride,1
;   toolheadOffsets,0,0|0,0|0,0|0,0|0,0|0,0
;   overrideFirmwareConfiguration,1
;   firmwareTypeOverride,RepRap (Marlin/Repetier/Sprinter)
;   GPXconfigOverride,r2
;   baudRateOverride,115200
;   overridePrinterModels,0
;   printerModelsOverride
;   startingGcode,G28 ; home all axes
;   layerChangeGcode,
;   retractionGcode,
;   toolChangeGcode,
;   endingGcode,M104 S0 ; turn off extruder,M140 S0 ; turn off bed,M84 ; disable motors,G28 X0 Y0
;   createX3G,0
;   celebration,0
;   celebrationSong,Random Song
;   createMB5G,0
;   postProcessing,
;   defaultSpeed,3600
;   outlineUnderspeed,0.5
;   solidInfillUnderspeed,0.8
;   supportUnderspeed,0.8
;   rapidXYspeed,4800
;   rapidZspeed,1000
;   minBridgingArea,50
;   bridgingExtraInflation,0
;   bridgingExtrusionMultiplier,1
;   bridgingSpeedMultiplier,1
;   filamentDiameter,1.75
;   filamentPricePerKg,46
;   filamentDensity,1.25
;   useMinPrintHeight,0
;   minPrintHeight,0
;   useMaxPrintHeight,0
;   maxPrintHeight,0
;   useDiaphragm,0
;   diaphragmLayerInterval,20
;   robustSlicing,1
;   mergeAllIntoSolid,0
;   onlyRetractWhenCrossingOutline,1
;   retractBetweenLayers,1
;   useRetractionMinTravel,0
;   retractionMinTravel,3
;   retractWhileWiping,0
;   onlyWipeOutlines,1
;   avoidCrossingOutline,0
;   maxMovementDetourFactor,3
;   toolChangeRetractionDistance,12
;   toolChangeExtraRestartDistance,-0.5
;   toolChangeRetractionSpeed,600
;   allowThinWallGapFill,1
;   thinWallAllowedOverlapPercentage,10
;   horizontalSizeCompensation,0
G90
M82
M106 S0
M140 S75
M190 S75
M104 S210 T0
M109 S210 T0
G28 ; home all axes
G92 E0
G1 E-5.0000 F6000
G1 Z0.270 F1000
; layer 1, Z = 0.27
T0
; tool H0.300 W0.400
; skirt
G1 X78.018 Y76.491 F4800
G1 E0.0000 F1800
G92 E0
G1 X78.239 Y76.400 E0.0107 F1800
G1 X79.900 Y76.400 E0.0853
G1 X79.900 Y75.739 E0.1150
G1 X79.991 Y75.518 E0.1257
G1 X86.018 Y69.491 E0.5084
G1 X86.239 Y69.400 E0.5191
G1 X108.761 Y69.400 E1.5305
G1 X108.982 Y69.491 E1.5412
G1 X115.009 Y75.518 E1.9239
G1 X115.100 Y75.739 E1.9346
G1 X115.100 Y76.400 E1.9643
G1 X116.761 Y76.400 E2.0389
G1 X116.982 Y76.491 E2.0496
G1 X123.009 Y82.518 E2.4323
G1 X123.100 Y82.739 E2.4430
G1 X123.100 Y112.261 E3.7686
G1 X123.009 Y112.482 E3.7793
G1 X116.982 Y118.509 E4.1620
G1 X116.761 Y118.600 E4.1728
G1 X115.100 Y118.600 E4.2474
G1 X115.100 Y119.261 E4.2771
G1 X115.009 Y119.482 E4.2878
G1 X108.982 Y125.509 E4.6705
G1 X108.761 Y125.600 E4.6812
G1 X86.239 Y125.600 E5.6925
G1 X86.018 Y125.509 E5.7032
G1 X79.991 Y119.482 E6.0859
G1 X79.900 Y119.261 E6.0966
G1 X79.900 Y118.600 E6.1263
G1 X78.239 Y118.600 E6.2009
G1 X78.018 Y118.509 E6.2116
G1 X71.991 Y112.482 E6.5943
G1 X71.900 Y112.261 E6.6051
G1 X71.900 Y82.739 E7.9307
G1 X71.991 Y82.518 E7.9414
G1 X78.018 Y76.491 E8.3241
G1 X78.245 Y76.830 F4800
G92 E0
G1 X78.318 Y76.800 E0.0036 F1800
G1 X80.300 Y76.800 E0.0926
G1 X80.300 Y75.818 E0.1367
G1 X80.330 Y75.745 E0.1402
G1 X86.245 Y69.830 E0.5158
G1 X86.318 Y69.800 E0.5193
G1 X108.682 Y69.800 E1.5235
G1 X108.755 Y69.830 E1.5271
G1 X114.670 Y75.745 E1.9026
G1 X114.700 Y75.818 E1.9062
G1 X114.700 Y76.800 E1.9503
G1 X116.682 Y76.800 E2.0393
G1 X116.755 Y76.830 E2.0429
G1 X122.670 Y82.745 E2.4184
G1 X122.700 Y82.818 E2.4220
G1 X122.700 Y112.182 E3.7404
G1 X122.670 Y112.255 E3.7440
G1 X116.755 Y118.170 E4.1196
G1 X116.682 Y118.200 E4.1231
G1 X114.700 Y118.200 E4.2121
G1 X114.700 Y119.182 E4.2562
G1 X114.670 Y119.255 E4.2598
G1 X108.755 Y125.170 E4.6353
G1 X108.682 Y125.200 E4.6389
G1 X86.318 Y125.200 E5.6431
G1 X86.245 Y125.170 E5.6466
G1 X80.330 Y119.255 E6.0222
G1 X80.300 Y119.182 E6.0258
G1 X80.300 Y118.200 E6.0698
G1 X78.318 Y118.200 E6.1588
G1 X78.245 Y118.170 E6.1624
G1 X72.330 Y112.255 E6.5380
G1 X72.300 Y112.182 E6.5415
G1 X72.300 Y82.818 E7.8600
G1 X72.330 Y82.745 E7.8636
G1 X78.245 Y76.830 E8.2391
G92 E0
G1 E-5.0000 F6000
; inner perimeter
G1 X83.100 Y87.600 F4800
G1 E0.0000 F6000
G92 E0
G1 X91.100 Y87.600 E0.3592 F1350
G1 X91.100 Y80.600 E0.6735
G1 X103.900 Y80.600 E1.2483
G1 X103.900 Y87.600 E1.5626
G1 X111.900 Y87.600 E1.9218
G1 X111.900 Y107.400 E2.8108
G1 X103.900 Y107.400 E3.1700
G1 X103.900 Y114.400 E3.4843
G1 X91.100 Y114.400 E4.0591
G1 X91.100 Y107.400 E4.3734
G1 X83.100 Y107.400 E4.7326
G1 X83.100 Y87.600 E5.6216
; outer perimeter
G1 X82.700 Y87.200 F4800
G92 E0
G1 X90.700 Y87.200 E0.3592 F900
G1 X90.700 Y80.200 E0.6735
G1 X104.300 Y80.200 E1.2842
G1 X104.300 Y87.200 E1.5985
G1 X112.300 Y87.200 E1.9577
G1 X112.300 Y107.800 E2.8827
G1 X104.300 Y107.800 E3.2419
G1 X104.300 Y114.800 E3.5562
G1 X90.700 Y114.800 E4.1668
G1 X90.700 Y107.800 E4.4811
G1 X82.700 Y107.800 E4.8403
G1 X82.700 Y87.200 E5.7653
; inner perimeter
G1 X85.900 Y90.265 F4800
G92 E0
G1 X85.900 Y104.735 E0.6497 F1350
G1 X89.600 Y104.735 E0.8159
G1 X89.600 Y90.265 E1.4656
G1 X85.900 Y90.265 E1.6317
; outer perimeter
G1 X86.300 Y90.665 F4800
G92 E0
G1 X86.300 Y104.335 E0.6138 F900
G1 X89.200 Y104.335 E0.7440
G1 X89.200 Y90.665 E1.3578
G1 X86.300 Y90.665 E1.4880
; inner perimeter
G1 X95.449 Y82.699 F4800
G92 E0
G1 X95.335 Y83.099 E0.0187 F1350
G1 X95.298 Y83.484 E0.0360
G1 X95.334 Y83.898 E0.0547
G1 X95.449 Y84.303 E0.0736
G1 X95.656 Y84.704 E0.0939
G1 X95.919 Y85.033 E0.1128
G1 X96.238 Y85.305 E0.1316
G1 X96.602 Y85.511 E0.1504
G1 X96.999 Y85.644 E0.1692
G1 X97.414 Y85.700 E0.1880
G1 X97.832 Y85.677 E0.2068
G1 X98.238 Y85.575 E0.2256
G1 X98.617 Y85.398 E0.2444
G1 X98.956 Y85.152 E0.2632
G1 X99.243 Y84.846 E0.2820
G1 X99.466 Y84.492 E0.3008
G1 X99.618 Y84.102 E0.3196
G1 X99.694 Y83.691 E0.3384
G1 X99.690 Y83.272 E0.3572
G1 X99.608 Y82.862 E0.3760
G1 X99.449 Y82.474 E0.3948
G1 X99.219 Y82.124 E0.4136
G1 X98.928 Y81.823 E0.4324
G1 X98.585 Y81.584 E0.4512
G1 X98.202 Y81.413 E0.4700
G1 X97.795 Y81.318 E0.4887
G1 X97.376 Y81.301 E0.5075
G1 X96.963 Y81.364 E0.5263
G1 X96.568 Y81.505 E0.5451
G1 X96.207 Y81.717 E0.5639
G1 X95.893 Y81.994 E0.5827
G1 X95.637 Y82.325 E0.6015
G1 X95.449 Y82.699 E0.6203
; outer perimeter
G1 X95.823 Y82.845 F4800
G92 E0
G1 X95.730 Y83.174 E0.0153 F900
G1 X95.700 Y83.485 E0.0294
G1 X95.729 Y83.826 E0.0447
G1 X95.823 Y84.156 E0.0601
G1 X95.993 Y84.486 E0.0768
G1 X96.208 Y84.753 E0.0922
G1 X96.468 Y84.975 E0.1076
G1 X96.766 Y85.144 E0.1229
G1 X97.091 Y85.253 E0.1383
G1 X97.430 Y85.299 E0.1537
G1 X97.771 Y85.280 E0.1690
G1 X98.103 Y85.196 E0.1844
G1 X98.413 Y85.051 E0.1998
G1 X98.691 Y84.850 E0.2152
G1 X98.925 Y84.601 E0.2305
G1 X99.107 Y84.311 E0.2459
G1 X99.232 Y83.992 E0.2613
G1 X99.294 Y83.656 E0.2766
G1 X99.291 Y83.314 E0.2920
G1 X99.223 Y82.978 E0.3074
G1 X99.093 Y82.661 E0.3227
G1 X98.906 Y82.375 E0.3381
G1 X98.667 Y82.129 E0.3535
G1 X98.387 Y81.933 E0.3688
G1 X98.074 Y81.794 E0.3842
G1 X97.741 Y81.716 E0.3996
G1 X97.399 Y81.703 E0.4149
G1 X97.061 Y81.754 E0.4303
G1 X96.738 Y81.869 E0.4457
G1 X96.443 Y82.043 E0.4610
G1 X96.186 Y82.269 E0.4764
G1 X95.977 Y82.540 E0.4918
G1 X95.823 Y82.845 E0.5071
G92 E0
G1 E-5.0000 F6000
; inner perimeter
G1 X105.400 Y90.265 F4800
G1 E0.0000 F6000
G92 E0
G1 X105.400 Y104.735 E0.6497 F1350
G1 X109.100 Y104.735 E0.8159
G1 X109.100 Y90.265 E1.4656
G1 X105.400 Y90.265 E1.6317
; outer perimeter
G1 X105.800 Y90.665 F4800
G92 E0
G1 X105.800 Y104.335 E0.6138 F900
G1 X108.700 Y104.335 E0.7440
G1 X108.700 Y90.665 E1.3578
G1 X105.800 Y90.665 E1.4880
; inner perimeter
G1 X96.568 Y109.505 F4800
G92 E0
G1 X96.207 Y109.717 E0.0188 F1350
G1 X95.893 Y109.994 E0.0376
G1 X95.637 Y110.325 E0.0564
G1 X95.449 Y110.699 E0.0752
G1 X95.334 Y111.102 E0.0940
G1 X95.298 Y111.519 E0.1128
G1 X95.341 Y111.935 E0.1316
G1 X95.463 Y112.336 E0.1504
G1 X95.658 Y112.706 E0.1692
G1 X95.919 Y113.033 E0.1880
G1 X96.238 Y113.305 E0.2068
G1 X96.602 Y113.511 E0.2256
G1 X96.999 Y113.644 E0.2444
G1 X97.414 Y113.700 E0.2632
G1 X97.832 Y113.677 E0.2820
G1 X98.238 Y113.575 E0.3008
G1 X98.617 Y113.398 E0.3196
G1 X98.956 Y113.152 E0.3384
G1 X99.243 Y112.846 E0.3572
G1 X99.466 Y112.492 E0.3760
G1 X99.617 Y112.105 E0.3946
G1 X99.690 Y111.725 E0.4120
G1 X99.694 Y111.307 E0.4308
G1 X99.609 Y110.864 E0.4510
G1 X99.449 Y110.474 E0.4699
G1 X99.219 Y110.124 E0.4887
G1 X98.928 Y109.823 E0.5075
G1 X98.585 Y109.584 E0.5263
G1 X98.202 Y109.413 E0.5451
G1 X97.795 Y109.318 E0.5639
G1 X97.376 Y109.301 E0.5827
G1 X96.963 Y109.364 E0.6015
G1 X96.568 Y109.505 E0.6203
; outer perimeter
G1 X96.738 Y109.869 F4800
G92 E0
G1 X96.443 Y110.043 E0.0154 F900
G1 X96.186 Y110.269 E0.0307
G1 X95.977 Y110.540 E0.0461
G1 X95.823 Y110.845 E0.0615
G1 X95.729 Y111.174 E0.0768
G1 X95.700 Y111.515 E0.0922
G1 X95.735 Y111.856 E0.1076
G1 X95.834 Y112.183 E0.1229
G1 X95.994 Y112.486 E0.1383
G1 X96.208 Y112.753 E0.1537
G1 X96.468 Y112.975 E0.1690
G1 X96.766 Y113.144 E0.1844
G1 X97.091 Y113.253 E0.1998
G1 X97.430 Y113.299 E0.2152
G1 X97.771 Y113.280 E0.2305
G1 X98.103 Y113.196 E0.2459
G1 X98.413 Y113.051 E0.2613
G1 X98.691 Y112.850 E0.2766
G1 X98.925 Y112.601 E0.2920
G1 X99.107 Y112.311 E0.3074
G1 X99.231 Y111.993 E0.3227
G1 X99.291 Y111.686 E0.3368
G1 X99.294 Y111.343 E0.3521
G1 X99.223 Y110.979 E0.3688
G1 X99.093 Y110.661 E0.3842
G1 X98.906 Y110.375 E0.3996
G1 X98.667 Y110.129 E0.4149
G1 X98.387 Y109.933 E0.4303
G1 X98.074 Y109.794 E0.4457
G1 X97.741 Y109.716 E0.4610
G1 X97.399 Y109.703 E0.4764
G1 X97.061 Y109.754 E0.4918
G1 X96.738 Y109.869 E0.5071
G92 E0
G1 E-5.0000 F6000
; solid layer
G1 X100.033 Y111.372 F4800
G1 E0.0000 F6000
G92 E0
G1 X103.560 Y107.845 E0.2239 F1440
G1 X103.560 Y108.411 E0.2493
G1 X99.987 Y111.984 E0.4762
G1 X103.560 Y113.502 F4800
G92 E0
G1 X103.002 Y114.060 E0.0354 F1440
G1 X102.436 Y114.060 E0.0608
G1 X103.560 Y112.936 E0.1322
G1 X103.560 Y112.370 E0.1576
G1 X101.870 Y114.060 E0.2649
G1 X101.305 Y114.060 E0.2903
G1 X103.560 Y111.805 E0.4335
G1 X103.560 Y111.239 E0.4589
G1 X100.739 Y114.060 E0.6380
G1 X100.173 Y114.060 E0.6634
G1 X103.560 Y110.673 E0.8785
G1 X103.560 Y110.108 E0.9039
G1 X99.608 Y114.060 E1.1549
G1 X99.042 Y114.060 E1.1803
G1 X103.560 Y109.542 E1.4672
G1 X103.560 Y108.976 E1.4926
G1 X99.567 Y112.969 E1.7461
G1 X99.513 Y113.055 E1.7507
G1 X99.182 Y113.408 E1.7724
G1 X98.986 Y113.550 E1.7833
G1 X98.476 Y114.060 E1.8156
G1 X97.911 Y114.060 E1.8410
G1 X97.980 Y113.990 E1.8455
G1 X97.884 Y114.015 E1.8500
G1 X97.401 Y114.042 E1.8717
G1 X97.368 Y114.037 E1.8732
G1 X97.345 Y114.060 E1.8746
G1 X96.779 Y114.060 E1.9000
G1 X96.877 Y113.962 E1.9062
G1 X96.463 Y113.823 E1.9258
G1 X96.455 Y113.818 E1.9263
G1 X96.214 Y114.060 E1.9416
G1 X95.648 Y114.060 E1.9670
G1 X96.094 Y113.614 E1.9953
G1 X96.042 Y113.585 E1.9980
G1 X95.781 Y113.362 E2.0134
G1 X95.082 Y114.060 E2.0578
G1 X94.516 Y114.060 E2.0832
G1 X95.510 Y113.066 E2.1463
G1 X95.372 Y112.893 E2.1562
G1 X95.284 Y112.727 E2.1647
G1 X93.951 Y114.060 E2.2494
G1 X93.385 Y114.060 E2.2748
G1 X95.108 Y112.337 E2.3841
G1 X95.006 Y112.003 E2.3998
G1 X94.994 Y111.885 E2.4051
G1 X92.819 Y114.060 E2.5432
G1 X92.254 Y114.060 E2.5686
G1 X94.972 Y111.342 E2.7413
G1 X94.998 Y111.040 E2.7549
G1 X95.114 Y110.635 E2.7738
G1 X91.688 Y114.060 E2.9913
G1 X91.440 Y114.060 E3.0024
G1 X91.440 Y113.742 E3.0167
G1 X105.060 Y100.122 E3.8816
G1 X105.060 Y99.557 E3.9070
G1 X91.440 Y113.177 E4.7718
G1 X91.440 Y112.611 E4.7972
G1 X105.060 Y98.991 E5.6621
G1 X105.060 Y98.425 E5.6875
G1 X91.440 Y112.045 E6.5524
G1 X91.440 Y111.480 E6.5778
G1 X105.060 Y97.860 E7.4426
G1 X105.060 Y97.294 E7.4680
G1 X91.440 Y110.914 E8.3329
G1 X91.440 Y110.348 E8.3583
G1 X105.060 Y96.728 E9.2232
G1 X105.060 Y96.163 E9.2486
G1 X91.440 Y109.783 E10.1135
G1 X91.440 Y109.217 E10.1389
G1 X105.060 Y95.597 E11.0037
G1 X105.060 Y95.031 E11.0291
G1 X91.440 Y108.651 E11.8940
G1 X91.440 Y108.086 E11.9194
G1 X105.060 Y94.466 E12.7843
G1 X105.060 Y93.900 E12.8097
G1 X91.440 Y107.520 E13.6745
G1 X91.440 Y107.060 E13.6952
G1 X91.334 Y107.060 E13.6999
G1 X105.060 Y93.334 E14.5715
G1 X105.060 Y92.768 E14.5969
G1 X90.768 Y107.060 E15.5044
G1 X90.203 Y107.060 E15.5298
G1 X105.060 Y92.203 E16.4733
G1 X105.060 Y91.637 E16.4987
G1 X89.637 Y107.060 E17.4780
G1 X89.071 Y107.060 E17.5034
G1 X105.060 Y91.071 E18.5187
G1 X105.060 Y90.506 E18.5441
G1 X88.506 Y107.060 E19.5953
G1 X87.940 Y107.060 E19.6207
G1 X89.925 Y105.075 E19.7467
G1 X89.359 Y105.075 E19.7721
G1 X87.374 Y107.060 E19.8982
G1 X86.809 Y107.060 E19.9236
G1 X88.794 Y105.075 E20.0496
G1 X88.228 Y105.075 E20.0750
G1 X86.243 Y107.060 E20.2011
G1 X85.677 Y107.060 E20.2265
G1 X87.662 Y105.075 E20.3525
G1 X87.097 Y105.075 E20.3779
G1 X85.112 Y107.060 E20.5040
G1 X84.546 Y107.060 E20.5294
G1 X86.531 Y105.075 E20.6554
G1 X85.965 Y105.075 E20.6808
G1 X83.980 Y107.060 E20.8069
G1 X83.440 Y107.060 E20.8311
G1 X83.440 Y107.035 E20.8323
