; G-Code generated by Simplify3D(R) Version 3.0.2
; 1ÔÂ 22, 2016 at 12:43:59 ÉÏÎç
; Settings Summary
;   processName,Process3
;   applyToModels,9
;   profileName,me
;   profileVersion,2015-09-08 10:04:24
;   baseProfile,Default
;   printMaterial,PLA
;   printQuality,Medium
;   printExtruders,
;   extruderName,Extruder 1
;   extruderToolheadNumber,0
;   extruderDiameter,0.4
;   extruderAutoWidth,0
;   extruderWidth,0.4
;   extrusionMultiplier,0.9
;   extruderUseRetract,1
;   extruderRetractionDistance,5
;   extruderExtraRestartDistance,0
;   extruderRetractionZLift,0
;   extruderRetractionSpeed,6000
;   extruderUseCoasting,0
;   extruderCoastingDistance,0.2
;   extruderUseWipe,0
;   extruderWipeDistance,5
;   primaryExtruder,0
;   layerHeight,0.3
;   topSolidLayers,3
;   bottomSolidLayers,3
;   perimeterOutlines,2
;   printPerimetersInsideOut,1
;   startPointOption,2
;   startPointOriginX,0
;   startPointOriginY,0
;   startPointOriginZ,300
;   sequentialIslands,0
;   spiralVaseMode,0
;   firstLayerHeightPercentage,90
;   firstLayerWidthPercentage,100
;   firstLayerUnderspeed,0.5
;   useRaft,0
;   raftExtruder,0
;   raftLayers,3
;   raftOffset,3
;   raftSeparationDistance,0.14
;   raftInfill,85
;   disableRaftBaseLayers,0
;   useSkirt,1
;   skirtExtruder,0
;   skirtLayers,1
;   skirtOutlines,2
;   skirtOffset,10
;   usePrimePillar,0
;   primePillarExtruder,999
;   primePillarWidth,12
;   primePillarLocation,7
;   primePillarSpeedMultiplier,1
;   useOozeShield,0
;   oozeShieldExtruder,999
;   oozeShieldOffset,2
;   oozeShieldOutlines,1
;   oozeShieldSidewallShape,1
;   oozeShieldSidewallAngle,30
;   oozeShieldSpeedMultiplier,1
;   infillExtruder,0
;   internalInfillPattern,Rectilinear
;   externalInfillPattern,Rectilinear
;   infillPercentage,60
;   outlineOverlapPercentage,15
;   infillExtrusionWidthPercentage,100
;   minInfillLength,5
;   infillLayerInterval,1
;   infillAngles,45,-45
;   overlapInfillAngles,0
;   generateSupport,1
;   supportExtruder,0
;   supportInfillPercentage,20
;   supportExtraInflation,0
;   denseSupportLayers,0
;   denseSupportInfillPercentage,70
;   supportLayerInterval,1
;   supportHorizontalPartOffset,0.3
;   supportUpperSeparationLayers,1
;   supportLowerSeparationLayers,1
;   supportType,0
;   supportGridSpacing,4
;   maxOverhangAngle,45
;   supportAngles,0
;   temperatureName,Extruder 1 Temperature,Bed
;   temperatureNumber,0,0
;   temperatureSetpointCount,1,1
;   temperatureSetpointLayers,1,1
;   temperatureSetpointTemperatures,210,75
;   temperatureStabilizeAtStartup,1,1
;   temperatureHeatedBed,0,1
;   temperatureRelayBetweenLayers,0,0
;   temperatureRelayBetweenLoops,0,0
;   fanLayers,1,2
;   fanSpeeds,0,100
;   blipFanToFullPower,0
;   adjustSpeedForCooling,1
;   minSpeedLayerTime,15
;   minCoolingSpeedSlowdown,20
;   increaseFanForCooling,0
;   minFanLayerTime,45
;   maxCoolingFanSpeed,100
;   increaseFanForBridging,0
;   bridgingFanSpeed,100
;   use5D,1
;   relativeEdistances,0
;   allowEaxisZeroing,1
;   independentExtruderAxes,0
;   includeM10123,0
;   stickySupport,1
;   applyToolheadOffsets,0
;   gcodeXoffset,0
;   gcodeYoffset,0
;   gcodeZoffset,0
;   overrideMachineDefinition,1
;   machineTypeOverride,0
;   strokeXoverride,195
;   strokeYoverride,195
;   strokeZoverride,195
;   originOffsetXoverride,0
;   originOffsetYoverride,0
;   originOffsetZoverride,0
;   homeXdirOverride,-1
;   homeYdirOverride,-1
;   homeZdirOverride,-1
;   flipXoverride,1
;   flipYoverride,-1
;   flipZoverride,1
;   toolheadOffsets,0,0|0,0|0,0|0,0|0,0|0,0
;   overrideFirmwareConfiguration,1
;   firmwareTypeOverride,RepRap (Marlin/Repetier/Sprinter)
;   GPXconfigOverride,r2
;   baudRateOverride,115200
;   overridePrinterModels,0
;   printerModelsOverride
;   startingGcode,G28 ; home all axes
;   layerChangeGcode,
;   retractionGcode,
;   toolChangeGcode,
;   endingGcode,M104 S0 ; turn off extruder,M140 S0 ; turn off bed,M84 ; disable motors,G28 X0 Y0
;   createX3G,0
;   celebration,0
;   celebrationSong,Random Song
;   createMB5G,0
;   postProcessing,
;   defaultSpeed,3600
;   outlineUnderspeed,0.5
;   solidInfillUnderspeed,0.8
;   supportUnderspeed,0.8
;   rapidXYspeed,4800
;   rapidZspeed,1000
;   minBridgingArea,50
;   bridgingExtraInflation,0
;   bridgingExtrusionMultiplier,1
;   bridgingSpeedMultiplier,1
;   filamentDiameter,1.75
;   filamentPricePerKg,46
;   filamentDensity,1.25
;   useMinPrintHeight,0
;   minPrintHeight,0
;   useMaxPrintHeight,0
;   maxPrintHeight,0
;   useDiaphragm,0
;   diaphragmLayerInterval,20
;   robustSlicing,1
;   mergeAllIntoSolid,0
;   onlyRetractWhenCrossingOutline,1
;   retractBetweenLayers,1
;   useRetractionMinTravel,0
;   retractionMinTravel,3
;   retractWhileWiping,0
;   onlyWipeOutlines,1
;   avoidCrossingOutline,0
;   maxMovementDetourFactor,3
;   toolChangeRetractionDistance,12
;   toolChangeExtraRestartDistance,-0.5
;   toolChangeRetractionSpeed,600
;   allowThinWallGapFill,1
;   thinWallAllowedOverlapPercentage,10
;   horizontalSizeCompensation,0
G90
M82
M106 S0
M140 S75
M190 S75
M104 S210 T0
M109 S210 T0
G28 ; home all axes
G92 E0
G1 E-5.0000 F6000
G1 Z0.270 F1000
; layer 1, Z = 0.27
T0
; tool H0.300 W0.400
; skirt
G1 X71.586 Y86.676 F4800
G1 E0.0000 F1800
G92 E0
G1 X72.763 Y85.760 E0.0670 F1800
G1 X72.781 Y85.747 E0.0680
G1 X73.411 Y85.327 E0.1020
G1 X73.429 Y85.315 E0.1029
G1 X74.728 Y84.582 E0.1699
G1 X74.747 Y84.571 E0.1709
G1 X75.432 Y84.248 E0.2049
G1 X75.453 Y84.240 E0.2059
G1 X76.844 Y83.704 E0.2729
G1 X76.865 Y83.697 E0.2739
G1 X77.590 Y83.477 E0.3079
G1 X77.611 Y83.472 E0.3088
G1 X79.067 Y83.146 E0.3758
G1 X79.088 Y83.142 E0.3768
G1 X79.837 Y83.031 E0.4108
G1 X79.859 Y83.028 E0.4118
G1 X81.158 Y82.933 E0.4703
G1 X81.169 Y82.932 E0.4707
G1 X81.547 Y82.918 E0.4877
G1 X81.558 Y82.918 E0.4882
G1 X92.321 Y82.918 E0.9715
G1 X95.664 Y79.574 E1.1838
G1 X95.763 Y79.509 E1.1891
G1 X99.547 Y77.941 E1.3731
G1 X99.663 Y77.918 E1.3784
G1 X122.509 Y77.918 E2.4042
G1 X122.729 Y78.009 E2.4149
G1 X128.756 Y84.036 E2.7976
G1 X128.847 Y84.256 E2.8083
G1 X128.847 Y99.779 E3.5053
G1 X128.756 Y100.000 E3.5160
G1 X122.729 Y106.027 E3.8987
G1 X122.509 Y106.118 E3.9094
G1 X113.138 Y106.118 E4.3302
G1 X109.800 Y109.455 E4.5421
G1 X109.795 Y109.467 E4.5427
G1 X109.782 Y109.492 E4.5439
G1 X109.321 Y110.317 E4.5864
G1 X109.306 Y110.340 E4.5876
G1 X108.408 Y111.648 E4.6588
G1 X108.391 Y111.670 E4.6601
G1 X107.787 Y112.397 E4.7025
G1 X107.768 Y112.417 E4.7038
G1 X106.646 Y113.539 E4.7750
G1 X106.626 Y113.557 E4.7762
G1 X105.899 Y114.162 E4.8187
G1 X105.877 Y114.178 E4.8199
G1 X104.570 Y115.077 E4.8912
G1 X104.546 Y115.091 E4.8924
G1 X103.721 Y115.553 E4.9349
G1 X103.696 Y115.565 E4.9361
G1 X102.247 Y116.210 E5.0073
G1 X102.221 Y116.220 E5.0086
G1 X101.326 Y116.524 E5.0510
G1 X101.299 Y116.531 E5.0523
G1 X101.046 Y116.592 E5.0639
G1 X99.397 Y117.893 E5.1582
G1 X99.128 Y117.952 E5.1706
G1 X97.247 Y117.502 E5.2574
G1 X95.367 Y117.952 E5.3443
G1 X95.098 Y117.893 E5.3567
G1 X93.448 Y116.592 E5.4510
G1 X93.195 Y116.531 E5.4626
G1 X93.169 Y116.524 E5.4639
G1 X92.274 Y116.220 E5.5063
G1 X92.248 Y116.210 E5.5076
G1 X90.798 Y115.565 E5.5788
G1 X90.774 Y115.553 E5.5800
G1 X89.949 Y115.091 E5.6225
G1 X89.925 Y115.077 E5.6237
G1 X88.618 Y114.178 E5.6950
G1 X88.596 Y114.162 E5.6962
G1 X87.869 Y113.557 E5.7387
G1 X87.849 Y113.539 E5.7399
G1 X86.727 Y112.417 E5.8111
G1 X86.708 Y112.397 E5.8124
G1 X86.476 Y112.118 E5.8286
G1 X78.648 Y112.118 E6.1801
G1 X78.633 Y112.117 E6.1808
G1 X78.105 Y112.090 E6.2045
G1 X78.090 Y112.089 E6.2052
G1 X76.907 Y111.967 E6.2586
G1 X76.877 Y111.962 E6.2600
G1 X75.849 Y111.749 E6.3071
G1 X75.820 Y111.742 E6.3085
G1 X74.420 Y111.299 E6.3744
G1 X74.392 Y111.288 E6.3758
G1 X73.416 Y110.865 E6.4235
G1 X73.389 Y110.852 E6.4249
G1 X72.104 Y110.129 E6.4911
G1 X72.078 Y110.112 E6.4925
G1 X71.210 Y109.499 E6.5402
G1 X71.186 Y109.480 E6.5416
G1 X70.077 Y108.510 E6.6077
G1 X70.054 Y108.488 E6.6091
G1 X69.331 Y107.710 E6.6568
G1 X69.311 Y107.686 E6.6582
G1 X68.427 Y106.513 E6.7242
G1 X68.409 Y106.488 E6.7256
G1 X67.865 Y105.588 E6.7728
G1 X67.850 Y105.561 E6.7742
G1 X67.258 Y104.309 E6.8364
G1 X67.248 Y104.285 E6.8375
G1 X66.934 Y103.436 E6.8782
G1 X66.926 Y103.411 E6.8793
G1 X66.514 Y101.901 E6.9496
G1 X66.509 Y101.880 E6.9506
G1 X66.364 Y101.136 E6.9846
G1 X66.361 Y101.115 E6.9856
G1 X66.183 Y99.634 E7.0526
G1 X66.181 Y99.612 E7.0536
G1 X66.146 Y98.855 E7.0876
G1 X66.146 Y98.833 E7.0885
G1 X66.187 Y97.343 E7.1555
G1 X66.189 Y97.321 E7.1565
G1 X66.265 Y96.567 E7.1905
G1 X66.268 Y96.545 E7.1915
G1 X66.527 Y95.076 E7.2585
G1 X66.532 Y95.055 E7.2595
G1 X66.718 Y94.321 E7.2935
G1 X66.724 Y94.300 E7.2944
G1 X67.195 Y92.885 E7.3614
G1 X67.203 Y92.864 E7.3624
G1 X67.494 Y92.165 E7.3964
G1 X67.504 Y92.145 E7.3974
G1 X68.177 Y90.814 E7.4644
G1 X68.188 Y90.795 E7.4653
G1 X68.578 Y90.146 E7.4993
G1 X68.590 Y90.128 E7.5003
G1 X69.452 Y88.910 E7.5673
G1 X69.465 Y88.893 E7.5683
G1 X69.946 Y88.308 E7.6023
G1 X69.961 Y88.292 E7.6033
G1 X70.991 Y87.213 E7.6703
G1 X71.007 Y87.198 E7.6712
G1 X71.569 Y86.690 E7.7052
G1 X71.586 Y86.676 E7.7062
G1 X71.837 Y86.987 F4800
G92 E0
G1 X73.003 Y86.080 E0.0663 F1800
G1 X73.009 Y86.076 E0.0666
G1 X73.626 Y85.664 E0.1000
G1 X73.633 Y85.660 E0.1003
G1 X74.918 Y84.933 E0.1666
G1 X74.925 Y84.930 E0.1669
G1 X75.596 Y84.613 E0.2003
G1 X75.603 Y84.610 E0.2006
G1 X76.981 Y84.080 E0.2669
G1 X76.988 Y84.077 E0.2673
G1 X77.699 Y83.862 E0.3006
G1 X77.706 Y83.860 E0.3009
G1 X79.147 Y83.538 E0.3672
G1 X79.154 Y83.536 E0.3676
G1 X79.889 Y83.427 E0.4009
G1 X79.896 Y83.427 E0.4012
G1 X81.184 Y83.332 E0.4592
G1 X81.187 Y83.332 E0.4594
G1 X81.558 Y83.318 E0.4760
G1 X81.562 Y83.318 E0.4762
G1 X92.486 Y83.318 E0.9667
G1 X95.919 Y79.885 E1.1847
G1 X95.952 Y79.863 E1.1865
G1 X99.664 Y78.326 E1.3669
G1 X99.703 Y78.318 E1.3687
G1 X122.429 Y78.318 E2.3891
G1 X122.503 Y78.348 E2.3927
G1 X128.417 Y84.263 E2.7682
G1 X128.447 Y84.336 E2.7718
G1 X128.447 Y99.700 E3.4616
G1 X128.417 Y99.773 E3.4652
G1 X122.503 Y105.688 E3.8408
G1 X122.429 Y105.718 E3.8443
G1 X112.972 Y105.718 E4.2690
G1 X109.465 Y109.225 E4.4917
G1 X109.433 Y109.296 E4.4952
G1 X109.429 Y109.304 E4.4956
G1 X108.976 Y110.113 E4.5372
G1 X108.971 Y110.121 E4.5376
G1 X108.083 Y111.414 E4.6080
G1 X108.078 Y111.421 E4.6085
G1 X107.485 Y112.134 E4.6501
G1 X107.479 Y112.141 E4.6505
G1 X106.370 Y113.249 E4.7209
G1 X106.363 Y113.256 E4.7213
G1 X105.650 Y113.848 E4.7629
G1 X105.643 Y113.854 E4.7633
G1 X104.351 Y114.742 E4.8338
G1 X104.343 Y114.747 E4.8342
G1 X103.534 Y115.199 E4.8758
G1 X103.526 Y115.203 E4.8762
G1 X102.093 Y115.841 E4.9466
G1 X102.084 Y115.844 E4.9470
G1 X101.206 Y116.142 E4.9887
G1 X101.197 Y116.144 E4.9891
G1 X100.868 Y116.223 E5.0043
G1 X99.222 Y117.522 E5.0984
G1 X99.132 Y117.541 E5.1026
G1 X97.247 Y117.090 E5.1896
G1 X95.363 Y117.541 E5.2766
G1 X95.273 Y117.522 E5.2807
G1 X93.627 Y116.223 E5.3749
G1 X93.298 Y116.144 E5.3901
G1 X93.289 Y116.142 E5.3905
G1 X92.411 Y115.844 E5.4321
G1 X92.402 Y115.841 E5.4325
G1 X90.969 Y115.203 E5.5029
G1 X90.961 Y115.199 E5.5033
G1 X90.152 Y114.747 E5.5450
G1 X90.144 Y114.742 E5.5454
G1 X88.852 Y113.854 E5.6158
G1 X88.844 Y113.848 E5.6162
G1 X88.132 Y113.256 E5.6578
G1 X88.125 Y113.249 E5.6582
G1 X87.016 Y112.141 E5.7286
G1 X87.010 Y112.134 E5.7291
G1 X86.664 Y111.718 E5.7534
G1 X78.653 Y111.718 E6.1130
G1 X78.648 Y111.717 E6.1133
G1 X78.131 Y111.691 E6.1365
G1 X78.126 Y111.690 E6.1368
G1 X76.958 Y111.570 E6.1895
G1 X76.948 Y111.569 E6.1899
G1 X75.940 Y111.360 E6.2361
G1 X75.931 Y111.357 E6.2366
G1 X74.551 Y110.921 E6.3016
G1 X74.541 Y110.917 E6.3020
G1 X73.585 Y110.503 E6.3488
G1 X73.576 Y110.498 E6.3493
G1 X72.309 Y109.785 E6.4145
G1 X72.301 Y109.780 E6.4150
G1 X71.450 Y109.178 E6.4618
G1 X71.442 Y109.172 E6.4622
G1 X70.348 Y108.215 E6.5275
G1 X70.340 Y108.208 E6.5280
G1 X69.631 Y107.445 E6.5748
G1 X69.624 Y107.437 E6.5752
G1 X68.752 Y106.281 E6.6402
G1 X68.746 Y106.272 E6.6407
G1 X68.212 Y105.389 E6.6870
G1 X68.208 Y105.380 E6.6875
G1 X67.623 Y104.146 E6.7488
G1 X67.620 Y104.138 E6.7492
G1 X67.312 Y103.306 E6.7890
G1 X67.310 Y103.297 E6.7894
G1 X66.902 Y101.803 E6.8590
G1 X66.900 Y101.796 E6.8593
G1 X66.758 Y101.067 E6.8927
G1 X66.757 Y101.060 E6.8930
G1 X66.581 Y99.593 E6.9593
G1 X66.580 Y99.586 E6.9596
G1 X66.546 Y98.844 E6.9930
G1 X66.546 Y98.837 E6.9933
G1 X66.587 Y97.361 E7.0596
G1 X66.587 Y97.354 E7.0599
G1 X66.662 Y96.615 E7.0933
G1 X66.663 Y96.607 E7.0936
G1 X66.920 Y95.153 E7.1599
G1 X66.921 Y95.146 E7.1602
G1 X67.104 Y94.426 E7.1936
G1 X67.106 Y94.419 E7.1939
G1 X67.573 Y93.018 E7.2602
G1 X67.575 Y93.011 E7.2606
G1 X67.861 Y92.326 E7.2939
G1 X67.864 Y92.319 E7.2942
G1 X68.531 Y91.002 E7.3605
G1 X68.534 Y90.995 E7.3609
G1 X68.917 Y90.359 E7.3942
G1 X68.921 Y90.353 E7.3945
G1 X69.774 Y89.147 E7.4608
G1 X69.778 Y89.141 E7.4612
G1 X70.250 Y88.568 E7.4945
G1 X70.255 Y88.563 E7.4948
G1 X71.275 Y87.495 E7.5611
G1 X71.281 Y87.490 E7.5615
G1 X71.832 Y86.992 E7.5948
G1 X71.837 Y86.987 E7.5952
G92 E0
G1 E-5.0000 F6000
; inner perimeter
G1 X78.798 Y95.255 F4800
G1 E0.0000 F6000
G92 E0
G1 X79.308 Y94.858 E0.0290 F1350
G1 X79.870 Y94.540 E0.0580
G1 X80.473 Y94.308 E0.0870
G1 X81.103 Y94.167 E0.1160
G1 X81.769 Y94.118 E0.1460
G1 X96.960 Y94.118 E0.8281
G1 X101.960 Y89.118 E1.1456
G1 X117.647 Y89.118 E1.8499
G1 X117.647 Y94.918 E2.1104
G1 X104.647 Y94.918 E2.6941
G1 X104.647 Y98.769 E2.8670
G1 X100.498 Y102.918 E3.1305
G1 X100.238 Y102.918 E3.1421
G1 X99.992 Y103.948 E3.1897
G1 X99.776 Y104.433 E3.2135
G1 X99.475 Y104.870 E3.2374
G1 X99.100 Y105.246 E3.2612
G1 X98.662 Y105.546 E3.2850
G1 X98.347 Y105.686 E3.3005
G1 X98.347 Y104.859 E3.3377
G1 X98.436 Y104.816 E3.3421
G1 X98.852 Y104.456 E3.3668
G1 X99.164 Y104.004 E3.3915
G1 X99.351 Y103.487 E3.4161
G1 X99.401 Y102.940 E3.4408
G1 X99.311 Y102.397 E3.4655
G1 X99.087 Y101.896 E3.4902
G1 X98.743 Y101.467 E3.5148
G1 X98.302 Y101.139 E3.5395
G1 X97.792 Y100.933 E3.5642
G1 X97.247 Y100.863 E3.5889
G1 X96.702 Y100.933 E3.6136
G1 X96.193 Y101.139 E3.6382
G1 X95.752 Y101.467 E3.6629
G1 X95.408 Y101.896 E3.6876
G1 X95.184 Y102.397 E3.7123
G1 X95.094 Y102.940 E3.7369
G1 X95.144 Y103.487 E3.7616
G1 X95.331 Y104.004 E3.7863
G1 X95.643 Y104.456 E3.8110
G1 X96.059 Y104.816 E3.8357
G1 X96.147 Y104.859 E3.8401
G1 X96.147 Y105.687 E3.8772
G1 X95.832 Y105.546 E3.8927
G1 X95.395 Y105.246 E3.9166
G1 X95.019 Y104.870 E3.9404
G1 X94.719 Y104.433 E3.9642
G1 X94.503 Y103.948 E3.9881
G1 X94.383 Y103.447 E4.0112
G1 X94.383 Y100.918 E4.1247
G1 X82.340 Y100.918 E4.6655
G1 X82.289 Y100.660 E4.6773
G1 X82.850 Y100.428 E4.7046
G1 X83.307 Y100.077 E4.7304
G1 X83.657 Y99.621 E4.7563
G1 X83.877 Y99.089 E4.7821
G1 X83.953 Y98.518 E4.8079
G1 X83.877 Y97.947 E4.8338
G1 X83.657 Y97.415 E4.8596
G1 X83.307 Y96.959 E4.8855
G1 X82.850 Y96.608 E4.9113
G1 X82.318 Y96.388 E4.9372
G1 X81.747 Y96.313 E4.9630
G1 X81.177 Y96.388 E4.9889
G1 X80.645 Y96.608 E5.0147
G1 X80.188 Y96.959 E5.0406
G1 X79.838 Y97.415 E5.0664
G1 X79.617 Y97.947 E5.0923
G1 X79.542 Y98.518 E5.1181
G1 X79.617 Y99.089 E5.1440
G1 X79.838 Y99.621 E5.1698
G1 X80.188 Y100.077 E5.1957
G1 X80.645 Y100.428 E5.2215
G1 X81.206 Y100.660 E5.2488
G1 X81.154 Y100.918 E5.2606
G1 X78.944 Y100.918 E5.3598
G1 X78.637 Y100.886 E5.3737
G1 X78.363 Y100.799 E5.3866
G1 X78.113 Y100.658 E5.3995
G1 X77.896 Y100.469 E5.4124
G1 X77.723 Y100.240 E5.4253
G1 X77.598 Y99.976 E5.4384
G1 X77.431 Y99.361 E5.4670
G1 X77.354 Y98.720 E5.4960
G1 X77.371 Y98.074 E5.5250
G1 X77.484 Y97.438 E5.5540
G1 X77.688 Y96.825 E5.5830
G1 X77.979 Y96.249 E5.6120
G1 X78.352 Y95.722 E5.6410
G1 X78.798 Y95.255 E5.6700
; outer perimeter
G1 X78.529 Y94.957 F4800
G92 E0
G1 X79.086 Y94.524 E0.0316 F900
G1 X79.699 Y94.177 E0.0633
G1 X80.357 Y93.924 E0.0949
G1 X81.045 Y93.770 E0.1266
G1 X81.755 Y93.718 E0.1586
G1 X96.794 Y93.718 E0.8338
G1 X101.794 Y88.718 E1.1513
G1 X118.047 Y88.718 E1.8811
G1 X118.047 Y95.318 E2.1775
G1 X105.047 Y95.318 E2.7612
G1 X105.047 Y98.935 E2.9236
G1 X100.663 Y103.318 E3.2020
G1 X100.554 Y103.318 E3.2069
G1 X100.372 Y104.077 E3.2419
G1 X100.126 Y104.629 E3.2691
G1 X99.784 Y105.127 E3.2962
G1 X99.357 Y105.555 E3.3233
