; G-Code generated by Simplify3D(R) Version 3.0.2
; 1ÔÂ 22, 2016 at 12:44:58 ÉÏÎç
; Settings Summary
;   processName,Process3
;   applyToModels,14
;   profileName,me
;   profileVersion,2015-09-08 10:04:24
;   baseProfile,Default
;   printMaterial,PLA
;   printQuality,Medium
;   printExtruders,
;   extruderName,Extruder 1
;   extruderToolheadNumber,0
;   extruderDiameter,0.4
;   extruderAutoWidth,0
;   extruderWidth,0.4
;   extrusionMultiplier,0.9
;   extruderUseRetract,1
;   extruderRetractionDistance,5
;   extruderExtraRestartDistance,0
;   extruderRetractionZLift,0
;   extruderRetractionSpeed,6000
;   extruderUseCoasting,0
;   extruderCoastingDistance,0.2
;   extruderUseWipe,0
;   extruderWipeDistance,5
;   primaryExtruder,0
;   layerHeight,0.3
;   topSolidLayers,3
;   bottomSolidLayers,3
;   perimeterOutlines,2
;   printPerimetersInsideOut,1
;   startPointOption,2
;   startPointOriginX,0
;   startPointOriginY,0
;   startPointOriginZ,300
;   sequentialIslands,0
;   spiralVaseMode,0
;   firstLayerHeightPercentage,90
;   firstLayerWidthPercentage,100
;   firstLayerUnderspeed,0.5
;   useRaft,0
;   raftExtruder,0
;   raftLayers,3
;   raftOffset,3
;   raftSeparationDistance,0.14
;   raftInfill,85
;   disableRaftBaseLayers,0
;   useSkirt,1
;   skirtExtruder,0
;   skirtLayers,1
;   skirtOutlines,2
;   skirtOffset,10
;   usePrimePillar,0
;   primePillarExtruder,999
;   primePillarWidth,12
;   primePillarLocation,7
;   primePillarSpeedMultiplier,1
;   useOozeShield,0
;   oozeShieldExtruder,999
;   oozeShieldOffset,2
;   oozeShieldOutlines,1
;   oozeShieldSidewallShape,1
;   oozeShieldSidewallAngle,30
;   oozeShieldSpeedMultiplier,1
;   infillExtruder,0
;   internalInfillPattern,Rectilinear
;   externalInfillPattern,Rectilinear
;   infillPercentage,60
;   outlineOverlapPercentage,15
;   infillExtrusionWidthPercentage,100
;   minInfillLength,5
;   infillLayerInterval,1
;   infillAngles,45,-45
;   overlapInfillAngles,0
;   generateSupport,1
;   supportExtruder,0
;   supportInfillPercentage,20
;   supportExtraInflation,0
;   denseSupportLayers,0
;   denseSupportInfillPercentage,70
;   supportLayerInterval,1
;   supportHorizontalPartOffset,0.3
;   supportUpperSeparationLayers,1
;   supportLowerSeparationLayers,1
;   supportType,0
;   supportGridSpacing,4
;   maxOverhangAngle,45
;   supportAngles,0
;   temperatureName,Extruder 1 Temperature,Bed
;   temperatureNumber,0,0
;   temperatureSetpointCount,1,1
;   temperatureSetpointLayers,1,1
;   temperatureSetpointTemperatures,210,75
;   temperatureStabilizeAtStartup,1,1
;   temperatureHeatedBed,0,1
;   temperatureRelayBetweenLayers,0,0
;   temperatureRelayBetweenLoops,0,0
;   fanLayers,1,2
;   fanSpeeds,0,100
;   blipFanToFullPower,0
;   adjustSpeedForCooling,1
;   minSpeedLayerTime,15
;   minCoolingSpeedSlowdown,20
;   increaseFanForCooling,0
;   minFanLayerTime,45
;   maxCoolingFanSpeed,100
;   increaseFanForBridging,0
;   bridgingFanSpeed,100
;   use5D,1
;   relativeEdistances,0
;   allowEaxisZeroing,1
;   independentExtruderAxes,0
;   includeM10123,0
;   stickySupport,1
;   applyToolheadOffsets,0
;   gcodeXoffset,0
;   gcodeYoffset,0
;   gcodeZoffset,0
;   overrideMachineDefinition,1
;   machineTypeOverride,0
;   strokeXoverride,195
;   strokeYoverride,195
;   strokeZoverride,195
;   originOffsetXoverride,0
;   originOffsetYoverride,0
;   originOffsetZoverride,0
;   homeXdirOverride,-1
;   homeYdirOverride,-1
;   homeZdirOverride,-1
;   flipXoverride,1
;   flipYoverride,-1
;   flipZoverride,1
;   toolheadOffsets,0,0|0,0|0,0|0,0|0,0|0,0
;   overrideFirmwareConfiguration,1
;   firmwareTypeOverride,RepRap (Marlin/Repetier/Sprinter)
;   GPXconfigOverride,r2
;   baudRateOverride,115200
;   overridePrinterModels,0
;   printerModelsOverride
;   startingGcode,G28 ; home all axes
;   layerChangeGcode,
;   retractionGcode,
;   toolChangeGcode,
;   endingGcode,M104 S0 ; turn off extruder,M140 S0 ; turn off bed,M84 ; disable motors,G28 X0 Y0
;   createX3G,0
;   celebration,0
;   celebrationSong,Random Song
;   createMB5G,0
;   postProcessing,
;   defaultSpeed,3600
;   outlineUnderspeed,0.5
;   solidInfillUnderspeed,0.8
;   supportUnderspeed,0.8
;   rapidXYspeed,4800
;   rapidZspeed,1000
;   minBridgingArea,50
;   bridgingExtraInflation,0
;   bridgingExtrusionMultiplier,1
;   bridgingSpeedMultiplier,1
;   filamentDiameter,1.75
;   filamentPricePerKg,46
;   filamentDensity,1.25
;   useMinPrintHeight,0
;   minPrintHeight,0
;   useMaxPrintHeight,0
;   maxPrintHeight,0
;   useDiaphragm,0
;   diaphragmLayerInterval,20
;   robustSlicing,1
;   mergeAllIntoSolid,0
;   onlyRetractWhenCrossingOutline,1
;   retractBetweenLayers,1
;   useRetractionMinTravel,0
;   retractionMinTravel,3
;   retractWhileWiping,0
;   onlyWipeOutlines,1
;   avoidCrossingOutline,0
;   maxMovementDetourFactor,3
;   toolChangeRetractionDistance,12
;   toolChangeExtraRestartDistance,-0.5
;   toolChangeRetractionSpeed,600
;   allowThinWallGapFill,1
;   thinWallAllowedOverlapPercentage,10
;   horizontalSizeCompensation,0
G90
M82
M106 S0
M140 S75
M190 S75
M104 S210 T0
M109 S210 T0
G28 ; home all axes
G92 E0
G1 E-5.0000 F6000
G1 Z0.270 F1000
; layer 1, Z = 0.27
T0
; tool H0.300 W0.400
; skirt
G1 X81.591 Y81.018 F4800
G1 E0.0000 F1800
G92 E0
G1 X87.618 Y74.991 E0.3827 F1800
G1 X87.838 Y74.900 E0.3934
G1 X107.161 Y74.900 E1.2610
G1 X107.382 Y74.991 E1.2718
G1 X113.409 Y81.018 E1.6544
G1 X113.500 Y81.239 E1.6652
G1 X113.500 Y113.761 E3.1255
G1 X113.409 Y113.982 E3.1362
G1 X107.382 Y120.009 E3.5189
G1 X107.161 Y120.100 E3.5296
G1 X87.838 Y120.100 E4.3972
G1 X87.618 Y120.009 E4.4079
G1 X81.591 Y113.982 E4.7906
G1 X81.500 Y113.761 E4.8014
G1 X81.500 Y81.239 E6.2617
G1 X81.591 Y81.018 E6.2724
G1 X81.930 Y81.245 F4800
G92 E0
G1 X87.845 Y75.330 E0.3755 F1800
G1 X87.918 Y75.300 E0.3791
G1 X107.082 Y75.300 E1.2396
G1 X107.155 Y75.330 E1.2432
G1 X113.070 Y81.245 E1.6187
G1 X113.100 Y81.318 E1.6223
G1 X113.100 Y113.682 E3.0755
G1 X113.070 Y113.755 E3.0790
G1 X107.155 Y119.670 E3.4546
G1 X107.082 Y119.700 E3.4582
G1 X87.918 Y119.700 E4.3186
G1 X87.845 Y119.670 E4.3222
G1 X81.930 Y113.755 E4.6978
G1 X81.900 Y113.682 E4.7013
G1 X81.900 Y81.318 E6.1545
G1 X81.930 Y81.245 E6.1581
G92 E0
G1 E-5.0000 F6000
; inner perimeter
G1 X92.700 Y86.100 F4800
G1 E0.0000 F6000
G92 E0
G1 X102.300 Y86.100 E0.4311 F1350
G1 X102.300 Y100.105 E1.0599
G1 X101.553 Y99.527 E1.1023
G1 X100.917 Y99.215 E1.1342
G1 X100.230 Y99.037 E1.1660
G1 X99.523 Y99.001 E1.1978
G1 X98.822 Y99.109 E1.2296
G1 X98.157 Y99.355 E1.2615
G1 X97.556 Y99.730 E1.2933
G1 X97.042 Y100.218 E1.3251
G1 X96.637 Y100.800 E1.3569
G1 X96.358 Y101.451 E1.3888
G1 X96.215 Y102.146 E1.4206
G1 X96.215 Y102.854 E1.4524
G1 X96.358 Y103.549 E1.4842
G1 X96.637 Y104.200 E1.5161
G1 X97.042 Y104.782 E1.5479
G1 X97.556 Y105.270 E1.5797
G1 X98.157 Y105.645 E1.6115
G1 X98.822 Y105.891 E1.6434
G1 X99.523 Y105.999 E1.6752
G1 X100.230 Y105.963 E1.7070
G1 X100.917 Y105.785 E1.7388
G1 X101.553 Y105.473 E1.7707
G1 X102.300 Y104.895 E1.8131
G1 X102.300 Y108.900 E1.9929
G1 X92.700 Y108.900 E2.4240
G1 X92.700 Y86.100 E3.4477
; outer perimeter
G1 X92.300 Y85.700 F4800
G92 E0
G1 X102.700 Y85.700 E0.4670 F900
G1 X102.700 Y101.756 E1.1879
G1 X102.550 Y101.277 E1.2104
G1 X102.245 Y100.728 E1.2386
G1 X101.837 Y100.252 E1.2668
G1 X101.340 Y99.868 E1.2950
G1 X100.777 Y99.592 E1.3231
G1 X100.170 Y99.435 E1.3513
G1 X99.543 Y99.403 E1.3795
G1 X98.923 Y99.498 E1.4077
G1 X98.334 Y99.716 E1.4358
G1 X97.802 Y100.048 E1.4640
G1 X97.347 Y100.480 E1.4922
G1 X96.989 Y100.995 E1.5204
G1 X96.741 Y101.572 E1.5485
G1 X96.615 Y102.186 E1.5767
G1 X96.615 Y102.814 E1.6049
G1 X96.741 Y103.428 E1.6330
G1 X96.989 Y104.005 E1.6612
G1 X97.347 Y104.520 E1.6894
G1 X97.802 Y104.952 E1.7176
G1 X98.334 Y105.284 E1.7457
G1 X98.923 Y105.502 E1.7739
G1 X99.543 Y105.597 E1.8021
G1 X100.170 Y105.565 E1.8303
G1 X100.777 Y105.408 E1.8584
G1 X101.340 Y105.132 E1.8866
G1 X101.837 Y104.748 E1.9148
G1 X102.245 Y104.272 E1.9430
G1 X102.550 Y103.723 E1.9711
G1 X102.700 Y103.244 E1.9937
G1 X102.700 Y109.300 E2.2656
G1 X92.300 Y109.300 E2.7326
G1 X92.300 Y85.700 E3.7922
; inner perimeter
; outer perimeter
; solid layer
G1 X93.040 Y86.687 F4800
G92 E0
G1 X93.287 Y86.440 E0.0157 F1440
G1 X93.852 Y86.440 E0.0411
G1 X93.040 Y87.252 E0.0926
G1 X93.040 Y87.818 E0.1180
G1 X94.418 Y86.440 E0.2055
G1 X94.984 Y86.440 E0.2309
G1 X93.040 Y88.384 E0.3543
G1 X93.040 Y88.949 E0.3797
G1 X95.549 Y86.440 E0.5391
G1 X96.115 Y86.440 E0.5645
G1 X93.040 Y89.515 E0.7597
G1 X93.040 Y90.081 E0.7851
G1 X96.681 Y86.440 E1.0163
G1 X97.246 Y86.440 E1.0417
G1 X93.040 Y90.646 E1.3088
G1 X93.040 Y91.212 E1.3342
G1 X97.812 Y86.440 E1.6372
G1 X98.378 Y86.440 E1.6626
G1 X93.040 Y91.778 E2.0016
G1 X93.040 Y92.343 E2.0270
G1 X98.943 Y86.440 E2.4019
G1 X99.509 Y86.440 E2.4273
G1 X93.040 Y92.909 E2.8380
G1 X93.040 Y93.475 E2.8634
G1 X100.075 Y86.440 E3.3101
G1 X100.640 Y86.440 E3.3355
G1 X93.040 Y94.040 E3.8182
G1 X93.040 Y94.606 E3.8436
G1 X101.206 Y86.440 E4.3621
G1 X101.772 Y86.440 E4.3875
G1 X93.040 Y95.172 E4.9420
G1 X93.040 Y95.738 E4.9674
G1 X101.960 Y86.817 E5.5338
G1 X101.960 Y87.383 E5.5592
G1 X93.040 Y96.303 E6.1256
G1 X93.040 Y96.869 E6.1510
G1 X101.960 Y87.949 E6.7174
G1 X101.960 Y88.515 E6.7428
G1 X93.040 Y97.435 E7.3093
G1 X93.040 Y98.000 E7.3347
G1 X101.960 Y89.080 E7.9011
G1 X101.960 Y89.646 E7.9265
G1 X93.040 Y98.566 E8.4929
G1 X93.040 Y99.132 E8.5183
G1 X101.960 Y90.212 E9.0847
G1 X101.960 Y90.777 E9.1101
G1 X93.040 Y99.697 E9.6765
G1 X93.040 Y100.263 E9.7019
G1 X101.960 Y91.343 E10.2684
G1 X101.960 Y91.909 E10.2938
G1 X93.040 Y100.829 E10.8602
G1 X93.040 Y101.394 E10.8856
G1 X101.960 Y92.474 E11.4520
G1 X101.960 Y93.040 E11.4774
G1 X93.040 Y101.960 E12.0438
G1 X93.040 Y102.526 E12.0692
G1 X101.960 Y93.606 E12.6356
G1 X101.960 Y94.171 E12.6610
G1 X93.040 Y103.091 E13.2275
G1 X93.040 Y103.657 E13.2529
G1 X101.960 Y94.737 E13.8193
G1 X101.960 Y95.303 E13.8447
G1 X98.337 Y98.926 E14.0747
G1 X98.007 Y99.048 E14.0906
G1 X97.347 Y99.460 E14.1255
G1 X96.783 Y99.996 E14.1604
G1 X96.338 Y100.634 E14.1953
G1 X96.120 Y101.143 E14.2202
G1 X93.040 Y104.223 E14.4158
G1 X93.040 Y104.788 E14.4412
G1 X95.916 Y101.913 E14.6238
G1 X95.875 Y102.111 E14.6329
G1 X95.875 Y102.519 E14.6512
G1 X93.040 Y105.354 E14.8312
G1 X93.040 Y105.920 E14.8566
G1 X95.908 Y103.052 E15.0387
G1 X96.005 Y103.521 E15.0603
G1 X93.040 Y106.486 E15.2485
G1 X93.040 Y107.051 E15.2739
G1 X96.154 Y103.937 E15.4717
G1 X96.324 Y104.333 E15.4910
G1 X93.040 Y107.617 E15.6996
G1 X93.040 Y108.183 E15.7250
G1 X96.551 Y104.672 E15.9479
G1 X96.783 Y105.004 E15.9661
G1 X96.783 Y105.005 E15.9661
G1 X93.228 Y108.560 E16.1919
G1 X93.794 Y108.560 E16.2173
G1 X97.073 Y105.281 E16.4255
G1 X97.347 Y105.540 E16.4425
G1 X97.367 Y105.553 E16.4435
G1 X94.360 Y108.560 E16.6345
G1 X94.925 Y108.560 E16.6599
G1 X97.715 Y105.770 E16.8370
G1 X98.007 Y105.952 E16.8524
G1 X98.074 Y105.977 E16.8557
G1 X95.491 Y108.560 E17.0197
G1 X96.057 Y108.560 E17.0451
G1 X98.487 Y106.130 E17.1994
G1 X98.736 Y106.222 E17.2114
G1 X98.931 Y106.252 E17.2202
G1 X96.622 Y108.560 E17.3668
G1 X97.188 Y108.560 E17.3922
G1 X99.421 Y106.327 E17.5339
G1 X99.505 Y106.340 E17.5378
G1 X99.999 Y106.315 E17.5600
G1 X97.754 Y108.560 E17.7025
G1 X98.319 Y108.560 E17.7279
G1 X100.683 Y106.197 E17.8780
G1 X101.035 Y106.106 E17.8944
G1 X101.633 Y105.813 E17.9242
G1 X98.885 Y108.560 E18.0987
G1 X99.451 Y108.560 E18.1241
G1 X101.960 Y106.051 E18.2834
G1 X101.960 Y106.616 E18.3088
G1 X100.016 Y108.560 E18.4322
G1 X100.582 Y108.560 E18.4576
G1 X101.960 Y107.182 E18.5451
G1 X101.960 Y107.748 E18.5705
G1 X101.148 Y108.560 E18.6221
G1 X101.714 Y108.560 E18.6475
G1 X101.960 Y108.314 E18.6631
G92 E0
G1 E-5.0000 F6000
G1 X101.960 Y99.263 F4800
G1 E0.0000 F6000
G92 E0
G1 X101.876 Y99.347 E0.0054 F1440
G1 X101.734 Y99.237 E0.0134
G1 X101.523 Y99.134 E0.0239
G1 X101.960 Y98.697 E0.0517
G1 X101.960 Y98.131 E0.0771
G1 X101.144 Y98.948 E0.1289
G1 X101.035 Y98.894 E0.1343
G1 X100.714 Y98.811 E0.1492
G1 X101.960 Y97.566 E0.2283
G1 X101.960 Y97.000 E0.2537
G1 X100.261 Y98.698 E0.3616
G1 X99.723 Y98.671 E0.3858
G1 X101.960 Y96.434 E0.5279
G1 X101.960 Y95.868 E0.5533
G1 X99.107 Y98.721 E0.7344
G92 E0
G1 E-5.0000 F6000
; layer 2, Z = 0.57
M106 S255
; inner perimeter
G1 X98.822 Y99.109 F4800
G1 Z0.570 F1000
G1 E0.0000 F6000
G92 E0
G1 X98.157 Y99.355 E0.0318 F2424
G1 X97.556 Y99.730 E0.0637
G1 X97.042 Y100.218 E0.0955
G1 X96.637 Y100.800 E0.1273
G1 X96.358 Y101.451 E0.1591
G1 X96.215 Y102.146 E0.1910
G1 X96.215 Y102.854 E0.2228
G1 X96.358 Y103.549 E0.2546
G1 X96.637 Y104.200 E0.2864
G1 X97.042 Y104.782 E0.3183
G1 X97.556 Y105.270 E0.3501
G1 X98.157 Y105.645 E0.3819
G1 X98.822 Y105.891 E0.4137
G1 X99.523 Y105.999 E0.4456
G1 X100.230 Y105.963 E0.4774
G1 X100.917 Y105.785 E0.5092
G1 X101.553 Y105.473 E0.5410
G1 X102.300 Y104.895 E0.5835
G1 X102.300 Y108.900 E0.7633
G1 X92.700 Y108.900 E1.1944
G1 X92.700 Y86.100 E2.2181
G1 X102.300 Y86.100 E2.6492
G1 X102.300 Y100.105 E3.2780
G1 X101.553 Y99.527 E3.3204
G1 X100.917 Y99.215 E3.3523
G1 X100.230 Y99.037 E3.3841
G1 X99.523 Y99.001 E3.4159
G1 X98.822 Y99.109 E3.4477
; outer perimeter
G1 X98.923 Y99.498 F4800
G92 E0
G1 X98.334 Y99.716 E0.0282 F1616
G1 X97.802 Y100.048 E0.0563
G1 X97.347 Y100.480 E0.0845
G1 X96.989 Y100.995 E0.1127
G1 X96.741 Y101.572 E0.1409
G1 X96.615 Y102.186 E0.1690
G1 X96.615 Y102.814 E0.1972
G1 X96.741 Y103.428 E0.2254
G1 X96.989 Y104.005 E0.2536
G1 X97.347 Y104.520 E0.2817
G1 X97.802 Y104.952 E0.3099
G1 X98.334 Y105.284 E0.3381
G1 X98.923 Y105.502 E0.3663
G1 X99.543 Y105.597 E0.3944
G1 X100.170 Y105.565 E0.4226
G1 X100.777 Y105.408 E0.4508
G1 X101.340 Y105.132 E0.4789
G1 X101.837 Y104.748 E0.5071
G1 X102.245 Y104.272 E0.5353
G1 X102.550 Y103.723 E0.5635
G1 X102.700 Y103.244 E0.5860
G1 X102.700 Y109.300 E0.8579
G1 X92.300 Y109.300 E1.3249
G1 X92.300 Y85.700 E2.3846
G1 X102.700 Y85.700 E2.8515
G1 X102.700 Y101.756 E3.5725
G1 X102.550 Y101.277 E3.5950
G1 X102.245 Y100.728 E3.6232
G1 X101.837 Y100.252 E3.6514
G1 X101.340 Y99.868 E3.6795
G1 X100.777 Y99.592 E3.7077
G1 X100.170 Y99.435 E3.7359
G1 X99.543 Y99.403 E3.7641
G1 X98.923 Y99.498 E3.7922
G92 E0
G1 E-5.0000 F6000
; inner perimeter
; outer perimeter
; solid layer
G1 X98.047 Y105.967 F4800
G1 E0.0000 F6000
G92 E0
G1 X100.640 Y108.560 E0.1647 F2585
G1 X101.206 Y108.560 E0.1901
G1 X98.892 Y106.246 E0.3370
G1 X99.505 Y106.340 E0.3649
G1 X99.549 Y106.338 E0.3668
G1 X101.772 Y108.560 E0.5080
G1 X101.960 Y108.560 E0.5164
G1 X101.960 Y108.183 E0.5334
G1 X100.088 Y106.310 E0.6522
G1 X100.282 Y106.300 E0.6610
G1 X100.569 Y106.226 E0.6743
G1 X101.960 Y107.617 E0.7626
G1 X101.960 Y107.051 E0.7880
G1 X101.019 Y106.110 E0.8478
G1 X101.035 Y106.106 E0.8486
G1 X101.401 Y105.926 E0.8668
G1 X101.960 Y106.485 E0.9023
G1 X101.960 Y105.920 E0.9277
G1 X101.773 Y105.733 E0.9396
G1 X93.287 Y108.560 F4800
G92 E0
G1 X93.040 Y108.313 E0.0157 F2585
G1 X93.040 Y107.748 E0.0411
G1 X93.852 Y108.560 E0.0926
G1 X94.418 Y108.560 E0.1180
G1 X93.040 Y107.182 E0.2055
G1 X93.040 Y106.616 E0.2309
G1 X94.984 Y108.560 E0.3543
G1 X95.549 Y108.560 E0.3797
G1 X93.040 Y106.051 E0.5391
G1 X93.040 Y105.485 E0.5645
G1 X96.115 Y108.560 E0.7597
G1 X96.681 Y108.560 E0.7851
G1 X93.040 Y104.919 E1.0163
G1 X93.040 Y104.354 E1.0417
G1 X97.246 Y108.560 E1.3088
G1 X97.812 Y108.560 E1.3342
G1 X93.040 Y103.788 E1.6372
G1 X93.040 Y103.222 E1.6626
G1 X98.378 Y108.560 E2.0016
G1 X98.943 Y108.560 E2.0270
G1 X93.040 Y102.657 E2.4018
G1 X93.040 Y102.091 E2.4272
G1 X99.509 Y108.560 E2.8380
G1 X100.075 Y108.560 E2.8634
G1 X93.040 Y101.525 E3.3101
G1 X93.040 Y100.960 E3.3355
G1 X96.257 Y104.177 E3.5398
G1 X96.031 Y103.651 E3.5655
G1 X95.963 Y103.317 E3.5808
G1 X93.040 Y100.394 E3.7664
G1 X93.040 Y99.828 E3.7918
G1 X95.875 Y102.663 E3.9718
G1 X95.875 Y102.111 E3.9966
G1 X95.877 Y102.100 E3.9971
G1 X93.040 Y99.263 E4.1773
G1 X93.040 Y98.697 E4.2027
G1 X95.974 Y101.630 E4.3890
G1 X96.031 Y101.349 E4.4019
G1 X96.099 Y101.191 E4.4096
G1 X93.040 Y98.131 E4.6039
G1 X93.040 Y97.565 E4.6293
G1 X96.269 Y100.795 E4.8344
G1 X96.338 Y100.634 E4.8422
G1 X96.476 Y100.436 E4.8531
