; G-Code generated by Simplify3D(R) Version 3.0.2
; 1ÔÂ 22, 2016 at 12:46:03 ÉÏÎç
; Settings Summary
;   processName,Process3
;   applyToModels,19
;   profileName,me
;   profileVersion,2015-09-08 10:04:24
;   baseProfile,Default
;   printMaterial,PLA
;   printQuality,Medium
;   printExtruders,
;   extruderName,Extruder 1
;   extruderToolheadNumber,0
;   extruderDiameter,0.4
;   extruderAutoWidth,0
;   extruderWidth,0.4
;   extrusionMultiplier,0.9
;   extruderUseRetract,1
;   extruderRetractionDistance,5
;   extruderExtraRestartDistance,0
;   extruderRetractionZLift,0
;   extruderRetractionSpeed,6000
;   extruderUseCoasting,0
;   extruderCoastingDistance,0.2
;   extruderUseWipe,0
;   extruderWipeDistance,5
;   primaryExtruder,0
;   layerHeight,0.3
;   topSolidLayers,3
;   bottomSolidLayers,3
;   perimeterOutlines,2
;   printPerimetersInsideOut,1
;   startPointOption,2
;   startPointOriginX,0
;   startPointOriginY,0
;   startPointOriginZ,300
;   sequentialIslands,0
;   spiralVaseMode,0
;   firstLayerHeightPercentage,90
;   firstLayerWidthPercentage,100
;   firstLayerUnderspeed,0.5
;   useRaft,0
;   raftExtruder,0
;   raftLayers,3
;   raftOffset,3
;   raftSeparationDistance,0.14
;   raftInfill,85
;   disableRaftBaseLayers,0
;   useSkirt,1
;   skirtExtruder,0
;   skirtLayers,1
;   skirtOutlines,2
;   skirtOffset,10
;   usePrimePillar,0
;   primePillarExtruder,999
;   primePillarWidth,12
;   primePillarLocation,7
;   primePillarSpeedMultiplier,1
;   useOozeShield,0
;   oozeShieldExtruder,999
;   oozeShieldOffset,2
;   oozeShieldOutlines,1
;   oozeShieldSidewallShape,1
;   oozeShieldSidewallAngle,30
;   oozeShieldSpeedMultiplier,1
;   infillExtruder,0
;   internalInfillPattern,Rectilinear
;   externalInfillPattern,Rectilinear
;   infillPercentage,60
;   outlineOverlapPercentage,15
;   infillExtrusionWidthPercentage,100
;   minInfillLength,5
;   infillLayerInterval,1
;   infillAngles,45,-45
;   overlapInfillAngles,0
;   generateSupport,1
;   supportExtruder,0
;   supportInfillPercentage,20
;   supportExtraInflation,0
;   denseSupportLayers,0
;   denseSupportInfillPercentage,70
;   supportLayerInterval,1
;   supportHorizontalPartOffset,0.3
;   supportUpperSeparationLayers,1
;   supportLowerSeparationLayers,1
;   supportType,0
;   supportGridSpacing,4
;   maxOverhangAngle,45
;   supportAngles,0
;   temperatureName,Extruder 1 Temperature,Bed
;   temperatureNumber,0,0
;   temperatureSetpointCount,1,1
;   temperatureSetpointLayers,1,1
;   temperatureSetpointTemperatures,210,75
;   temperatureStabilizeAtStartup,1,1
;   temperatureHeatedBed,0,1
;   temperatureRelayBetweenLayers,0,0
;   temperatureRelayBetweenLoops,0,0
;   fanLayers,1,2
;   fanSpeeds,0,100
;   blipFanToFullPower,0
;   adjustSpeedForCooling,1
;   minSpeedLayerTime,15
;   minCoolingSpeedSlowdown,20
;   increaseFanForCooling,0
;   minFanLayerTime,45
;   maxCoolingFanSpeed,100
;   increaseFanForBridging,0
;   bridgingFanSpeed,100
;   use5D,1
;   relativeEdistances,0
;   allowEaxisZeroing,1
;   independentExtruderAxes,0
;   includeM10123,0
;   stickySupport,1
;   applyToolheadOffsets,0
;   gcodeXoffset,0
;   gcodeYoffset,0
;   gcodeZoffset,0
;   overrideMachineDefinition,1
;   machineTypeOverride,0
;   strokeXoverride,195
;   strokeYoverride,195
;   strokeZoverride,195
;   originOffsetXoverride,0
;   originOffsetYoverride,0
;   originOffsetZoverride,0
;   homeXdirOverride,-1
;   homeYdirOverride,-1
;   homeZdirOverride,-1
;   flipXoverride,1
;   flipYoverride,-1
;   flipZoverride,1
;   toolheadOffsets,0,0|0,0|0,0|0,0|0,0|0,0
;   overrideFirmwareConfiguration,1
;   firmwareTypeOverride,RepRap (Marlin/Repetier/Sprinter)
;   GPXconfigOverride,r2
;   baudRateOverride,115200
;   overridePrinterModels,0
;   printerModelsOverride
;   startingGcode,G28 ; home all axes
;   layerChangeGcode,
;   retractionGcode,
;   toolChangeGcode,
;   endingGcode,M104 S0 ; turn off extruder,M140 S0 ; turn off bed,M84 ; disable motors,G28 X0 Y0
;   createX3G,0
;   celebration,0
;   celebrationSong,Random Song
;   createMB5G,0
;   postProcessing,
;   defaultSpeed,3600
;   outlineUnderspeed,0.5
;   solidInfillUnderspeed,0.8
;   supportUnderspeed,0.8
;   rapidXYspeed,4800
;   rapidZspeed,1000
;   minBridgingArea,50
;   bridgingExtraInflation,0
;   bridgingExtrusionMultiplier,1
;   bridgingSpeedMultiplier,1
;   filamentDiameter,1.75
;   filamentPricePerKg,46
;   filamentDensity,1.25
;   useMinPrintHeight,0
;   minPrintHeight,0
;   useMaxPrintHeight,0
;   maxPrintHeight,0
;   useDiaphragm,0
;   diaphragmLayerInterval,20
;   robustSlicing,1
;   mergeAllIntoSolid,0
;   onlyRetractWhenCrossingOutline,1
;   retractBetweenLayers,1
;   useRetractionMinTravel,0
;   retractionMinTravel,3
;   retractWhileWiping,0
;   onlyWipeOutlines,1
;   avoidCrossingOutline,0
;   maxMovementDetourFactor,3
;   toolChangeRetractionDistance,12
;   toolChangeExtraRestartDistance,-0.5
;   toolChangeRetractionSpeed,600
;   allowThinWallGapFill,1
;   thinWallAllowedOverlapPercentage,10
;   horizontalSizeCompensation,0
G90
M82
M106 S0
M140 S75
M190 S75
M104 S210 T0
M109 S210 T0
G28 ; home all axes
G92 E0
G1 E-5.0000 F6000
G1 Z0.270 F1000
; layer 1, Z = 0.27
T0
; tool H0.300 W0.400
; skirt
G1 X42.018 Y69.491 F4800
G1 E0.0000 F1800
G92 E0
G1 X42.239 Y69.400 E0.0107 F1800
G1 X59.082 Y69.400 E0.7670
G1 X59.225 Y69.436 E0.7737
G1 X63.778 Y71.872 E1.0055
G1 X63.888 Y71.972 E1.0121
G1 X72.173 Y84.400 E1.6828
G1 X112.827 Y84.400 E3.5082
G1 X121.112 Y71.972 E4.1789
G1 X121.222 Y71.872 E4.1856
G1 X125.775 Y69.436 E4.4174
G1 X125.918 Y69.400 E4.4241
G1 X152.761 Y69.400 E5.6293
G1 X152.982 Y69.491 E5.6401
G1 X159.009 Y75.518 E6.0228
G1 X159.100 Y75.739 E6.0335
G1 X159.100 Y119.261 E7.9877
G1 X159.009 Y119.482 E7.9984
G1 X152.982 Y125.509 E8.3811
G1 X152.761 Y125.600 E8.3918
G1 X123.568 Y125.600 E9.7027
G1 X123.458 Y125.579 E9.7077
G1 X119.856 Y124.178 E9.8812
G1 X119.762 Y124.120 E9.8862
G1 X109.377 Y114.600 E10.5188
G1 X80.623 Y114.600 E11.8098
G1 X70.238 Y124.120 E12.4424
G1 X70.144 Y124.178 E12.4474
G1 X66.542 Y125.579 E12.6209
G1 X66.432 Y125.600 E12.6259
G1 X42.239 Y125.600 E13.7123
G1 X42.018 Y125.509 E13.7230
G1 X35.991 Y119.482 E14.1057
G1 X35.900 Y119.261 E14.1164
G1 X35.900 Y75.739 E16.0706
G1 X35.991 Y75.518 E16.0813
G1 X42.018 Y69.491 E16.4640
G1 X42.245 Y69.830 F4800
G92 E0
G1 X42.318 Y69.800 E0.0036 F1800
G1 X59.032 Y69.800 E0.7541
G1 X59.080 Y69.812 E0.7563
G1 X63.546 Y72.202 E0.9837
G1 X63.582 Y72.235 E0.9859
G1 X71.959 Y84.800 E1.6640
G1 X113.041 Y84.800 E3.5086
G1 X121.418 Y72.235 E4.1867
G1 X121.454 Y72.202 E4.1889
G1 X125.920 Y69.812 E4.4163
G1 X125.968 Y69.800 E4.4185
G1 X152.682 Y69.800 E5.6180
G1 X152.755 Y69.830 E5.6216
G1 X158.670 Y75.745 E5.9971
G1 X158.700 Y75.818 E6.0007
G1 X158.700 Y119.182 E7.9478
G1 X158.670 Y119.255 E7.9514
G1 X152.755 Y125.170 E8.3269
G1 X152.682 Y125.200 E8.3305
G1 X123.605 Y125.200 E9.6361
G1 X123.568 Y125.193 E9.6378
G1 X120.036 Y123.819 E9.8079
G1 X120.005 Y123.799 E9.8096
G1 X109.532 Y114.200 E10.4475
G1 X80.468 Y114.200 E11.7525
G1 X69.995 Y123.799 E12.3904
G1 X69.964 Y123.819 E12.3921
G1 X66.432 Y125.193 E12.5622
G1 X66.395 Y125.200 E12.5639
G1 X42.318 Y125.200 E13.6450
G1 X42.245 Y125.170 E13.6486
G1 X36.330 Y119.255 E14.0241
G1 X36.300 Y119.182 E14.0277
G1 X36.300 Y75.818 E15.9748
G1 X36.330 Y75.745 E15.9784
G1 X42.245 Y69.830 E16.3539
G92 E0
G1 E-5.0000 F6000
; inner perimeter
G1 X47.100 Y80.600 F4800
G1 E0.0000 F6000
G92 E0
G1 X56.179 Y80.600 E0.4077 F1350
G1 X66.179 Y95.600 E1.2171
G1 X118.821 Y95.600 E3.5808
G1 X128.821 Y80.600 E4.3903
G1 X147.900 Y80.600 E5.2470
G1 X147.900 Y114.400 E6.7646
G1 X125.733 Y114.400 E7.7599
G1 X113.733 Y103.400 E8.4909
G1 X76.267 Y103.400 E10.1732
G1 X64.267 Y114.400 E10.9041
G1 X47.100 Y114.400 E11.6749
G1 X47.100 Y80.600 E13.1926
; outer perimeter
G1 X46.700 Y80.200 F4800
G92 E0
G1 X56.393 Y80.200 E0.4352 F900
G1 X66.393 Y95.200 E1.2447
G1 X118.607 Y95.200 E3.5892
G1 X128.607 Y80.200 E4.3986
G1 X148.300 Y80.200 E5.2829
G1 X148.300 Y114.800 E6.8365
G1 X125.578 Y114.800 E7.8567
G1 X113.578 Y103.800 E8.5876
G1 X76.422 Y103.800 E10.2560
G1 X64.422 Y114.800 E10.9869
G1 X46.700 Y114.800 E11.7827
G1 X46.700 Y80.200 E13.3362
; inner perimeter
G1 X50.347 Y83.004 F4800
G92 E0
G1 X49.870 Y83.370 E0.0270 F1350
G1 X49.504 Y83.847 E0.0540
G1 X49.273 Y84.403 E0.0811
G1 X49.195 Y85.000 E0.1081
G1 X49.273 Y85.597 E0.1351
G1 X49.504 Y86.153 E0.1621
G1 X49.870 Y86.630 E0.1891
G1 X50.347 Y86.996 E0.2162
G1 X50.903 Y87.227 E0.2432
G1 X51.500 Y87.305 E0.2702
G1 X52.097 Y87.227 E0.2972
G1 X52.653 Y86.996 E0.3242
G1 X53.130 Y86.630 E0.3513
G1 X53.496 Y86.153 E0.3783
G1 X53.727 Y85.597 E0.4053
G1 X53.805 Y85.000 E0.4323
G1 X53.727 Y84.403 E0.4593
G1 X53.496 Y83.847 E0.4864
G1 X53.130 Y83.370 E0.5134
G1 X52.653 Y83.004 E0.5404
G1 X52.097 Y82.773 E0.5674
G1 X51.500 Y82.695 E0.5944
G1 X50.903 Y82.773 E0.6215
G1 X50.347 Y83.004 E0.6485
; outer perimeter
G1 X50.549 Y83.353 F4800
G92 E0
G1 X50.155 Y83.655 E0.0223 F900
G1 X49.853 Y84.049 E0.0446
G1 X49.663 Y84.508 E0.0669
G1 X49.598 Y85.000 E0.0892
G1 X49.663 Y85.492 E0.1115
G1 X49.853 Y85.951 E0.1337
G1 X50.155 Y86.345 E0.1560
G1 X50.549 Y86.647 E0.1783
G1 X51.008 Y86.837 E0.2006
G1 X51.500 Y86.902 E0.2229
G1 X51.992 Y86.837 E0.2452
G1 X52.451 Y86.647 E0.2675
G1 X52.845 Y86.345 E0.2898
G1 X53.147 Y85.951 E0.3121
G1 X53.337 Y85.492 E0.3344
G1 X53.402 Y85.000 E0.3567
G1 X53.337 Y84.508 E0.3789
G1 X53.147 Y84.049 E0.4012
G1 X52.845 Y83.655 E0.4235
G1 X52.451 Y83.353 E0.4458
G1 X51.992 Y83.163 E0.4681
G1 X51.500 Y83.098 E0.4904
G1 X51.008 Y83.163 E0.5127
G1 X50.549 Y83.353 E0.5350
G92 E0
G1 E-5.0000 F6000
; inner perimeter
G1 X64.872 Y102.181 F4800
G1 E0.0000 F6000
G92 E0
G1 X64.198 Y102.698 E0.0382 F1350
G1 X63.681 Y103.372 E0.0763
G1 X63.356 Y104.158 E0.1145
G1 X63.245 Y105.000 E0.1526
G1 X63.356 Y105.843 E0.1908
G1 X63.681 Y106.628 E0.2289
G1 X64.198 Y107.302 E0.2671
G1 X64.872 Y107.819 E0.3052
G1 X65.657 Y108.144 E0.3434
G1 X66.500 Y108.255 E0.3816
G1 X67.342 Y108.144 E0.4197
G1 X68.128 Y107.819 E0.4579
G1 X68.802 Y107.302 E0.4960
G1 X69.319 Y106.628 E0.5342
G1 X69.644 Y105.843 E0.5723
G1 X69.755 Y105.000 E0.6105
G1 X69.644 Y104.157 E0.6486
G1 X69.319 Y103.372 E0.6868
G1 X68.802 Y102.698 E0.7250
G1 X68.128 Y102.181 E0.7631
G1 X67.342 Y101.856 E0.8013
G1 X66.500 Y101.745 E0.8394
G1 X65.657 Y101.856 E0.8776
G1 X64.872 Y102.181 E0.9157
; outer perimeter
G1 X65.074 Y102.530 F4800
G92 E0
G1 X64.484 Y102.984 E0.0334 F900
G1 X64.030 Y103.574 E0.0669
G1 X63.745 Y104.262 E0.1003
G1 X63.648 Y105.000 E0.1337
G1 X63.745 Y105.738 E0.1671
G1 X64.030 Y106.426 E0.2006
G1 X64.484 Y107.016 E0.2340
G1 X65.074 Y107.470 E0.2674
G1 X65.762 Y107.755 E0.3008
G1 X66.500 Y107.852 E0.3343
G1 X67.238 Y107.755 E0.3677
G1 X67.926 Y107.470 E0.4011
G1 X68.516 Y107.016 E0.4345
G1 X68.970 Y106.426 E0.4680
G1 X69.255 Y105.738 E0.5014
G1 X69.352 Y105.000 E0.5348
G1 X69.255 Y104.262 E0.5683
G1 X68.970 Y103.574 E0.6017
G1 X68.516 Y102.984 E0.6351
G1 X67.926 Y102.530 E0.6685
G1 X67.238 Y102.245 E0.7020
G1 X66.500 Y102.148 E0.7354
G1 X65.762 Y102.245 E0.7688
G1 X65.074 Y102.530 E0.8022
G92 E0
G1 E-5.0000 F6000
; inner perimeter
G1 X125.356 Y104.158 F4800
G1 E0.0000 F6000
G92 E0
G1 X125.245 Y105.000 E0.0382 F1350
G1 X125.356 Y105.843 E0.0763
G1 X125.681 Y106.628 E0.1145
G1 X126.198 Y107.302 E0.1526
G1 X126.872 Y107.819 E0.1908
G1 X127.657 Y108.144 E0.2289
G1 X128.500 Y108.255 E0.2671
G1 X129.343 Y108.144 E0.3052
G1 X130.128 Y107.819 E0.3434
G1 X130.802 Y107.302 E0.3816
G1 X131.319 Y106.628 E0.4197
G1 X131.644 Y105.843 E0.4579
G1 X131.755 Y105.000 E0.4960
G1 X131.644 Y104.158 E0.5342
G1 X131.319 Y103.372 E0.5723
G1 X130.802 Y102.698 E0.6105
G1 X130.128 Y102.181 E0.6486
G1 X129.343 Y101.856 E0.6868
G1 X128.500 Y101.745 E0.7250
G1 X127.657 Y101.856 E0.7631
G1 X126.872 Y102.181 E0.8013
G1 X126.198 Y102.698 E0.8394
G1 X125.681 Y103.372 E0.8776
G1 X125.356 Y104.157 E0.9157
; outer perimeter
G1 X125.745 Y104.262 F4800
G92 E0
G1 X125.648 Y105.000 E0.0334 F900
G1 X125.745 Y105.738 E0.0669
G1 X126.030 Y106.426 E0.1003
G1 X126.484 Y107.016 E0.1337
G1 X127.074 Y107.470 E0.1671
G1 X127.762 Y107.755 E0.2006
G1 X128.500 Y107.852 E0.2340
G1 X129.238 Y107.755 E0.2674
G1 X129.926 Y107.470 E0.3008
G1 X130.516 Y107.016 E0.3343
G1 X130.970 Y106.426 E0.3677
G1 X131.255 Y105.738 E0.4011
G1 X131.352 Y105.000 E0.4345
G1 X131.255 Y104.262 E0.4680
G1 X130.970 Y103.574 E0.5014
G1 X130.516 Y102.984 E0.5348
G1 X129.926 Y102.530 E0.5683
G1 X129.238 Y102.245 E0.6017
G1 X128.500 Y102.148 E0.6351
G1 X127.762 Y102.245 E0.6685
G1 X127.074 Y102.530 E0.7020
G1 X126.484 Y102.984 E0.7354
G1 X126.030 Y103.574 E0.7688
G1 X125.745 Y104.262 E0.8022
; inner perimeter
G1 X131.773 Y84.403 F4800
G92 E0
G1 X131.695 Y85.000 E0.0270 F1350
G1 X131.773 Y85.597 E0.0540
G1 X132.004 Y86.153 E0.0811
G1 X132.370 Y86.630 E0.1081
G1 X132.847 Y86.996 E0.1351
G1 X133.403 Y87.227 E0.1621
G1 X134.000 Y87.305 E0.1891
G1 X134.597 Y87.227 E0.2162
G1 X135.153 Y86.996 E0.2432
G1 X135.630 Y86.630 E0.2702
G1 X135.996 Y86.153 E0.2972
G1 X136.227 Y85.597 E0.3242
G1 X136.305 Y85.000 E0.3513
G1 X136.227 Y84.403 E0.3783
G1 X135.996 Y83.847 E0.4053
G1 X135.630 Y83.370 E0.4323
G1 X135.153 Y83.004 E0.4593
G1 X134.597 Y82.773 E0.4864
G1 X134.000 Y82.695 E0.5134
G1 X133.403 Y82.773 E0.5404
G1 X132.847 Y83.004 E0.5674
G1 X132.370 Y83.370 E0.5944
G1 X132.004 Y83.847 E0.6215
G1 X131.773 Y84.403 E0.6485
; outer perimeter
G1 X132.163 Y84.508 F4800
G92 E0
G1 X132.098 Y85.000 E0.0223 F900
G1 X132.163 Y85.492 E0.0446
G1 X132.353 Y85.951 E0.0669
G1 X132.655 Y86.345 E0.0892
G1 X133.049 Y86.647 E0.1115
G1 X133.508 Y86.837 E0.1337
G1 X134.000 Y86.902 E0.1560
G1 X134.492 Y86.837 E0.1783
G1 X134.951 Y86.647 E0.2006
G1 X135.345 Y86.345 E0.2229
G1 X135.647 Y85.951 E0.2452
G1 X135.837 Y85.492 E0.2675
G1 X135.902 Y85.000 E0.2898
G1 X135.837 Y84.508 E0.3121
G1 X135.647 Y84.049 E0.3344
G1 X135.345 Y83.655 E0.3567
G1 X134.951 Y83.353 E0.3790
G1 X134.492 Y83.163 E0.4012
G1 X134.000 Y83.098 E0.4235
G1 X133.508 Y83.163 E0.4458
G1 X133.049 Y83.353 E0.4681
G1 X132.655 Y83.655 E0.4904
G1 X132.353 Y84.049 E0.5127
G1 X132.163 Y84.508 E0.5350
; solid layer
G1 X133.515 Y82.416 F4800
G92 E0
G1 X134.990 Y80.940 E0.0937 F1440
G1 X135.556 Y80.940 E0.1191
G1 X134.127 Y82.369 E0.2098
G1 X134.627 Y82.434 E0.2325
G1 X136.122 Y80.940 E0.3274
G1 X136.687 Y80.940 E0.3528
G1 X135.039 Y82.589 E0.4575
G1 X135.324 Y82.707 E0.4713
G1 X135.416 Y82.777 E0.4765
G1 X137.253 Y80.940 E0.5932
G1 X137.819 Y80.940 E0.6186
G1 X135.736 Y83.023 E0.7508
G1 X135.872 Y83.127 E0.7586
G1 X136.013 Y83.311 E0.7689
G1 X138.385 Y80.940 E0.9195
G1 X138.950 Y80.940 E0.9449
G1 X136.259 Y83.631 E1.1158
G1 X136.293 Y83.676 E1.1183
G1 X136.436 Y84.020 E1.1351
G1 X139.516 Y80.940 E1.3306
G1 X140.082 Y80.940 E1.3560
G1 X136.575 Y84.446 E1.5787
G1 X136.641 Y84.946 E1.6013
G1 X140.647 Y80.940 E1.8557
G1 X141.213 Y80.940 E1.8811
G1 X136.572 Y85.581 E2.1759
G92 E0
G1 E-5.0000 F6000
G1 X128.342 Y81.931 F4800
G1 E0.0000 F6000
G92 E0
G1 X129.334 Y80.940 E0.0630 F1440
G1 X129.899 Y80.940 E0.0884
G1 X127.211 Y83.628 E0.2591
G1 X126.079 Y85.325 E0.3506
G1 X130.465 Y80.940 E0.6291
G1 X131.031 Y80.940 E0.6545
G1 X124.948 Y87.023 E1.0408
G1 X123.817 Y88.720 E1.1323
G1 X131.596 Y80.940 E1.6264
G1 X132.162 Y80.940 E1.6518
G1 X122.685 Y90.417 E2.2535
G1 X121.554 Y92.114 E2.3451
G1 X132.728 Y80.940 E3.0546
G1 X133.293 Y80.940 E3.0800
G1 X120.423 Y93.811 E3.8973
G1 X128.045 Y101.462 F4800
G92 E0
G1 X147.560 Y81.947 E1.2392 F1440
G1 X147.560 Y82.513 E1.2646
G1 X128.651 Y101.422 E2.4653
G1 X129.151 Y101.488 E2.4880
G1 X147.560 Y83.078 E3.6570
G1 X147.560 Y83.644 E3.6824
G1 X129.607 Y101.597 E4.8224
G1 X130.007 Y101.763 E4.8418
G1 X147.560 Y84.210 E5.9565
G1 X147.560 Y84.775 E5.9819
G1 X130.385 Y101.950 E7.0725
G1 X130.705 Y102.196 E7.0906
G1 X147.560 Y85.341 E8.1608
G1 X147.560 Y85.907 E8.1862
G1 X131.025 Y102.441 E9.2362
G1 X131.044 Y102.456 E9.2373
G1 X131.275 Y102.757 E9.2543
G1 X147.560 Y86.472 E10.2884
G1 X147.560 Y87.038 E10.3138
G1 X131.521 Y103.077 E11.3322
G1 X131.616 Y103.201 E11.3393
