; G-Code generated by Simplify3D(R) Version 3.0.2
; 1ÔÂ 22, 2016 at 12:43:24 ÉÏÎç
; Settings Summary
;   processName,Process3
;   applyToModels,6
;   profileName,me
;   profileVersion,2015-09-08 10:04:24
;   baseProfile,Default
;   printMaterial,PLA
;   printQuality,Medium
;   printExtruders,
;   extruderName,Extruder 1
;   extruderToolheadNumber,0
;   extruderDiameter,0.4
;   extruderAutoWidth,0
;   extruderWidth,0.4
;   extrusionMultiplier,0.9
;   extruderUseRetract,1
;   extruderRetractionDistance,5
;   extruderExtraRestartDistance,0
;   extruderRetractionZLift,0
;   extruderRetractionSpeed,6000
;   extruderUseCoasting,0
;   extruderCoastingDistance,0.2
;   extruderUseWipe,0
;   extruderWipeDistance,5
;   primaryExtruder,0
;   layerHeight,0.3
;   topSolidLayers,3
;   bottomSolidLayers,3
;   perimeterOutlines,2
;   printPerimetersInsideOut,1
;   startPointOption,2
;   startPointOriginX,0
;   startPointOriginY,0
;   startPointOriginZ,300
;   sequentialIslands,0
;   spiralVaseMode,0
;   firstLayerHeightPercentage,90
;   firstLayerWidthPercentage,100
;   firstLayerUnderspeed,0.5
;   useRaft,0
;   raftExtruder,0
;   raftLayers,3
;   raftOffset,3
;   raftSeparationDistance,0.14
;   raftInfill,85
;   disableRaftBaseLayers,0
;   useSkirt,1
;   skirtExtruder,0
;   skirtLayers,1
;   skirtOutlines,2
;   skirtOffset,10
;   usePrimePillar,0
;   primePillarExtruder,999
;   primePillarWidth,12
;   primePillarLocation,7
;   primePillarSpeedMultiplier,1
;   useOozeShield,0
;   oozeShieldExtruder,999
;   oozeShieldOffset,2
;   oozeShieldOutlines,1
;   oozeShieldSidewallShape,1
;   oozeShieldSidewallAngle,30
;   oozeShieldSpeedMultiplier,1
;   infillExtruder,0
;   internalInfillPattern,Rectilinear
;   externalInfillPattern,Rectilinear
;   infillPercentage,60
;   outlineOverlapPercentage,15
;   infillExtrusionWidthPercentage,100
;   minInfillLength,5
;   infillLayerInterval,1
;   infillAngles,45,-45
;   overlapInfillAngles,0
;   generateSupport,1
;   supportExtruder,0
;   supportInfillPercentage,20
;   supportExtraInflation,0
;   denseSupportLayers,0
;   denseSupportInfillPercentage,70
;   supportLayerInterval,1
;   supportHorizontalPartOffset,0.3
;   supportUpperSeparationLayers,1
;   supportLowerSeparationLayers,1
;   supportType,0
;   supportGridSpacing,4
;   maxOverhangAngle,45
;   supportAngles,0
;   temperatureName,Extruder 1 Temperature,Bed
;   temperatureNumber,0,0
;   temperatureSetpointCount,1,1
;   temperatureSetpointLayers,1,1
;   temperatureSetpointTemperatures,210,75
;   temperatureStabilizeAtStartup,1,1
;   temperatureHeatedBed,0,1
;   temperatureRelayBetweenLayers,0,0
;   temperatureRelayBetweenLoops,0,0
;   fanLayers,1,2
;   fanSpeeds,0,100
;   blipFanToFullPower,0
;   adjustSpeedForCooling,1
;   minSpeedLayerTime,15
;   minCoolingSpeedSlowdown,20
;   increaseFanForCooling,0
;   minFanLayerTime,45
;   maxCoolingFanSpeed,100
;   increaseFanForBridging,0
;   bridgingFanSpeed,100
;   use5D,1
;   relativeEdistances,0
;   allowEaxisZeroing,1
;   independentExtruderAxes,0
;   includeM10123,0
;   stickySupport,1
;   applyToolheadOffsets,0
;   gcodeXoffset,0
;   gcodeYoffset,0
;   gcodeZoffset,0
;   overrideMachineDefinition,1
;   machineTypeOverride,0
;   strokeXoverride,195
;   strokeYoverride,195
;   strokeZoverride,195
;   originOffsetXoverride,0
;   originOffsetYoverride,0
;   originOffsetZoverride,0
;   homeXdirOverride,-1
;   homeYdirOverride,-1
;   homeZdirOverride,-1
;   flipXoverride,1
;   flipYoverride,-1
;   flipZoverride,1
;   toolheadOffsets,0,0|0,0|0,0|0,0|0,0|0,0
;   overrideFirmwareConfiguration,1
;   firmwareTypeOverride,RepRap (Marlin/Repetier/Sprinter)
;   GPXconfigOverride,r2
;   baudRateOverride,115200
;   overridePrinterModels,0
;   printerModelsOverride
;   startingGcode,G28 ; home all axes
;   layerChangeGcode,
;   retractionGcode,
;   toolChangeGcode,
;   endingGcode,M104 S0 ; turn off extruder,M140 S0 ; turn off bed,M84 ; disable motors,G28 X0 Y0
;   createX3G,0
;   celebration,0
;   celebrationSong,Random Song
;   createMB5G,0
;   postProcessing,
;   defaultSpeed,3600
;   outlineUnderspeed,0.5
;   solidInfillUnderspeed,0.8
;   supportUnderspeed,0.8
;   rapidXYspeed,4800
;   rapidZspeed,1000
;   minBridgingArea,50
;   bridgingExtraInflation,0
;   bridgingExtrusionMultiplier,1
;   bridgingSpeedMultiplier,1
;   filamentDiameter,1.75
;   filamentPricePerKg,46
;   filamentDensity,1.25
;   useMinPrintHeight,0
;   minPrintHeight,0
;   useMaxPrintHeight,0
;   maxPrintHeight,0
;   useDiaphragm,0
;   diaphragmLayerInterval,20
;   robustSlicing,1
;   mergeAllIntoSolid,0
;   onlyRetractWhenCrossingOutline,1
;   retractBetweenLayers,1
;   useRetractionMinTravel,0
;   retractionMinTravel,3
;   retractWhileWiping,0
;   onlyWipeOutlines,1
;   avoidCrossingOutline,0
;   maxMovementDetourFactor,3
;   toolChangeRetractionDistance,12
;   toolChangeExtraRestartDistance,-0.5
;   toolChangeRetractionSpeed,600
;   allowThinWallGapFill,1
;   thinWallAllowedOverlapPercentage,10
;   horizontalSizeCompensation,0
G90
M82
M106 S0
M140 S75
M190 S75
M104 S210 T0
M109 S210 T0
G28 ; home all axes
G92 E0
G1 E-5.0000 F6000
G1 Z0.270 F1000
; layer 1, Z = 0.27
T0
; tool H0.300 W0.400
; skirt
G1 X73.018 Y77.041 F4800
G1 E0.0000 F1800
G92 E0
G1 X73.239 Y76.950 E0.0107 F1800
G1 X121.761 Y76.950 E2.1895
G1 X121.982 Y77.041 E2.2002
G1 X128.009 Y83.068 E2.5829
G1 X128.100 Y83.289 E2.5936
G1 X128.100 Y94.059 E3.0772
G1 X133.009 Y98.968 E3.3889
G1 X133.100 Y99.189 E3.3996
G1 X133.100 Y111.711 E3.9619
G1 X133.009 Y111.932 E3.9726
G1 X126.982 Y117.959 E4.3553
G1 X126.761 Y118.050 E4.3660
G1 X68.239 Y118.050 E6.9938
G1 X68.018 Y117.959 E7.0045
G1 X61.991 Y111.932 E7.3872
G1 X61.900 Y111.711 E7.3979
G1 X61.900 Y99.189 E7.9602
G1 X61.991 Y98.968 E7.9709
G1 X66.900 Y94.059 E8.2826
G1 X66.900 Y83.289 E8.7663
G1 X66.991 Y83.068 E8.7770
G1 X73.018 Y77.041 E9.1597
G1 X73.245 Y77.380 F4800
G92 E0
G1 X73.318 Y77.350 E0.0036 F1800
G1 X121.682 Y77.350 E2.1752
G1 X121.755 Y77.380 E2.1787
G1 X127.670 Y83.295 E2.5543
G1 X127.700 Y83.368 E2.5579
G1 X127.700 Y94.225 E3.0453
G1 X132.670 Y99.195 E3.3609
G1 X132.700 Y99.268 E3.3645
G1 X132.700 Y111.632 E3.9196
G1 X132.670 Y111.705 E3.9232
G1 X126.755 Y117.620 E4.2988
G1 X126.682 Y117.650 E4.3023
G1 X68.318 Y117.650 E6.9229
G1 X68.245 Y117.620 E6.9265
G1 X62.330 Y111.705 E7.3021
G1 X62.300 Y111.632 E7.3056
G1 X62.300 Y99.268 E7.8608
G1 X62.330 Y99.195 E7.8643
G1 X67.300 Y94.225 E8.1799
G1 X67.300 Y83.368 E8.6674
G1 X67.330 Y83.295 E8.6710
G1 X73.245 Y77.380 E9.0465
G92 E0
G1 E-5.0000 F6000
; inner perimeter
G1 X78.100 Y88.150 F4800
G1 E0.0000 F6000
G92 E0
G1 X116.900 Y88.150 E1.7422 F1350
G1 X116.900 Y104.050 E2.4561
G1 X121.900 Y104.050 E2.6806
G1 X121.900 Y106.850 E2.8063
G1 X73.100 Y106.850 E4.9975
G1 X73.100 Y104.050 E5.1232
G1 X78.100 Y104.050 E5.3477
G1 X78.100 Y88.150 E6.0617
; outer perimeter
G1 X77.700 Y87.750 F4800
G92 E0
G1 X117.300 Y87.750 E1.7781 F900
G1 X117.300 Y103.650 E2.4920
G1 X122.300 Y103.650 E2.7165
G1 X122.300 Y107.250 E2.8782
G1 X72.700 Y107.250 E5.1053
G1 X72.700 Y103.650 E5.2669
G1 X77.700 Y103.650 E5.4914
G1 X77.700 Y87.750 E6.2053
; solid layer
G1 X78.440 Y88.841 F4800
G92 E0
G1 X78.791 Y88.490 E0.0223 F1440
G1 X79.357 Y88.490 E0.0477
G1 X78.440 Y89.407 E0.1060
G1 X78.440 Y89.973 E0.1314
G1 X79.923 Y88.490 E0.2255
G1 X80.488 Y88.490 E0.2509
G1 X78.440 Y90.538 E0.3810
G1 X78.440 Y91.104 E0.4064
G1 X81.054 Y88.490 E0.5724
G1 X81.620 Y88.490 E0.5978
G1 X78.440 Y91.670 E0.7997
G1 X78.440 Y92.236 E0.8251
G1 X82.186 Y88.490 E1.0630
G1 X82.751 Y88.490 E1.0884
G1 X78.440 Y92.801 E1.3621
G1 X78.440 Y93.367 E1.3875
G1 X83.317 Y88.490 E1.6972
G1 X83.883 Y88.490 E1.7226
G1 X78.440 Y93.933 E2.0682
G1 X78.440 Y94.498 E2.0936
G1 X84.448 Y88.490 E2.4751
G1 X85.014 Y88.490 E2.5005
G1 X78.440 Y95.064 E2.9180
G1 X78.440 Y95.630 E2.9434
G1 X85.580 Y88.490 E3.3967
G1 X86.145 Y88.490 E3.4221
G1 X78.440 Y96.195 E3.9114
G1 X78.440 Y96.761 E3.9368
G1 X86.711 Y88.490 E4.4620
G1 X87.277 Y88.490 E4.4874
G1 X78.440 Y97.327 E5.0486
G1 X78.440 Y97.892 E5.0740
G1 X87.842 Y88.490 E5.6710
G1 X88.408 Y88.490 E5.6964
G1 X78.440 Y98.458 E6.3294
G1 X78.440 Y99.024 E6.3548
G1 X88.974 Y88.490 E7.0237
G1 X89.539 Y88.490 E7.0491
G1 X78.440 Y99.589 E7.7539
G1 X78.440 Y100.155 E7.7793
G1 X90.105 Y88.490 E8.5200
G1 X90.671 Y88.490 E8.5454
G1 X78.440 Y100.721 E9.3221
G1 X78.440 Y101.287 E9.3475
G1 X91.237 Y88.490 E10.1601
G1 X91.802 Y88.490 E10.1855
G1 X78.440 Y101.852 E11.0340
G1 X78.440 Y102.418 E11.0594
G1 X92.368 Y88.490 E11.9438
G1 X92.934 Y88.490 E11.9692
G1 X78.440 Y102.984 E12.8895
G1 X78.440 Y103.549 E12.9149
G1 X93.499 Y88.490 E13.8712
G1 X94.065 Y88.490 E13.8966
G1 X78.440 Y104.115 E14.8888
G1 X78.440 Y104.390 E14.9011
G1 X78.165 Y104.390 E14.9135
G1 X76.045 Y106.510 E15.0481
G1 X75.479 Y106.510 E15.0735
G1 X77.599 Y104.390 E15.2081
G1 X77.034 Y104.390 E15.2335
G1 X74.914 Y106.510 E15.3681
G1 X74.348 Y106.510 E15.3935
G1 X76.468 Y104.390 E15.5282
G1 X75.902 Y104.390 E15.5536
G1 X73.782 Y106.510 E15.6882
G1 X73.440 Y106.510 E15.7035
G1 X73.440 Y106.287 E15.7136
G1 X75.337 Y104.390 E15.8340
G1 X74.771 Y104.390 E15.8594
G1 X73.440 Y105.721 E15.9439
G1 X73.440 Y105.155 E15.9693
G1 X74.205 Y104.390 E16.0179
G1 X73.639 Y104.390 E16.0433
G1 X73.440 Y104.589 E16.0560
G1 X76.611 Y106.510 F4800
G92 E0
G1 X94.631 Y88.490 E1.1443 F1440
G1 X95.196 Y88.490 E1.1697
G1 X77.176 Y106.510 E2.3139
G1 X77.742 Y106.510 E2.3393
G1 X95.762 Y88.490 E3.4836
G1 X96.328 Y88.490 E3.5090
G1 X78.308 Y106.510 E4.6533
G1 X78.873 Y106.510 E4.6787
G1 X96.893 Y88.490 E5.8229
G1 X97.459 Y88.490 E5.8483
G1 X79.439 Y106.510 E6.9926
G1 X80.005 Y106.510 E7.0180
G1 X98.025 Y88.490 E8.1623
G1 X98.590 Y88.490 E8.1877
G1 X80.570 Y106.510 E9.3319
G1 X81.136 Y106.510 E9.3573
G1 X99.156 Y88.490 E10.5016
G1 X99.722 Y88.490 E10.5270
G1 X81.702 Y106.510 E11.6713
G1 X82.267 Y106.510 E11.6967
G1 X100.287 Y88.490 E12.8409
G1 X100.853 Y88.490 E12.8663
G1 X82.833 Y106.510 E14.0106
G1 X83.399 Y106.510 E14.0360
G1 X101.419 Y88.490 E15.1803
G1 X101.985 Y88.490 E15.2057
G1 X83.965 Y106.510 E16.3499
G1 X84.530 Y106.510 E16.3753
G1 X102.550 Y88.490 E17.5196
G1 X103.116 Y88.490 E17.5450
G1 X85.096 Y106.510 E18.6893
G1 X85.662 Y106.510 E18.7147
G1 X103.682 Y88.490 E19.8589
G1 X104.247 Y88.490 E19.8843
G1 X86.227 Y106.510 E21.0286
G1 X86.793 Y106.510 E21.0540
G1 X104.813 Y88.490 E22.1983
G1 X105.379 Y88.490 E22.2237
G1 X87.359 Y106.510 E23.3679
G1 X87.924 Y106.510 E23.3933
G1 X105.944 Y88.490 E24.5376
G1 X106.510 Y88.490 E24.5630
G1 X88.490 Y106.510 E25.7073
G1 X89.056 Y106.510 E25.7327
G1 X107.076 Y88.490 E26.8770
G1 X107.641 Y88.490 E26.9024
G1 X89.621 Y106.510 E28.0466
G1 X90.187 Y106.510 E28.0720
G1 X108.207 Y88.490 E29.2163
G1 X108.773 Y88.490 E29.2417
G1 X90.753 Y106.510 E30.3860
G1 X91.318 Y106.510 E30.4114
G1 X109.338 Y88.490 E31.5556
G1 X109.904 Y88.490 E31.5810
G1 X91.884 Y106.510 E32.7253
G1 X92.450 Y106.510 E32.7507
G1 X110.470 Y88.490 E33.8950
G1 X111.036 Y88.490 E33.9204
G1 X93.016 Y106.510 E35.0646
G1 X93.581 Y106.510 E35.0900
G1 X111.601 Y88.490 E36.2343
G1 X112.167 Y88.490 E36.2597
G1 X94.147 Y106.510 E37.4040
G1 X94.713 Y106.510 E37.4294
G1 X112.733 Y88.490 E38.5736
G1 X113.298 Y88.490 E38.5990
G1 X95.278 Y106.510 E39.7433
G1 X95.844 Y106.510 E39.7687
G1 X113.864 Y88.490 E40.9130
G1 X114.430 Y88.490 E40.9384
G1 X96.410 Y106.510 E42.0826
G1 X96.975 Y106.510 E42.1080
G1 X114.995 Y88.490 E43.2523
G1 X115.561 Y88.490 E43.2777
G1 X97.541 Y106.510 E44.4220
G1 X98.107 Y106.510 E44.4474
G1 X116.127 Y88.490 E45.5916
G1 X116.560 Y88.490 E45.6111
G1 X116.560 Y88.622 E45.6170
G1 X98.672 Y106.510 E46.7529
G1 X99.238 Y106.510 E46.7783
G1 X116.560 Y89.188 E47.8782
G1 X116.560 Y89.754 E47.9036
G1 X99.804 Y106.510 E48.9677
G1 X100.369 Y106.510 E48.9931
G1 X116.560 Y90.319 E50.0212
G1 X116.560 Y90.885 E50.0466
G1 X100.935 Y106.510 E51.0387
G1 X101.501 Y106.510 E51.0641
G1 X116.560 Y91.451 E52.0204
G1 X116.560 Y92.016 E52.0458
G1 X102.066 Y106.510 E52.9661
G1 X102.632 Y106.510 E52.9915
G1 X116.560 Y92.582 E53.8759
G1 X116.560 Y93.148 E53.9013
G1 X103.198 Y106.510 E54.7498
G1 X103.764 Y106.510 E54.7752
G1 X116.560 Y93.714 E55.5878
G1 X116.560 Y94.279 E55.6132
G1 X104.329 Y106.510 E56.3899
G1 X104.895 Y106.510 E56.4153
G1 X116.560 Y94.845 E57.1560
G1 X116.560 Y95.411 E57.1814
G1 X105.461 Y106.510 E57.8862
G1 X106.026 Y106.510 E57.9116
G1 X116.560 Y95.976 E58.5805
G1 X116.560 Y96.542 E58.6059
G1 X106.592 Y106.510 E59.2389
G1 X107.158 Y106.510 E59.2643
G1 X116.560 Y97.108 E59.8613
G1 X116.560 Y97.673 E59.8867
G1 X107.723 Y106.510 E60.4478
G1 X108.289 Y106.510 E60.4732
G1 X116.560 Y98.239 E60.9984
G1 X116.560 Y98.805 E61.0238
G1 X108.855 Y106.510 E61.5131
G1 X109.420 Y106.510 E61.5385
G1 X116.560 Y99.370 E61.9919
G1 X116.560 Y99.936 E62.0173
G1 X109.986 Y106.510 E62.4347
G1 X110.552 Y106.510 E62.4601
G1 X116.560 Y100.502 E62.8417
G1 X116.560 Y101.067 E62.8671
G1 X111.117 Y106.510 E63.2127
G1 X111.683 Y106.510 E63.2381
G1 X116.560 Y101.633 E63.5477
G1 X116.560 Y102.199 E63.5731
G1 X112.249 Y106.510 E63.8469
G1 X112.815 Y106.510 E63.8723
G1 X116.560 Y102.765 E64.1101
G1 X116.560 Y103.330 E64.1355
G1 X113.380 Y106.510 E64.3375
G1 X113.946 Y106.510 E64.3629
G1 X116.560 Y103.896 E64.5289
G1 X116.560 Y104.390 E64.5510
G1 X116.632 Y104.390 E64.5543
G1 X114.512 Y106.510 E64.6889
G1 X115.077 Y106.510 E64.7143
G1 X117.197 Y104.390 E64.8489
G1 X117.763 Y104.390 E64.8743
G1 X115.643 Y106.510 E65.0089
G1 X116.209 Y106.510 E65.0343
G1 X118.329 Y104.390 E65.1689
G1 X118.894 Y104.390 E65.1943
G1 X116.774 Y106.510 E65.3290
G1 X117.340 Y106.510 E65.3544
G1 X119.460 Y104.390 E65.4890
G1 X120.026 Y104.390 E65.5144
G1 X117.906 Y106.510 E65.6490
G1 X118.471 Y106.510 E65.6744
G1 X120.591 Y104.390 E65.8090
G1 X121.157 Y104.390 E65.8344
G1 X119.037 Y106.510 E65.9690
G1 X119.603 Y106.510 E65.9944
G1 X121.560 Y104.553 E66.1187
G1 X121.560 Y105.118 E66.1441
G1 X120.168 Y106.510 E66.2325
G1 X120.734 Y106.510 E66.2579
G1 X121.560 Y105.684 E66.3103
G1 X121.560 Y106.250 E66.3357
G1 X121.300 Y106.510 E66.3523
G92 E0
G1 E-5.0000 F6000
; layer 2, Z = 0.57
M106 S255
; inner perimeter
G1 X121.900 Y106.850 F4800
G1 Z0.570 F1000
G1 E0.0000 F6000
G92 E0
G1 X73.100 Y106.850 E2.1912 F2700
G1 X73.100 Y104.050 E2.3169
G1 X78.100 Y104.050 E2.5414
G1 X78.100 Y88.150 E3.2553
G1 X116.900 Y88.150 E4.9975
G1 X116.900 Y104.050 E5.7114
G1 X121.900 Y104.050 E5.9359
G1 X121.900 Y106.850 E6.0617
; outer perimeter
G1 X122.300 Y107.250 F4800
G92 E0
G1 X72.700 Y107.250 E2.2271 F1800
G1 X72.700 Y103.650 E2.3887
G1 X77.700 Y103.650 E2.6132
G1 X77.700 Y87.750 E3.3272
G1 X117.300 Y87.750 E5.1053
G1 X117.300 Y103.650 E5.8192
G1 X122.300 Y103.650 E6.0437
G1 X122.300 Y107.250 E6.2053
; solid layer
G1 X121.361 Y104.390 F4800
G92 E0
G1 X121.560 Y104.589 E0.0127 F2880
G1 X121.560 Y105.155 E0.0381
G1 X120.795 Y104.390 E0.0866
G1 X120.229 Y104.390 E0.1120
G1 X121.560 Y105.721 E0.1966
G1 X121.560 Y106.286 E0.2220
G1 X119.664 Y104.390 E0.3424
G1 X119.098 Y104.390 E0.3678
G1 X121.218 Y106.510 E0.5024
G1 X120.652 Y106.510 E0.5278
G1 X118.532 Y104.390 E0.6624
G1 X117.966 Y104.390 E0.6878
G1 X120.086 Y106.510 E0.8224
G1 X119.521 Y106.510 E0.8478
G1 X117.401 Y104.390 E0.9825
G1 X116.835 Y104.390 E1.0079
G1 X118.955 Y106.510 E1.1425
G92 E0
G1 E-5.0000 F6000
G1 X116.209 Y88.490 F4800
G1 E0.0000 F6000
G92 E0
G1 X116.560 Y88.841 E0.0223 F2880
G1 X116.560 Y89.407 E0.0477
G1 X115.643 Y88.490 E0.1059
G1 X115.077 Y88.490 E0.1313
G1 X116.560 Y89.973 E0.2255
G1 X116.560 Y90.538 E0.2509
G1 X114.512 Y88.490 E0.3810
G1 X113.946 Y88.490 E0.4064
G1 X116.560 Y91.104 E0.5724
G1 X116.560 Y91.670 E0.5978
G1 X113.380 Y88.490 E0.7997
G1 X112.814 Y88.490 E0.8251
G1 X116.560 Y92.236 E1.0629
G1 X116.560 Y92.801 E1.0883
G1 X112.249 Y88.490 E1.3621
G1 X111.683 Y88.490 E1.3875
G1 X116.560 Y93.367 E1.6972
G1 X116.560 Y93.933 E1.7226
G1 X111.117 Y88.490 E2.0682
G1 X110.552 Y88.490 E2.0936
G1 X116.560 Y94.498 E2.4751
G1 X116.560 Y95.064 E2.5005
G1 X109.986 Y88.490 E2.9179
G1 X109.420 Y88.490 E2.9433
G1 X116.560 Y95.630 E3.3967
G1 X116.560 Y96.195 E3.4221
