; G-Code generated by Simplify3D(R) Version 3.0.2
; 1ÔÂ 22, 2016 at 12:43:35 ÉÏÎç
; Settings Summary
;   processName,Process3
;   applyToModels,7
;   profileName,me
;   profileVersion,2015-09-08 10:04:24
;   baseProfile,Default
;   printMaterial,PLA
;   printQuality,Medium
;   printExtruders,
;   extruderName,Extruder 1
;   extruderToolheadNumber,0
;   extruderDiameter,0.4
;   extruderAutoWidth,0
;   extruderWidth,0.4
;   extrusionMultiplier,0.9
;   extruderUseRetract,1
;   extruderRetractionDistance,5
;   extruderExtraRestartDistance,0
;   extruderRetractionZLift,0
;   extruderRetractionSpeed,6000
;   extruderUseCoasting,0
;   extruderCoastingDistance,0.2
;   extruderUseWipe,0
;   extruderWipeDistance,5
;   primaryExtruder,0
;   layerHeight,0.3
;   topSolidLayers,3
;   bottomSolidLayers,3
;   perimeterOutlines,2
;   printPerimetersInsideOut,1
;   startPointOption,2
;   startPointOriginX,0
;   startPointOriginY,0
;   startPointOriginZ,300
;   sequentialIslands,0
;   spiralVaseMode,0
;   firstLayerHeightPercentage,90
;   firstLayerWidthPercentage,100
;   firstLayerUnderspeed,0.5
;   useRaft,0
;   raftExtruder,0
;   raftLayers,3
;   raftOffset,3
;   raftSeparationDistance,0.14
;   raftInfill,85
;   disableRaftBaseLayers,0
;   useSkirt,1
;   skirtExtruder,0
;   skirtLayers,1
;   skirtOutlines,2
;   skirtOffset,10
;   usePrimePillar,0
;   primePillarExtruder,999
;   primePillarWidth,12
;   primePillarLocation,7
;   primePillarSpeedMultiplier,1
;   useOozeShield,0
;   oozeShieldExtruder,999
;   oozeShieldOffset,2
;   oozeShieldOutlines,1
;   oozeShieldSidewallShape,1
;   oozeShieldSidewallAngle,30
;   oozeShieldSpeedMultiplier,1
;   infillExtruder,0
;   internalInfillPattern,Rectilinear
;   externalInfillPattern,Rectilinear
;   infillPercentage,60
;   outlineOverlapPercentage,15
;   infillExtrusionWidthPercentage,100
;   minInfillLength,5
;   infillLayerInterval,1
;   infillAngles,45,-45
;   overlapInfillAngles,0
;   generateSupport,1
;   supportExtruder,0
;   supportInfillPercentage,20
;   supportExtraInflation,0
;   denseSupportLayers,0
;   denseSupportInfillPercentage,70
;   supportLayerInterval,1
;   supportHorizontalPartOffset,0.3
;   supportUpperSeparationLayers,1
;   supportLowerSeparationLayers,1
;   supportType,0
;   supportGridSpacing,4
;   maxOverhangAngle,45
;   supportAngles,0
;   temperatureName,Extruder 1 Temperature,Bed
;   temperatureNumber,0,0
;   temperatureSetpointCount,1,1
;   temperatureSetpointLayers,1,1
;   temperatureSetpointTemperatures,210,75
;   temperatureStabilizeAtStartup,1,1
;   temperatureHeatedBed,0,1
;   temperatureRelayBetweenLayers,0,0
;   temperatureRelayBetweenLoops,0,0
;   fanLayers,1,2
;   fanSpeeds,0,100
;   blipFanToFullPower,0
;   adjustSpeedForCooling,1
;   minSpeedLayerTime,15
;   minCoolingSpeedSlowdown,20
;   increaseFanForCooling,0
;   minFanLayerTime,45
;   maxCoolingFanSpeed,100
;   increaseFanForBridging,0
;   bridgingFanSpeed,100
;   use5D,1
;   relativeEdistances,0
;   allowEaxisZeroing,1
;   independentExtruderAxes,0
;   includeM10123,0
;   stickySupport,1
;   applyToolheadOffsets,0
;   gcodeXoffset,0
;   gcodeYoffset,0
;   gcodeZoffset,0
;   overrideMachineDefinition,1
;   machineTypeOverride,0
;   strokeXoverride,195
;   strokeYoverride,195
;   strokeZoverride,195
;   originOffsetXoverride,0
;   originOffsetYoverride,0
;   originOffsetZoverride,0
;   homeXdirOverride,-1
;   homeYdirOverride,-1
;   homeZdirOverride,-1
;   flipXoverride,1
;   flipYoverride,-1
;   flipZoverride,1
;   toolheadOffsets,0,0|0,0|0,0|0,0|0,0|0,0
;   overrideFirmwareConfiguration,1
;   firmwareTypeOverride,RepRap (Marlin/Repetier/Sprinter)
;   GPXconfigOverride,r2
;   baudRateOverride,115200
;   overridePrinterModels,0
;   printerModelsOverride
;   startingGcode,G28 ; home all axes
;   layerChangeGcode,
;   retractionGcode,
;   toolChangeGcode,
;   endingGcode,M104 S0 ; turn off extruder,M140 S0 ; turn off bed,M84 ; disable motors,G28 X0 Y0
;   createX3G,0
;   celebration,0
;   celebrationSong,Random Song
;   createMB5G,0
;   postProcessing,
;   defaultSpeed,3600
;   outlineUnderspeed,0.5
;   solidInfillUnderspeed,0.8
;   supportUnderspeed,0.8
;   rapidXYspeed,4800
;   rapidZspeed,1000
;   minBridgingArea,50
;   bridgingExtraInflation,0
;   bridgingExtrusionMultiplier,1
;   bridgingSpeedMultiplier,1
;   filamentDiameter,1.75
;   filamentPricePerKg,46
;   filamentDensity,1.25
;   useMinPrintHeight,0
;   minPrintHeight,0
;   useMaxPrintHeight,0
;   maxPrintHeight,0
;   useDiaphragm,0
;   diaphragmLayerInterval,20
;   robustSlicing,1
;   mergeAllIntoSolid,0
;   onlyRetractWhenCrossingOutline,1
;   retractBetweenLayers,1
;   useRetractionMinTravel,0
;   retractionMinTravel,3
;   retractWhileWiping,0
;   onlyWipeOutlines,1
;   avoidCrossingOutline,0
;   maxMovementDetourFactor,3
;   toolChangeRetractionDistance,12
;   toolChangeExtraRestartDistance,-0.5
;   toolChangeRetractionSpeed,600
;   allowThinWallGapFill,1
;   thinWallAllowedOverlapPercentage,10
;   horizontalSizeCompensation,0
G90
M82
M106 S0
M140 S75
M190 S75
M104 S210 T0
M109 S210 T0
G28 ; home all axes
G92 E0
G1 E-5.0000 F6000
G1 Z0.270 F1000
; layer 1, Z = 0.27
T0
; tool H0.300 W0.400
; skirt
G1 X62.018 Y65.991 F4800
G1 E0.0000 F1800
G92 E0
G1 X62.239 Y65.900 E0.0107 F1800
G1 X132.761 Y65.900 E3.1773
G1 X132.982 Y65.991 E3.1880
G1 X139.009 Y72.018 E3.5707
G1 X139.100 Y72.239 E3.5814
G1 X139.100 Y91.396 E4.4416
G1 X139.009 Y91.617 E4.4523
G1 X132.982 Y97.644 E4.8350
G1 X132.761 Y97.735 E4.8458
G1 X128.291 Y97.735 E5.0465
G1 X125.517 Y100.509 E5.2226
G1 X125.296 Y100.600 E5.2333
G1 X118.735 Y100.600 E5.5280
G1 X118.735 Y122.761 E6.5230
G1 X118.644 Y122.982 E6.5338
G1 X112.617 Y129.009 E6.9164
G1 X112.396 Y129.100 E6.9272
G1 X62.239 Y129.100 E9.1793
G1 X62.018 Y129.009 E9.1900
G1 X55.991 Y122.982 E9.5727
G1 X55.900 Y122.761 E9.5834
G1 X55.900 Y72.239 E11.8520
G1 X55.991 Y72.018 E11.8627
G1 X62.018 Y65.991 E12.2454
G1 X62.245 Y66.330 F4800
G92 E0
G1 X62.318 Y66.300 E0.0036 F1800
G1 X132.682 Y66.300 E3.1630
G1 X132.755 Y66.330 E3.1666
G1 X138.670 Y72.245 E3.5421
G1 X138.700 Y72.318 E3.5457
G1 X138.700 Y91.317 E4.3988
G1 X138.670 Y91.390 E4.4023
G1 X132.755 Y97.305 E4.7779
G1 X132.682 Y97.335 E4.7814
G1 X128.125 Y97.335 E4.9861
G1 X125.290 Y100.170 E5.1661
G1 X125.217 Y100.200 E5.1696
G1 X118.335 Y100.200 E5.4786
G1 X118.335 Y122.682 E6.4881
G1 X118.305 Y122.755 E6.4917
G1 X112.390 Y128.670 E6.8672
G1 X112.317 Y128.700 E6.8708
G1 X62.318 Y128.700 E9.1158
G1 X62.245 Y128.670 E9.1194
G1 X56.330 Y122.755 E9.4949
G1 X56.300 Y122.682 E9.4985
G1 X56.300 Y72.318 E11.7599
G1 X56.330 Y72.245 E11.7635
G1 X62.245 Y66.330 E12.1390
G92 E0
G1 E-5.0000 F6000
; inner perimeter
G1 X67.100 Y77.100 F4800
G1 E0.0000 F6000
G92 E0
G1 X127.900 Y77.100 E2.7300 F1350
G1 X127.900 Y86.535 E3.1536
G1 X120.435 Y86.535 E3.4888
G1 X120.435 Y89.400 E3.6175
G1 X116.565 Y89.400 E3.7912
G1 X116.565 Y86.535 E3.9199
G1 X107.535 Y86.535 E4.3253
G1 X107.535 Y117.900 E5.7337
G1 X67.100 Y117.900 E7.5492
G1 X67.100 Y77.100 E9.3812
; outer perimeter
G1 X66.700 Y76.700 F4800
G92 E0
G1 X128.300 Y76.700 E2.7659 F900
G1 X128.300 Y86.935 E3.2255
G1 X120.835 Y86.935 E3.5607
G1 X120.835 Y89.800 E3.6893
G1 X116.165 Y89.800 E3.8990
G1 X116.165 Y86.935 E4.0276
G1 X107.935 Y86.935 E4.3972
G1 X107.935 Y118.300 E5.8055
G1 X66.700 Y118.300 E7.6570
G1 X66.700 Y76.700 E9.5249
; inner perimeter
G1 X70.897 Y80.090 F4800
G92 E0
G1 X70.441 Y80.441 E0.0258 F1350
G1 X70.090 Y80.897 E0.0517
G1 X69.870 Y81.429 E0.0775
G1 X69.795 Y82.000 E0.1034
G1 X69.870 Y82.571 E0.1292
G1 X70.090 Y83.103 E0.1551
G1 X70.441 Y83.559 E0.1809
G1 X70.897 Y83.910 E0.2068
G1 X71.429 Y84.130 E0.2326
G1 X72.000 Y84.205 E0.2585
G1 X72.571 Y84.130 E0.2843
G1 X73.103 Y83.910 E0.3102
G1 X73.559 Y83.559 E0.3360
G1 X73.910 Y83.103 E0.3619
G1 X74.130 Y82.571 E0.3877
G1 X74.205 Y82.000 E0.4136
G1 X74.130 Y81.429 E0.4394
G1 X73.910 Y80.897 E0.4653
G1 X73.559 Y80.441 E0.4911
G1 X73.103 Y80.090 E0.5170
G1 X72.571 Y79.870 E0.5428
G1 X72.000 Y79.795 E0.5687
G1 X71.429 Y79.870 E0.5945
G1 X70.897 Y80.090 E0.6204
; outer perimeter
G1 X71.099 Y80.440 F4800
G92 E0
G1 X70.726 Y80.726 E0.0211 F900
G1 X70.440 Y81.099 E0.0422
G1 X70.260 Y81.534 E0.0634
G1 X70.198 Y82.000 E0.0845
G1 X70.260 Y82.466 E0.1056
G1 X70.440 Y82.901 E0.1267
G1 X70.726 Y83.274 E0.1478
G1 X71.099 Y83.560 E0.1690
G1 X71.534 Y83.740 E0.1901
G1 X72.000 Y83.802 E0.2112
G1 X72.466 Y83.740 E0.2323
G1 X72.901 Y83.560 E0.2534
G1 X73.274 Y83.274 E0.2745
G1 X73.560 Y82.901 E0.2957
G1 X73.740 Y82.466 E0.3168
G1 X73.802 Y82.000 E0.3379
G1 X73.740 Y81.534 E0.3590
G1 X73.560 Y81.099 E0.3801
G1 X73.274 Y80.726 E0.4013
G1 X72.901 Y80.440 E0.4224
G1 X72.466 Y80.260 E0.4435
G1 X72.000 Y80.198 E0.4646
G1 X71.534 Y80.260 E0.4857
G1 X71.099 Y80.440 E0.5069
G92 E0
G1 E-5.0000 F6000
; inner perimeter
G1 X79.170 Y87.389 F4800
G1 E0.0000 F6000
G92 E0
G1 X77.932 Y88.552 E0.0762 F1350
G1 X76.917 Y89.778 E0.1477
G1 X76.007 Y91.212 E0.2240
G1 X75.330 Y92.652 E0.2955
G1 X74.818 Y94.216 E0.3693
G1 X74.500 Y95.884 E0.4456
G1 X74.400 Y97.473 E0.5171
G1 X74.499 Y99.115 E0.5909
G1 X74.818 Y100.784 E0.6672
G1 X75.330 Y102.348 E0.7411
G1 X76.007 Y103.788 E0.8126
G1 X76.917 Y105.222 E0.8888
G1 X77.969 Y106.488 E0.9627
G1 X79.170 Y107.611 E1.0366
G1 X80.458 Y108.546 E1.1080
G1 X81.897 Y109.342 E1.1819
G1 X83.425 Y109.951 E1.2557
G1 X85.019 Y110.363 E1.3296
G1 X86.704 Y110.576 E1.4059
G1 X88.341 Y110.574 E1.4794
G1 X89.938 Y110.372 E1.5517
G1 X91.565 Y109.954 E1.6271
G1 X93.062 Y109.362 E1.6994
G1 X94.504 Y108.571 E1.7733
G1 X95.864 Y107.583 E1.8487
G1 X97.038 Y106.481 E1.9210
G1 X98.088 Y105.215 E1.9949
G1 X98.989 Y103.796 E2.0703
G1 X99.674 Y102.339 E2.1426
G1 X100.184 Y100.776 E2.2165
G1 X100.495 Y99.160 E2.2903
G1 X100.601 Y97.518 E2.3642
G1 X100.495 Y95.840 E2.4397
G1 X100.185 Y94.225 E2.5136
G1 X99.687 Y92.694 E2.5859
G1 X98.971 Y91.173 E2.6613
G1 X98.088 Y89.785 E2.7352
G1 X97.062 Y88.545 E2.8075
G1 X95.837 Y87.395 E2.8829
G1 X94.535 Y86.448 E2.9552
G1 X93.094 Y85.654 E3.0291
G1 X91.532 Y85.035 E3.1045
G1 X89.973 Y84.635 E3.1768
G1 X88.340 Y84.426 E3.2507
G1 X86.651 Y84.427 E3.3265
G1 X85.072 Y84.627 E3.3980
G1 X83.478 Y85.032 E3.4719
G1 X81.898 Y85.658 E3.5482
G1 X80.458 Y86.454 E3.6221
G1 X79.170 Y87.389 E3.6935
; outer perimeter
G1 X79.425 Y87.698 F4800
G92 E0
G1 X78.224 Y88.826 E0.0740 F900
G1 X77.241 Y90.014 E0.1432
G1 X76.359 Y91.405 E0.2172
G1 X75.702 Y92.800 E0.2864
G1 X75.206 Y94.316 E0.3580
G1 X74.897 Y95.935 E0.4320
G1 X74.800 Y97.473 E0.5013
G1 X74.897 Y99.065 E0.5729
G1 X75.206 Y100.684 E0.6469
G1 X75.702 Y102.200 E0.7185
G1 X76.359 Y103.595 E0.7877
G1 X77.242 Y104.986 E0.8617
G1 X78.261 Y106.213 E0.9333
G1 X79.426 Y107.302 E1.0049
G1 X80.673 Y108.208 E1.0741
G1 X82.068 Y108.979 E1.1457
G1 X83.550 Y109.570 E1.2173
G1 X85.094 Y109.970 E1.2890
G1 X86.729 Y110.176 E1.3630
G1 X88.315 Y110.174 E1.4342
G1 X89.862 Y109.978 E1.5042
G1 X91.441 Y109.573 E1.5774
G1 X92.891 Y108.999 E1.6474
G1 X94.290 Y108.232 E1.7190
G1 X95.609 Y107.274 E1.7922
G1 X96.746 Y106.207 E1.8622
G1 X97.764 Y104.979 E1.9339
G1 X98.637 Y103.603 E2.0071
G1 X99.301 Y102.192 E2.0771
G1 X99.796 Y100.676 E2.1487
G1 X100.097 Y99.110 E2.2203
G1 X100.200 Y97.518 E2.2919
G1 X100.097 Y95.891 E2.3651
G1 X99.796 Y94.324 E2.4367
G1 X99.315 Y92.841 E2.5068
G1 X98.620 Y91.366 E2.5800
G1 X97.764 Y90.021 E2.6516
G1 X96.770 Y88.819 E2.7216
G1 X95.582 Y87.703 E2.7948
G1 X94.320 Y86.787 E2.8648
G1 X92.923 Y86.016 E2.9364
G1 X91.408 Y85.416 E3.0096
G1 X89.897 Y85.028 E3.0796
G1 X88.315 Y84.826 E3.1513
G1 X86.676 Y84.827 E3.2248
G1 X85.147 Y85.020 E3.2941
G1 X83.601 Y85.414 E3.3657
G1 X82.069 Y86.020 E3.4397
G1 X80.673 Y86.792 E3.5113
G1 X79.425 Y87.698 E3.5805
G92 E0
G1 E-5.0000 F6000
; inner perimeter
G1 X100.869 Y81.432 F4800
G1 E0.0000 F6000
G92 E0
G1 X100.795 Y82.003 E0.0258 F1350
G1 X100.871 Y82.573 E0.0517
G1 X101.092 Y83.105 E0.0775
G1 X101.443 Y83.561 E0.1034
G1 X101.900 Y83.911 E0.1292
G1 X102.432 Y84.131 E0.1551
G1 X103.003 Y84.205 E0.1809
G1 X103.573 Y84.129 E0.2068
G1 X104.105 Y83.908 E0.2326
G1 X104.561 Y83.557 E0.2585
G1 X104.911 Y83.100 E0.2843
G1 X105.131 Y82.568 E0.3102
G1 X105.205 Y81.997 E0.3360
G1 X105.129 Y81.427 E0.3619
G1 X104.908 Y80.895 E0.3877
G1 X104.557 Y80.439 E0.4136
G1 X104.100 Y80.089 E0.4394
G1 X103.568 Y79.869 E0.4653
G1 X102.997 Y79.795 E0.4911
G1 X102.427 Y79.871 E0.5170
G1 X101.895 Y80.092 E0.5428
G1 X101.439 Y80.443 E0.5686
G1 X101.089 Y80.900 E0.5945
G1 X100.869 Y81.432 E0.6203
; outer perimeter
G1 X101.259 Y81.536 F4800
G92 E0
G1 X101.198 Y82.002 E0.0211 F900
G1 X101.260 Y82.468 E0.0422
G1 X101.441 Y82.903 E0.0634
G1 X101.728 Y83.276 E0.0845
G1 X102.101 Y83.561 E0.1056
G1 X102.536 Y83.741 E0.1267
G1 X103.002 Y83.802 E0.1478
G1 X103.469 Y83.740 E0.1689
G1 X103.903 Y83.559 E0.1901
G1 X104.276 Y83.272 E0.2112
G1 X104.561 Y82.899 E0.2323
G1 X104.741 Y82.464 E0.2534
G1 X104.802 Y81.998 E0.2745
G1 X104.740 Y81.531 E0.2957
G1 X104.559 Y81.097 E0.3168
G1 X104.272 Y80.724 E0.3379
G1 X103.899 Y80.439 E0.3590
G1 X103.464 Y80.259 E0.3801
G1 X102.998 Y80.198 E0.4012
G1 X102.531 Y80.260 E0.4224
G1 X102.097 Y80.441 E0.4435
G1 X101.724 Y80.728 E0.4646
G1 X101.439 Y81.101 E0.4857
G1 X101.259 Y81.536 E0.5068
; inner perimeter
G1 X101.439 Y111.443 F4800
G92 E0
G1 X101.089 Y111.900 E0.0258 F1350
G1 X100.869 Y112.432 E0.0517
G1 X100.795 Y113.003 E0.0775
G1 X100.871 Y113.573 E0.1034
G1 X101.092 Y114.105 E0.1292
G1 X101.443 Y114.561 E0.1551
G1 X101.900 Y114.911 E0.1809
G1 X102.432 Y115.131 E0.2068
G1 X103.003 Y115.205 E0.2326
G1 X103.573 Y115.129 E0.2585
G1 X104.105 Y114.908 E0.2843
G1 X104.561 Y114.557 E0.3102
G1 X104.911 Y114.100 E0.3360
G1 X105.131 Y113.568 E0.3619
G1 X105.205 Y112.997 E0.3877
G1 X105.129 Y112.427 E0.4136
G1 X104.908 Y111.895 E0.4394
G1 X104.557 Y111.439 E0.4653
G1 X104.100 Y111.089 E0.4911
G1 X103.568 Y110.869 E0.5170
G1 X102.997 Y110.795 E0.5428
G1 X102.427 Y110.871 E0.5686
G1 X101.895 Y111.092 E0.5945
G1 X101.439 Y111.443 E0.6203
; outer perimeter
G1 X101.724 Y111.728 F4800
G92 E0
G1 X101.439 Y112.101 E0.0211 F900
G1 X101.259 Y112.536 E0.0422
G1 X101.198 Y113.002 E0.0634
G1 X101.260 Y113.469 E0.0845
G1 X101.441 Y113.903 E0.1056
G1 X101.728 Y114.276 E0.1267
G1 X102.101 Y114.561 E0.1478
G1 X102.536 Y114.741 E0.1689
G1 X103.002 Y114.802 E0.1901
G1 X103.469 Y114.740 E0.2112
G1 X103.903 Y114.559 E0.2323
G1 X104.276 Y114.272 E0.2534
G1 X104.561 Y113.899 E0.2745
G1 X104.741 Y113.464 E0.2957
G1 X104.802 Y112.998 E0.3168
G1 X104.740 Y112.531 E0.3379
G1 X104.559 Y112.097 E0.3590
G1 X104.272 Y111.724 E0.3801
G1 X103.899 Y111.439 E0.4013
G1 X103.464 Y111.259 E0.4224
G1 X102.998 Y111.198 E0.4435
G1 X102.531 Y111.260 E0.4646
G1 X102.097 Y111.441 E0.4857
G1 X101.724 Y111.728 E0.5068
; inner perimeter
G1 X71.429 Y110.870 F4800
G92 E0
G1 X70.897 Y111.090 E0.0258 F1350
G1 X70.441 Y111.441 E0.0517
G1 X70.090 Y111.897 E0.0775
G1 X69.870 Y112.429 E0.1034
G1 X69.795 Y113.000 E0.1292
G1 X69.870 Y113.571 E0.1551
G1 X70.090 Y114.103 E0.1809
G1 X70.441 Y114.559 E0.2068
G1 X70.897 Y114.910 E0.2326
G1 X71.429 Y115.130 E0.2585
G1 X72.000 Y115.205 E0.2843
G1 X72.571 Y115.130 E0.3102
G1 X73.103 Y114.910 E0.3360
G1 X73.559 Y114.559 E0.3619
G1 X73.910 Y114.103 E0.3877
G1 X74.130 Y113.571 E0.4136
G1 X74.205 Y113.000 E0.4394
G1 X74.130 Y112.429 E0.4653
G1 X73.910 Y111.897 E0.4911
G1 X73.559 Y111.441 E0.5170
G1 X73.103 Y111.090 E0.5428
G1 X72.571 Y110.870 E0.5687
G1 X72.000 Y110.795 E0.5945
G1 X71.429 Y110.870 E0.6204
; outer perimeter
G1 X71.534 Y111.260 F4800
G92 E0
G1 X71.099 Y111.440 E0.0211 F900
G1 X70.726 Y111.726 E0.0422
G1 X70.440 Y112.099 E0.0634
G1 X70.260 Y112.534 E0.0845
G1 X70.198 Y113.000 E0.1056
G1 X70.260 Y113.466 E0.1267
G1 X70.440 Y113.901 E0.1478
G1 X70.726 Y114.274 E0.1690
G1 X71.099 Y114.560 E0.1901
G1 X71.534 Y114.740 E0.2112
G1 X72.000 Y114.802 E0.2323
G1 X72.466 Y114.740 E0.2534
G1 X72.901 Y114.560 E0.2745
G1 X73.274 Y114.274 E0.2957
G1 X73.560 Y113.901 E0.3168
G1 X73.740 Y113.466 E0.3379
G1 X73.802 Y113.000 E0.3590
G1 X73.740 Y112.534 E0.3801
G1 X73.560 Y112.099 E0.4013
G1 X73.274 Y111.726 E0.4224
