; G-Code generated by Simplify3D(R) Version 3.0.2
; 1ÔÂ 22, 2016 at 12:44:20 ÉÏÎç
; Settings Summary
;   processName,Process3
;   applyToModels,11
;   profileName,me
;   profileVersion,2015-09-08 10:04:24
;   baseProfile,Default
;   printMaterial,PLA
;   printQuality,Medium
;   printExtruders,
;   extruderName,Extruder 1
;   extruderToolheadNumber,0
;   extruderDiameter,0.4
;   extruderAutoWidth,0
;   extruderWidth,0.4
;   extrusionMultiplier,0.9
;   extruderUseRetract,1
;   extruderRetractionDistance,5
;   extruderExtraRestartDistance,0
;   extruderRetractionZLift,0
;   extruderRetractionSpeed,6000
;   extruderUseCoasting,0
;   extruderCoastingDistance,0.2
;   extruderUseWipe,0
;   extruderWipeDistance,5
;   primaryExtruder,0
;   layerHeight,0.3
;   topSolidLayers,3
;   bottomSolidLayers,3
;   perimeterOutlines,2
;   printPerimetersInsideOut,1
;   startPointOption,2
;   startPointOriginX,0
;   startPointOriginY,0
;   startPointOriginZ,300
;   sequentialIslands,0
;   spiralVaseMode,0
;   firstLayerHeightPercentage,90
;   firstLayerWidthPercentage,100
;   firstLayerUnderspeed,0.5
;   useRaft,0
;   raftExtruder,0
;   raftLayers,3
;   raftOffset,3
;   raftSeparationDistance,0.14
;   raftInfill,85
;   disableRaftBaseLayers,0
;   useSkirt,1
;   skirtExtruder,0
;   skirtLayers,1
;   skirtOutlines,2
;   skirtOffset,10
;   usePrimePillar,0
;   primePillarExtruder,999
;   primePillarWidth,12
;   primePillarLocation,7
;   primePillarSpeedMultiplier,1
;   useOozeShield,0
;   oozeShieldExtruder,999
;   oozeShieldOffset,2
;   oozeShieldOutlines,1
;   oozeShieldSidewallShape,1
;   oozeShieldSidewallAngle,30
;   oozeShieldSpeedMultiplier,1
;   infillExtruder,0
;   internalInfillPattern,Rectilinear
;   externalInfillPattern,Rectilinear
;   infillPercentage,60
;   outlineOverlapPercentage,15
;   infillExtrusionWidthPercentage,100
;   minInfillLength,5
;   infillLayerInterval,1
;   infillAngles,45,-45
;   overlapInfillAngles,0
;   generateSupport,1
;   supportExtruder,0
;   supportInfillPercentage,20
;   supportExtraInflation,0
;   denseSupportLayers,0
;   denseSupportInfillPercentage,70
;   supportLayerInterval,1
;   supportHorizontalPartOffset,0.3
;   supportUpperSeparationLayers,1
;   supportLowerSeparationLayers,1
;   supportType,0
;   supportGridSpacing,4
;   maxOverhangAngle,45
;   supportAngles,0
;   temperatureName,Extruder 1 Temperature,Bed
;   temperatureNumber,0,0
;   temperatureSetpointCount,1,1
;   temperatureSetpointLayers,1,1
;   temperatureSetpointTemperatures,210,75
;   temperatureStabilizeAtStartup,1,1
;   temperatureHeatedBed,0,1
;   temperatureRelayBetweenLayers,0,0
;   temperatureRelayBetweenLoops,0,0
;   fanLayers,1,2
;   fanSpeeds,0,100
;   blipFanToFullPower,0
;   adjustSpeedForCooling,1
;   minSpeedLayerTime,15
;   minCoolingSpeedSlowdown,20
;   increaseFanForCooling,0
;   minFanLayerTime,45
;   maxCoolingFanSpeed,100
;   increaseFanForBridging,0
;   bridgingFanSpeed,100
;   use5D,1
;   relativeEdistances,0
;   allowEaxisZeroing,1
;   independentExtruderAxes,0
;   includeM10123,0
;   stickySupport,1
;   applyToolheadOffsets,0
;   gcodeXoffset,0
;   gcodeYoffset,0
;   gcodeZoffset,0
;   overrideMachineDefinition,1
;   machineTypeOverride,0
;   strokeXoverride,195
;   strokeYoverride,195
;   strokeZoverride,195
;   originOffsetXoverride,0
;   originOffsetYoverride,0
;   originOffsetZoverride,0
;   homeXdirOverride,-1
;   homeYdirOverride,-1
;   homeZdirOverride,-1
;   flipXoverride,1
;   flipYoverride,-1
;   flipZoverride,1
;   toolheadOffsets,0,0|0,0|0,0|0,0|0,0|0,0
;   overrideFirmwareConfiguration,1
;   firmwareTypeOverride,RepRap (Marlin/Repetier/Sprinter)
;   GPXconfigOverride,r2
;   baudRateOverride,115200
;   overridePrinterModels,0
;   printerModelsOverride
;   startingGcode,G28 ; home all axes
;   layerChangeGcode,
;   retractionGcode,
;   toolChangeGcode,
;   endingGcode,M104 S0 ; turn off extruder,M140 S0 ; turn off bed,M84 ; disable motors,G28 X0 Y0
;   createX3G,0
;   celebration,0
;   celebrationSong,Random Song
;   createMB5G,0
;   postProcessing,
;   defaultSpeed,3600
;   outlineUnderspeed,0.5
;   solidInfillUnderspeed,0.8
;   supportUnderspeed,0.8
;   rapidXYspeed,4800
;   rapidZspeed,1000
;   minBridgingArea,50
;   bridgingExtraInflation,0
;   bridgingExtrusionMultiplier,1
;   bridgingSpeedMultiplier,1
;   filamentDiameter,1.75
;   filamentPricePerKg,46
;   filamentDensity,1.25
;   useMinPrintHeight,0
;   minPrintHeight,0
;   useMaxPrintHeight,0
;   maxPrintHeight,0
;   useDiaphragm,0
;   diaphragmLayerInterval,20
;   robustSlicing,1
;   mergeAllIntoSolid,0
;   onlyRetractWhenCrossingOutline,1
;   retractBetweenLayers,1
;   useRetractionMinTravel,0
;   retractionMinTravel,3
;   retractWhileWiping,0
;   onlyWipeOutlines,1
;   avoidCrossingOutline,0
;   maxMovementDetourFactor,3
;   toolChangeRetractionDistance,12
;   toolChangeExtraRestartDistance,-0.5
;   toolChangeRetractionSpeed,600
;   allowThinWallGapFill,1
;   thinWallAllowedOverlapPercentage,10
;   horizontalSizeCompensation,0
G90
M82
M106 S0
M140 S75
M190 S75
M104 S210 T0
M109 S210 T0
G28 ; home all axes
G92 E0
G1 E-5.0000 F6000
G1 Z0.270 F1000
; layer 1, Z = 0.27
T0
; tool H0.300 W0.400
; skirt
G1 X79.018 Y76.991 F4800
G1 E0.0000 F1800
G92 E0
G1 X79.239 Y76.900 E0.0107 F1800
G1 X115.761 Y76.900 E1.6506
G1 X115.982 Y76.991 E1.6614
G1 X122.009 Y83.018 E2.0441
G1 X122.100 Y83.239 E2.0548
G1 X122.100 Y111.761 E3.3355
G1 X122.009 Y111.982 E3.3462
G1 X115.982 Y118.009 E3.7289
G1 X115.761 Y118.100 E3.7396
G1 X79.239 Y118.100 E5.3795
G1 X79.018 Y118.009 E5.3903
G1 X72.991 Y111.982 E5.7729
G1 X72.900 Y111.761 E5.7837
G1 X72.900 Y83.239 E7.0644
G1 X72.991 Y83.018 E7.0751
G1 X79.018 Y76.991 E7.4578
G1 X79.245 Y77.330 F4800
G92 E0
G1 X79.318 Y77.300 E0.0036 F1800
G1 X115.682 Y77.300 E1.6364
G1 X115.755 Y77.330 E1.6399
G1 X121.670 Y83.245 E2.0155
G1 X121.700 Y83.318 E2.0190
G1 X121.700 Y111.682 E3.2926
G1 X121.670 Y111.755 E3.2962
G1 X115.755 Y117.670 E3.6717
G1 X115.682 Y117.700 E3.6753
G1 X79.318 Y117.700 E5.3081
G1 X79.245 Y117.670 E5.3117
G1 X73.330 Y111.755 E5.6872
G1 X73.300 Y111.682 E5.6908
G1 X73.300 Y83.318 E6.9643
G1 X73.330 Y83.245 E6.9679
G1 X79.245 Y77.330 E7.3435
G92 E0
G1 E-5.0000 F6000
; inner perimeter
G1 X84.100 Y88.100 F4800
G1 E0.0000 F6000
G92 E0
G1 X110.900 Y88.100 E1.2034 F1350
G1 X110.900 Y106.900 E2.0475
G1 X84.100 Y106.900 E3.2508
G1 X84.100 Y88.100 E4.0950
; outer perimeter
G1 X83.700 Y87.700 F4800
G92 E0
G1 X111.300 Y87.700 E1.2393 F900
G1 X111.300 Y107.300 E2.1193
G1 X83.700 Y107.300 E3.3586
G1 X83.700 Y87.700 E4.2387
; inner perimeter
G1 X88.115 Y95.097 F4800
G92 E0
G1 X87.778 Y95.303 E0.0177 F1350
G1 X87.475 Y95.555 E0.0354
G1 X87.212 Y95.849 E0.0531
G1 X86.994 Y96.178 E0.0708
G1 X86.827 Y96.535 E0.0885
G1 X86.713 Y96.913 E0.1063
G1 X86.656 Y97.303 E0.1240
G1 X86.656 Y97.697 E0.1417
G1 X86.713 Y98.087 E0.1594
G1 X86.827 Y98.465 E0.1771
G1 X86.994 Y98.822 E0.1948
G1 X87.212 Y99.151 E0.2125
G1 X87.475 Y99.445 E0.2302
G1 X87.778 Y99.697 E0.2479
G1 X88.115 Y99.903 E0.2656
G1 X88.478 Y100.057 E0.2833
G1 X88.859 Y100.157 E0.3011
G1 X89.251 Y100.200 E0.3188
G1 X89.645 Y100.185 E0.3365
G1 X90.033 Y100.114 E0.3542
G1 X90.407 Y99.986 E0.3719
G1 X90.757 Y99.806 E0.3896
G1 X91.078 Y99.577 E0.4073
G1 X91.362 Y99.303 E0.4250
G1 X91.603 Y98.991 E0.4427
G1 X91.796 Y98.647 E0.4604
G1 X91.937 Y98.278 E0.4782
G1 X92.023 Y97.893 E0.4959
G1 X92.052 Y97.500 E0.5136
G1 X92.023 Y97.107 E0.5313
G1 X91.937 Y96.722 E0.5490
G1 X91.796 Y96.353 E0.5667
G1 X91.603 Y96.009 E0.5844
G1 X91.362 Y95.697 E0.6021
G1 X91.078 Y95.423 E0.6198
G1 X90.757 Y95.194 E0.6375
G1 X90.407 Y95.014 E0.6552
G1 X90.033 Y94.886 E0.6730
G1 X89.645 Y94.815 E0.6907
G1 X89.251 Y94.800 E0.7084
G1 X88.859 Y94.843 E0.7261
G1 X88.478 Y94.943 E0.7438
G1 X88.115 Y95.097 E0.7615
; outer perimeter
G1 X88.298 Y95.454 F4800
G92 E0
G1 X88.011 Y95.629 E0.0151 F900
G1 X87.753 Y95.844 E0.0302
G1 X87.529 Y96.094 E0.0452
G1 X87.344 Y96.374 E0.0603
G1 X87.201 Y96.678 E0.0754
G1 X87.104 Y97.000 E0.0905
G1 X87.056 Y97.332 E0.1056
G1 X87.056 Y97.668 E0.1206
G1 X87.104 Y98.000 E0.1357
G1 X87.201 Y98.322 E0.1508
G1 X87.344 Y98.626 E0.1659
G1 X87.529 Y98.906 E0.1810
G1 X87.753 Y99.156 E0.1960
G1 X88.011 Y99.371 E0.2111
G1 X88.298 Y99.546 E0.2262
G1 X88.607 Y99.677 E0.2413
G1 X88.932 Y99.762 E0.2564
G1 X89.266 Y99.799 E0.2714
G1 X89.602 Y99.787 E0.2865
G1 X89.932 Y99.726 E0.3016
G1 X90.250 Y99.617 E0.3167
G1 X90.548 Y99.464 E0.3318
G1 X90.822 Y99.268 E0.3468
G1 X91.063 Y99.035 E0.3619
G1 X91.269 Y98.769 E0.3770
G1 X91.433 Y98.476 E0.3921
G1 X91.553 Y98.163 E0.4072
G1 X91.626 Y97.835 E0.4223
G1 X91.651 Y97.500 E0.4373
G1 X91.626 Y97.165 E0.4524
G1 X91.553 Y96.837 E0.4675
G1 X91.433 Y96.524 E0.4826
G1 X91.269 Y96.231 E0.4977
G1 X91.063 Y95.965 E0.5127
G1 X90.822 Y95.732 E0.5278
G1 X90.548 Y95.536 E0.5429
G1 X90.250 Y95.383 E0.5580
G1 X89.932 Y95.274 E0.5731
G1 X89.602 Y95.213 E0.5881
G1 X89.266 Y95.201 E0.6032
G1 X88.932 Y95.238 E0.6183
G1 X88.607 Y95.323 E0.6334
G1 X88.298 Y95.454 E0.6485
G92 E0
G1 E-5.0000 F6000
; inner perimeter
G1 X103.512 Y95.849 F4800
G1 E0.0000 F6000
G92 E0
G1 X103.294 Y96.178 E0.0177 F1350
G1 X103.127 Y96.535 E0.0354
G1 X103.013 Y96.913 E0.0531
G1 X102.956 Y97.303 E0.0708
G1 X102.956 Y97.697 E0.0885
G1 X103.013 Y98.087 E0.1063
G1 X103.127 Y98.465 E0.1240
G1 X103.294 Y98.822 E0.1417
G1 X103.512 Y99.151 E0.1594
G1 X103.775 Y99.445 E0.1771
G1 X104.078 Y99.697 E0.1948
G1 X104.415 Y99.903 E0.2125
G1 X104.778 Y100.057 E0.2302
G1 X105.159 Y100.157 E0.2479
G1 X105.551 Y100.200 E0.2656
G1 X105.945 Y100.185 E0.2833
G1 X106.333 Y100.114 E0.3011
G1 X106.707 Y99.986 E0.3188
G1 X107.057 Y99.806 E0.3365
G1 X107.378 Y99.577 E0.3542
G1 X107.662 Y99.303 E0.3719
G1 X107.903 Y98.991 E0.3896
G1 X108.096 Y98.647 E0.4073
G1 X108.237 Y98.278 E0.4250
G1 X108.323 Y97.893 E0.4427
G1 X108.352 Y97.500 E0.4604
G1 X108.323 Y97.107 E0.4782
G1 X108.237 Y96.722 E0.4959
G1 X108.096 Y96.353 E0.5136
G1 X107.903 Y96.009 E0.5313
G1 X107.662 Y95.697 E0.5490
G1 X107.378 Y95.423 E0.5667
G1 X107.057 Y95.194 E0.5844
G1 X106.707 Y95.014 E0.6021
G1 X106.333 Y94.886 E0.6198
G1 X105.945 Y94.815 E0.6375
G1 X105.551 Y94.800 E0.6552
G1 X105.159 Y94.843 E0.6730
G1 X104.778 Y94.943 E0.6907
G1 X104.415 Y95.097 E0.7084
G1 X104.078 Y95.303 E0.7261
G1 X103.775 Y95.555 E0.7438
G1 X103.512 Y95.849 E0.7615
; outer perimeter
G1 X103.829 Y96.094 F4800
G92 E0
G1 X103.644 Y96.374 E0.0151 F900
G1 X103.501 Y96.678 E0.0302
G1 X103.405 Y97.000 E0.0452
G1 X103.356 Y97.332 E0.0603
G1 X103.356 Y97.668 E0.0754
G1 X103.405 Y98.000 E0.0905
G1 X103.501 Y98.322 E0.1056
G1 X103.644 Y98.626 E0.1206
G1 X103.829 Y98.906 E0.1357
G1 X104.053 Y99.156 E0.1508
G1 X104.311 Y99.371 E0.1659
G1 X104.598 Y99.546 E0.1810
G1 X104.907 Y99.677 E0.1960
G1 X105.232 Y99.762 E0.2111
G1 X105.566 Y99.799 E0.2262
G1 X105.902 Y99.787 E0.2413
G1 X106.232 Y99.726 E0.2564
G1 X106.550 Y99.617 E0.2714
G1 X106.848 Y99.464 E0.2865
G1 X107.122 Y99.268 E0.3016
G1 X107.363 Y99.035 E0.3167
G1 X107.569 Y98.769 E0.3318
G1 X107.733 Y98.476 E0.3468
G1 X107.853 Y98.163 E0.3619
G1 X107.926 Y97.835 E0.3770
G1 X107.951 Y97.500 E0.3921
G1 X107.926 Y97.165 E0.4072
G1 X107.853 Y96.837 E0.4223
G1 X107.733 Y96.524 E0.4373
G1 X107.569 Y96.231 E0.4524
G1 X107.363 Y95.965 E0.4675
G1 X107.122 Y95.732 E0.4826
G1 X106.848 Y95.536 E0.4977
G1 X106.550 Y95.383 E0.5127
G1 X106.232 Y95.274 E0.5278
G1 X105.902 Y95.213 E0.5429
G1 X105.566 Y95.201 E0.5580
G1 X105.232 Y95.238 E0.5731
G1 X104.907 Y95.323 E0.5881
G1 X104.598 Y95.454 E0.6032
G1 X104.311 Y95.629 E0.6183
G1 X104.053 Y95.844 E0.6334
G1 X103.829 Y96.094 E0.6485
; solid layer
G1 X104.020 Y94.940 F4800
G92 E0
G1 X110.520 Y88.440 E0.4128 F1440
G1 X110.560 Y88.440 E0.4146
G1 X110.560 Y88.966 E0.4382
G1 X104.989 Y94.536 E0.7919
G1 X105.097 Y94.508 E0.7969
G1 X105.539 Y94.460 E0.8169
G1 X105.628 Y94.463 E0.8209
G1 X110.560 Y89.531 E1.1341
G1 X110.560 Y90.097 E1.1595
G1 X106.150 Y94.507 E1.4395
G1 X106.419 Y94.556 E1.4518
G1 X106.603 Y94.619 E1.4605
G1 X110.560 Y90.663 E1.7117
G1 X110.560 Y91.228 E1.7371
G1 X107.004 Y94.784 E1.9629
G1 X107.235 Y94.903 E1.9746
G1 X107.361 Y94.993 E1.9815
G1 X110.560 Y91.794 E2.1847
G1 X110.560 Y92.360 E2.2101
G1 X107.679 Y95.241 E2.3930
G1 X107.916 Y95.470 E2.4078
G1 X107.959 Y95.526 E2.4110
G1 X110.560 Y92.925 E2.5762
G1 X110.560 Y93.491 E2.6016
G1 X108.203 Y95.848 E2.7513
G1 X108.405 Y96.209 E2.7698
G1 X108.406 Y96.211 E2.7699
G1 X110.560 Y94.057 E2.9067
G1 X110.560 Y94.622 E2.9321
G1 X108.562 Y96.620 E3.0590
G1 X108.563 Y96.623 E3.0591
G1 X108.660 Y97.057 E3.0791
G1 X108.662 Y97.086 E3.0804
G1 X110.560 Y95.188 E3.2009
G1 X110.560 Y95.754 E3.2263
G1 X108.683 Y97.631 E3.3455
G1 X108.660 Y97.943 E3.3595
G1 X108.581 Y98.299 E3.3759
G1 X110.560 Y96.319 E3.5016
G1 X110.560 Y96.885 E3.5270
G1 X107.920 Y99.525 E3.6946
G1 X110.560 Y106.502 F4800
G92 E0
G1 X110.502 Y106.560 E0.0037 F1440
G1 X109.936 Y106.560 E0.0291
G1 X110.560 Y105.936 E0.0687
G1 X110.560 Y105.370 E0.0941
G1 X109.370 Y106.560 E0.1697
G1 X108.805 Y106.560 E0.1951
G1 X110.560 Y104.805 E0.3065
G1 X110.560 Y104.239 E0.3319
G1 X108.239 Y106.560 E0.4793
G1 X107.673 Y106.560 E0.5047
G1 X110.560 Y103.673 E0.6880
G1 X110.560 Y103.108 E0.7134
G1 X107.108 Y106.560 E0.9326
G1 X106.542 Y106.560 E0.9580
G1 X110.560 Y102.542 E1.2132
G1 X110.560 Y101.976 E1.2386
G1 X105.976 Y106.560 E1.5296
G1 X105.411 Y106.560 E1.5550
G1 X110.560 Y101.411 E1.8820
G1 X110.560 Y100.845 E1.9074
G1 X104.845 Y106.560 E2.2703
G1 X104.279 Y106.560 E2.2957
G1 X110.560 Y100.279 E2.6946
G1 X110.560 Y99.714 E2.7200
G1 X103.714 Y106.560 E3.1547
G1 X103.148 Y106.560 E3.1801
G1 X110.560 Y99.148 E3.6508
G1 X110.560 Y98.582 E3.6762
G1 X102.582 Y106.560 E4.1828
G1 X102.016 Y106.560 E4.2082
G1 X110.560 Y98.016 E4.7507
G1 X110.560 Y97.451 E4.7761
G1 X101.451 Y106.560 E5.3545
G1 X100.885 Y106.560 E5.3799
G1 X107.883 Y99.562 E5.8243
G1 X107.596 Y99.839 E5.8422
G1 X107.235 Y100.097 E5.8622
G1 X106.840 Y100.300 E5.8821
G1 X106.444 Y100.435 E5.9009
G1 X100.319 Y106.560 E6.2898
G1 X99.754 Y106.560 E6.3152
G1 X105.782 Y100.532 E6.6980
G1 X105.539 Y100.540 E6.7089
G1 X105.240 Y100.508 E6.7224
G1 X99.188 Y106.560 E7.1067
G1 X98.622 Y106.560 E7.1321
G1 X104.775 Y100.408 E7.5228
G1 X104.668 Y100.380 E7.5278
G1 X104.366 Y100.251 E7.5425
G1 X98.057 Y106.560 E7.9431
G1 X97.491 Y106.560 E7.9685
G1 X104.002 Y100.049 E8.3820
G1 X103.880 Y99.974 E8.3884
G1 X103.678 Y99.807 E8.4002
G1 X96.925 Y106.560 E8.8290
G1 X96.360 Y106.560 E8.8544
G1 X103.392 Y99.527 E9.3010
G1 X103.242 Y99.360 E9.3111
G1 X103.143 Y99.211 E9.3191
G1 X95.794 Y106.560 E9.7858
G1 X95.228 Y106.560 E9.8112
G1 X102.934 Y98.855 E10.3005
G1 X102.808 Y98.587 E10.3138
G1 X102.768 Y98.454 E10.3200
G1 X94.663 Y106.560 E10.8347
G1 X94.097 Y106.560 E10.8601
G1 X102.657 Y98.000 E11.4036
G1 X102.616 Y97.722 E11.4163
G1 X102.616 Y97.476 E11.4273
G1 X93.531 Y106.560 E12.0042
G1 X92.966 Y106.560 E12.0296
G1 X102.679 Y96.846 E12.6464
G1 X102.680 Y96.838 E12.6468
G1 X102.808 Y96.413 E12.6667
G1 X102.997 Y96.011 E12.6866
G1 X103.090 Y95.869 E12.6943
G1 X92.400 Y106.560 E13.3731
G1 X91.834 Y106.560 E13.3985
G1 X109.954 Y88.440 E14.5491
G1 X109.388 Y88.440 E14.5745
G1 X91.268 Y106.560 E15.7251
G1 X90.703 Y106.560 E15.7505
G1 X108.823 Y88.440 E16.9012
G1 X108.257 Y88.440 E16.9266
G1 X90.137 Y106.560 E18.0772
G1 X89.571 Y106.560 E18.1026
G1 X107.691 Y88.440 E19.2532
G1 X107.126 Y88.440 E19.2786
G1 X89.006 Y106.560 E20.4292
G1 X88.440 Y106.560 E20.4546
G1 X106.560 Y88.440 E21.6052
G1 X105.994 Y88.440 E21.6306
G1 X87.874 Y106.560 E22.7812
G1 X87.309 Y106.560 E22.8066
G1 X105.429 Y88.440 E23.9573
G1 X104.863 Y88.440 E23.9827
G1 X86.743 Y106.560 E25.1333
G1 X86.177 Y106.560 E25.1587
G1 X104.297 Y88.440 E26.3093
G1 X103.732 Y88.440 E26.3347
G1 X85.612 Y106.560 E27.4853
G1 X85.046 Y106.560 E27.5107
G1 X103.166 Y88.440 E28.6613
G1 X102.600 Y88.440 E28.6867
G1 X91.921 Y99.120 E29.3649
G1 X91.887 Y99.179 E29.3679
G1 X91.616 Y99.530 E29.3879
G1 X91.296 Y99.839 E29.4078
G1 X90.964 Y100.076 E29.4262
G1 X84.480 Y106.560 E29.8379
G1 X84.440 Y106.560 E29.8397
