; G-Code generated by Simplify3D(R) Version 3.0.2
; 1ÔÂ 22, 2016 at 12:44:30 ÉÏÎç
; Settings Summary
;   processName,Process3
;   applyToModels,12
;   profileName,me
;   profileVersion,2015-09-08 10:04:24
;   baseProfile,Default
;   printMaterial,PLA
;   printQuality,Medium
;   printExtruders,
;   extruderName,Extruder 1
;   extruderToolheadNumber,0
;   extruderDiameter,0.4
;   extruderAutoWidth,0
;   extruderWidth,0.4
;   extrusionMultiplier,0.9
;   extruderUseRetract,1
;   extruderRetractionDistance,5
;   extruderExtraRestartDistance,0
;   extruderRetractionZLift,0
;   extruderRetractionSpeed,6000
;   extruderUseCoasting,0
;   extruderCoastingDistance,0.2
;   extruderUseWipe,0
;   extruderWipeDistance,5
;   primaryExtruder,0
;   layerHeight,0.3
;   topSolidLayers,3
;   bottomSolidLayers,3
;   perimeterOutlines,2
;   printPerimetersInsideOut,1
;   startPointOption,2
;   startPointOriginX,0
;   startPointOriginY,0
;   startPointOriginZ,300
;   sequentialIslands,0
;   spiralVaseMode,0
;   firstLayerHeightPercentage,90
;   firstLayerWidthPercentage,100
;   firstLayerUnderspeed,0.5
;   useRaft,0
;   raftExtruder,0
;   raftLayers,3
;   raftOffset,3
;   raftSeparationDistance,0.14
;   raftInfill,85
;   disableRaftBaseLayers,0
;   useSkirt,1
;   skirtExtruder,0
;   skirtLayers,1
;   skirtOutlines,2
;   skirtOffset,10
;   usePrimePillar,0
;   primePillarExtruder,999
;   primePillarWidth,12
;   primePillarLocation,7
;   primePillarSpeedMultiplier,1
;   useOozeShield,0
;   oozeShieldExtruder,999
;   oozeShieldOffset,2
;   oozeShieldOutlines,1
;   oozeShieldSidewallShape,1
;   oozeShieldSidewallAngle,30
;   oozeShieldSpeedMultiplier,1
;   infillExtruder,0
;   internalInfillPattern,Rectilinear
;   externalInfillPattern,Rectilinear
;   infillPercentage,60
;   outlineOverlapPercentage,15
;   infillExtrusionWidthPercentage,100
;   minInfillLength,5
;   infillLayerInterval,1
;   infillAngles,45,-45
;   overlapInfillAngles,0
;   generateSupport,1
;   supportExtruder,0
;   supportInfillPercentage,20
;   supportExtraInflation,0
;   denseSupportLayers,0
;   denseSupportInfillPercentage,70
;   supportLayerInterval,1
;   supportHorizontalPartOffset,0.3
;   supportUpperSeparationLayers,1
;   supportLowerSeparationLayers,1
;   supportType,0
;   supportGridSpacing,4
;   maxOverhangAngle,45
;   supportAngles,0
;   temperatureName,Extruder 1 Temperature,Bed
;   temperatureNumber,0,0
;   temperatureSetpointCount,1,1
;   temperatureSetpointLayers,1,1
;   temperatureSetpointTemperatures,210,75
;   temperatureStabilizeAtStartup,1,1
;   temperatureHeatedBed,0,1
;   temperatureRelayBetweenLayers,0,0
;   temperatureRelayBetweenLoops,0,0
;   fanLayers,1,2
;   fanSpeeds,0,100
;   blipFanToFullPower,0
;   adjustSpeedForCooling,1
;   minSpeedLayerTime,15
;   minCoolingSpeedSlowdown,20
;   increaseFanForCooling,0
;   minFanLayerTime,45
;   maxCoolingFanSpeed,100
;   increaseFanForBridging,0
;   bridgingFanSpeed,100
;   use5D,1
;   relativeEdistances,0
;   allowEaxisZeroing,1
;   independentExtruderAxes,0
;   includeM10123,0
;   stickySupport,1
;   applyToolheadOffsets,0
;   gcodeXoffset,0
;   gcodeYoffset,0
;   gcodeZoffset,0
;   overrideMachineDefinition,1
;   machineTypeOverride,0
;   strokeXoverride,195
;   strokeYoverride,195
;   strokeZoverride,195
;   originOffsetXoverride,0
;   originOffsetYoverride,0
;   originOffsetZoverride,0
;   homeXdirOverride,-1
;   homeYdirOverride,-1
;   homeZdirOverride,-1
;   flipXoverride,1
;   flipYoverride,-1
;   flipZoverride,1
;   toolheadOffsets,0,0|0,0|0,0|0,0|0,0|0,0
;   overrideFirmwareConfiguration,1
;   firmwareTypeOverride,RepRap (Marlin/Repetier/Sprinter)
;   GPXconfigOverride,r2
;   baudRateOverride,115200
;   overridePrinterModels,0
;   printerModelsOverride
;   startingGcode,G28 ; home all axes
;   layerChangeGcode,
;   retractionGcode,
;   toolChangeGcode,
;   endingGcode,M104 S0 ; turn off extruder,M140 S0 ; turn off bed,M84 ; disable motors,G28 X0 Y0
;   createX3G,0
;   celebration,0
;   celebrationSong,Random Song
;   createMB5G,0
;   postProcessing,
;   defaultSpeed,3600
;   outlineUnderspeed,0.5
;   solidInfillUnderspeed,0.8
;   supportUnderspeed,0.8
;   rapidXYspeed,4800
;   rapidZspeed,1000
;   minBridgingArea,50
;   bridgingExtraInflation,0
;   bridgingExtrusionMultiplier,1
;   bridgingSpeedMultiplier,1
;   filamentDiameter,1.75
;   filamentPricePerKg,46
;   filamentDensity,1.25
;   useMinPrintHeight,0
;   minPrintHeight,0
;   useMaxPrintHeight,0
;   maxPrintHeight,0
;   useDiaphragm,0
;   diaphragmLayerInterval,20
;   robustSlicing,1
;   mergeAllIntoSolid,0
;   onlyRetractWhenCrossingOutline,1
;   retractBetweenLayers,1
;   useRetractionMinTravel,0
;   retractionMinTravel,3
;   retractWhileWiping,0
;   onlyWipeOutlines,1
;   avoidCrossingOutline,0
;   maxMovementDetourFactor,3
;   toolChangeRetractionDistance,12
;   toolChangeExtraRestartDistance,-0.5
;   toolChangeRetractionSpeed,600
;   allowThinWallGapFill,1
;   thinWallAllowedOverlapPercentage,10
;   horizontalSizeCompensation,0
G90
M82
M106 S0
M140 S75
M190 S75
M104 S210 T0
M109 S210 T0
G28 ; home all axes
G92 E0
G1 E-5.0000 F6000
G1 Z0.270 F1000
; layer 1, Z = 0.27
T0
; tool H0.300 W0.400
; skirt
G1 X76.991 Y76.518 F4800
G1 E0.0000 F1800
G92 E0
G1 X83.018 Y70.491 E0.3827 F1800
G1 X83.239 Y70.400 E0.3934
G1 X111.761 Y70.400 E1.6741
G1 X111.982 Y70.491 E1.6848
G1 X118.009 Y76.518 E2.0675
G1 X118.100 Y76.739 E2.0783
G1 X118.100 Y118.261 E3.9427
G1 X118.009 Y118.482 E3.9534
G1 X111.982 Y124.509 E4.3361
G1 X111.761 Y124.600 E4.3468
G1 X83.239 Y124.600 E5.6275
G1 X83.018 Y124.509 E5.6382
G1 X76.991 Y118.482 E6.0209
G1 X76.900 Y118.261 E6.0316
G1 X76.900 Y76.739 E7.8961
G1 X76.991 Y76.518 E7.9068
G1 X77.330 Y76.745 F4800
G92 E0
G1 X83.245 Y70.830 E0.3755 F1800
G1 X83.318 Y70.800 E0.3791
G1 X111.682 Y70.800 E1.6527
G1 X111.755 Y70.830 E1.6563
G1 X117.670 Y76.745 E2.0318
G1 X117.700 Y76.818 E2.0354
G1 X117.700 Y118.182 E3.8927
G1 X117.670 Y118.255 E3.8962
G1 X111.755 Y124.170 E4.2718
G1 X111.682 Y124.200 E4.2754
G1 X83.318 Y124.200 E5.5489
G1 X83.245 Y124.170 E5.5525
G1 X77.330 Y118.255 E5.9280
G1 X77.300 Y118.182 E5.9316
G1 X77.300 Y76.818 E7.7889
G1 X77.330 Y76.745 E7.7925
G92 E0
G1 E-5.0000 F6000
; inner perimeter
G1 X88.100 Y81.600 F4800
G1 E0.0000 F6000
G92 E0
G1 X106.900 Y81.600 E0.8441 F1350
G1 X106.900 Y113.400 E2.2720
G1 X88.100 Y113.400 E3.1161
G1 X88.100 Y81.600 E4.5440
; outer perimeter
G1 X87.700 Y81.200 F4800
G92 E0
G1 X107.300 Y81.200 E0.8801 F900
G1 X107.300 Y113.800 E2.3438
G1 X87.700 Y113.800 E3.2239
G1 X87.700 Y81.200 E4.6877
; inner perimeter
G1 X95.017 Y88.980 F4800
G92 E0
G1 X94.765 Y89.337 E0.0196 F1350
G1 X94.564 Y89.725 E0.0392
G1 X94.417 Y90.136 E0.0589
G1 X94.328 Y90.564 E0.0785
G1 X94.299 Y91.000 E0.0981
G1 X94.328 Y91.436 E0.1177
G1 X94.417 Y91.864 E0.1373
G1 X94.564 Y92.275 E0.1570
G1 X94.765 Y92.663 E0.1766
G1 X95.017 Y93.020 E0.1962
G1 X95.315 Y93.340 E0.2158
G1 X95.654 Y93.615 E0.2354
G1 X96.027 Y93.842 E0.2551
G1 X96.428 Y94.017 E0.2747
G1 X96.849 Y94.134 E0.2943
G1 X97.282 Y94.194 E0.3139
G1 X97.718 Y94.194 E0.3335
G1 X98.151 Y94.134 E0.3531
G1 X98.572 Y94.017 E0.3728
G1 X98.973 Y93.842 E0.3924
G1 X99.346 Y93.615 E0.4120
G1 X99.685 Y93.340 E0.4316
G1 X99.983 Y93.020 E0.4512
G1 X100.235 Y92.663 E0.4709
G1 X100.436 Y92.275 E0.4905
G1 X100.583 Y91.864 E0.5101
G1 X100.672 Y91.436 E0.5297
G1 X100.701 Y91.000 E0.5493
G1 X100.672 Y90.564 E0.5690
G1 X100.583 Y90.136 E0.5886
G1 X100.436 Y89.725 E0.6082
G1 X100.235 Y89.337 E0.6278
G1 X99.983 Y88.980 E0.6474
G1 X99.685 Y88.660 E0.6671
G1 X99.346 Y88.385 E0.6867
G1 X98.973 Y88.158 E0.7063
G1 X98.572 Y87.983 E0.7259
G1 X98.151 Y87.866 E0.7455
G1 X97.718 Y87.806 E0.7652
G1 X97.282 Y87.806 E0.7848
G1 X96.849 Y87.866 E0.8044
G1 X96.428 Y87.983 E0.8240
G1 X96.027 Y88.158 E0.8436
G1 X95.654 Y88.385 E0.8632
G1 X95.315 Y88.660 E0.8829
G1 X95.017 Y88.980 E0.9025
; outer perimeter
G1 X95.328 Y89.233 F4800
G92 E0
G1 X95.107 Y89.545 E0.0172 F900
G1 X94.931 Y89.884 E0.0343
G1 X94.803 Y90.244 E0.0515
G1 X94.726 Y90.619 E0.0686
G1 X94.700 Y91.000 E0.0858
G1 X94.726 Y91.381 E0.1030
G1 X94.803 Y91.756 E0.1201
G1 X94.931 Y92.116 E0.1373
G1 X95.107 Y92.455 E0.1545
G1 X95.328 Y92.767 E0.1716
G1 X95.589 Y93.047 E0.1888
G1 X95.885 Y93.288 E0.2059
G1 X96.212 Y93.486 E0.2231
G1 X96.562 Y93.639 E0.2403
G1 X96.930 Y93.742 E0.2574
G1 X97.309 Y93.794 E0.2746
G1 X97.691 Y93.794 E0.2918
G1 X98.070 Y93.742 E0.3089
G1 X98.438 Y93.639 E0.3261
G1 X98.788 Y93.486 E0.3432
G1 X99.115 Y93.288 E0.3604
G1 X99.411 Y93.047 E0.3776
G1 X99.672 Y92.767 E0.3947
G1 X99.893 Y92.455 E0.4119
G1 X100.069 Y92.116 E0.4291
G1 X100.197 Y91.756 E0.4462
G1 X100.274 Y91.381 E0.4634
G1 X100.300 Y91.000 E0.4805
G1 X100.274 Y90.619 E0.4977
G1 X100.197 Y90.244 E0.5149
G1 X100.069 Y89.884 E0.5320
G1 X99.893 Y89.545 E0.5492
G1 X99.672 Y89.233 E0.5664
G1 X99.411 Y88.953 E0.5835
G1 X99.115 Y88.712 E0.6007
G1 X98.788 Y88.513 E0.6178
G1 X98.438 Y88.361 E0.6350
G1 X98.070 Y88.258 E0.6522
G1 X97.691 Y88.206 E0.6693
G1 X97.309 Y88.206 E0.6865
G1 X96.930 Y88.258 E0.7036
G1 X96.562 Y88.361 E0.7208
G1 X96.212 Y88.513 E0.7380
G1 X95.885 Y88.712 E0.7551
G1 X95.589 Y88.953 E0.7723
G1 X95.328 Y89.233 E0.7895
G92 E0
G1 E-5.0000 F6000
; inner perimeter
G1 X96.399 Y105.693 F4800
G1 E0.0000 F6000
G92 E0
G1 X96.084 Y105.913 E0.0172 F1350
G1 X95.813 Y106.184 E0.0345
G1 X95.593 Y106.499 E0.0517
G1 X95.431 Y106.847 E0.0689
G1 X95.331 Y107.218 E0.0862
G1 X95.298 Y107.600 E0.1034
G1 X95.331 Y107.982 E0.1207
G1 X95.431 Y108.353 E0.1379
G1 X95.593 Y108.701 E0.1551
G1 X95.813 Y109.016 E0.1724
G1 X96.084 Y109.287 E0.1896
G1 X96.399 Y109.507 E0.2068
G1 X96.747 Y109.669 E0.2241
G1 X97.118 Y109.769 E0.2413
G1 X97.500 Y109.802 E0.2586
G1 X97.882 Y109.769 E0.2758
G1 X98.253 Y109.669 E0.2930
G1 X98.601 Y109.507 E0.3103
G1 X98.916 Y109.287 E0.3275
G1 X99.187 Y109.016 E0.3447
G1 X99.407 Y108.701 E0.3620
G1 X99.569 Y108.353 E0.3792
G1 X99.669 Y107.982 E0.3964
G1 X99.702 Y107.600 E0.4137
G1 X99.669 Y107.218 E0.4309
G1 X99.569 Y106.847 E0.4482
G1 X99.407 Y106.499 E0.4654
G1 X99.187 Y106.184 E0.4826
G1 X98.916 Y105.913 E0.4999
G1 X98.601 Y105.693 E0.5171
G1 X98.253 Y105.531 E0.5343
G1 X97.882 Y105.431 E0.5516
G1 X97.500 Y105.398 E0.5688
G1 X97.118 Y105.431 E0.5861
G1 X96.747 Y105.531 E0.6033
G1 X96.399 Y105.693 E0.6205
; outer perimeter
G1 X96.600 Y106.040 F4800
G92 E0
G1 X96.342 Y106.221 E0.0141 F900
G1 X96.121 Y106.442 E0.0282
G1 X95.940 Y106.700 E0.0423
G1 X95.808 Y106.984 E0.0564
G1 X95.727 Y107.287 E0.0705
G1 X95.699 Y107.600 E0.0846
G1 X95.727 Y107.913 E0.0987
G1 X95.808 Y108.216 E0.1128
G1 X95.941 Y108.500 E0.1268
G1 X96.121 Y108.757 E0.1409
G1 X96.342 Y108.979 E0.1550
G1 X96.600 Y109.160 E0.1691
G1 X96.884 Y109.292 E0.1832
G1 X97.187 Y109.373 E0.1973
G1 X97.500 Y109.401 E0.2114
G1 X97.813 Y109.373 E0.2255
G1 X98.116 Y109.292 E0.2396
G1 X98.400 Y109.160 E0.2537
G1 X98.658 Y108.979 E0.2678
G1 X98.879 Y108.757 E0.2819
G1 X99.060 Y108.500 E0.2960
G1 X99.192 Y108.216 E0.3101
G1 X99.273 Y107.913 E0.3242
G1 X99.301 Y107.600 E0.3383
G1 X99.273 Y107.287 E0.3524
G1 X99.192 Y106.984 E0.3664
G1 X99.060 Y106.700 E0.3805
G1 X98.879 Y106.442 E0.3946
G1 X98.658 Y106.221 E0.4087
G1 X98.400 Y106.040 E0.4228
G1 X98.116 Y105.908 E0.4369
G1 X97.813 Y105.827 E0.4510
G1 X97.500 Y105.799 E0.4651
G1 X97.187 Y105.827 E0.4792
G1 X96.884 Y105.908 E0.4933
G1 X96.600 Y106.040 E0.5074
; solid layer
G1 X97.278 Y105.076 F4800
G92 E0
G1 X106.560 Y95.794 E0.5894 F1440
G1 X106.560 Y96.360 E0.6148
G1 X97.834 Y105.086 E1.1689
G1 X97.942 Y105.095 E1.1738
G1 X98.295 Y105.190 E1.1902
G1 X106.560 Y96.925 E1.7150
G1 X106.560 Y97.491 E1.7404
G1 X98.691 Y105.360 E2.2401
G1 X98.772 Y105.397 E2.2440
G1 X99.035 Y105.582 E2.2585
G1 X106.560 Y98.057 E2.7363
G1 X106.560 Y98.622 E2.7617
G1 X99.333 Y105.849 E3.2206
G1 X99.448 Y105.965 E3.2280
G1 X99.586 Y106.162 E3.2387
G1 X106.560 Y99.188 E3.6816
G1 X106.560 Y99.754 E3.7070
G1 X99.793 Y106.521 E4.1367
G1 X99.890 Y106.730 E4.1471
G1 X99.945 Y106.934 E4.1566
G1 X106.560 Y100.319 E4.5766
G1 X106.560 Y100.885 E4.6020
G1 X100.028 Y107.417 E5.0168
G1 X100.044 Y107.600 E5.0250
G1 X100.008 Y108.002 E5.0432
G1 X106.560 Y101.451 E5.4592
G1 X106.560 Y102.016 E5.4846
G1 X99.698 Y108.878 E5.9203
G1 X106.560 Y112.765 F4800
G92 E0
G1 X106.265 Y113.060 E0.0188 F1440
G1 X105.699 Y113.060 E0.0442
G1 X106.560 Y112.199 E0.0988
G1 X106.560 Y111.633 E0.1242
G1 X105.133 Y113.060 E0.2149
G1 X104.567 Y113.060 E0.2403
G1 X106.560 Y111.067 E0.3668
G1 X106.560 Y110.502 E0.3922
G1 X104.002 Y113.060 E0.5546
G1 X103.436 Y113.060 E0.5800
G1 X106.560 Y109.936 E0.7784
G1 X106.560 Y109.370 E0.8038
G1 X102.870 Y113.060 E1.0381
G1 X102.305 Y113.060 E1.0635
G1 X106.560 Y108.805 E1.3337
G1 X106.560 Y108.239 E1.3591
G1 X101.739 Y113.060 E1.6652
G1 X101.173 Y113.060 E1.6906
G1 X106.560 Y107.673 E2.0327
G1 X106.560 Y107.108 E2.0581
G1 X100.608 Y113.060 E2.4361
G1 X100.042 Y113.060 E2.4615
G1 X106.560 Y106.542 E2.8754
G1 X106.560 Y105.976 E2.9008
G1 X99.476 Y113.060 E3.3506
G1 X98.911 Y113.060 E3.3760
G1 X106.560 Y105.411 E3.8617
G1 X106.560 Y104.845 E3.8871
G1 X98.345 Y113.060 E4.4088
G1 X97.779 Y113.060 E4.4342
G1 X106.560 Y104.279 E4.9917
G1 X106.560 Y103.714 E5.0171
G1 X97.214 Y113.060 E5.6106
G1 X96.648 Y113.060 E5.6360
G1 X106.560 Y103.148 E6.2655
G1 X106.560 Y102.582 E6.2909
G1 X96.082 Y113.060 E6.9562
G1 X95.516 Y113.060 E6.9816
G1 X98.778 Y109.799 E7.1887
G1 X98.772 Y109.803 E7.1890
G1 X98.370 Y109.990 E7.2089
G1 X97.942 Y110.105 E7.2289
G1 X97.902 Y110.108 E7.2306
G1 X94.951 Y113.060 E7.4181
G1 X94.385 Y113.060 E7.4435
G1 X97.318 Y110.128 E7.6297
G1 X97.058 Y110.105 E7.6413
G1 X96.834 Y110.045 E7.6517
G1 X93.819 Y113.060 E7.8432
G1 X93.254 Y113.060 E7.8686
G1 X96.421 Y109.893 E8.0697
G1 X96.228 Y109.803 E8.0793
G1 X96.062 Y109.686 E8.0884
G1 X92.688 Y113.060 E8.3026
G1 X92.122 Y113.060 E8.3280
G1 X95.749 Y109.433 E8.5583
G1 X95.552 Y109.235 E8.5709
G1 X95.482 Y109.135 E8.5764
G1 X91.557 Y113.060 E8.8256
G1 X90.991 Y113.060 E8.8510
G1 X95.260 Y108.791 E9.1221
G1 X95.110 Y108.470 E9.1380
G1 X95.090 Y108.395 E9.1415
G1 X90.425 Y113.060 E9.4377
G1 X89.860 Y113.060 E9.4631
G1 X94.986 Y107.934 E9.7886
G1 X94.956 Y107.600 E9.8036
G1 X94.976 Y107.378 E9.8136
G1 X89.294 Y113.060 E10.1744
G1 X88.728 Y113.060 E10.1998
G1 X95.155 Y106.633 E10.6079
G1 X95.297 Y106.328 E10.6230
G1 X95.552 Y105.965 E10.6429
G1 X95.865 Y105.652 E10.6628
G1 X96.228 Y105.397 E10.6828
G1 X96.533 Y105.255 E10.6979
G1 X106.560 Y95.228 E11.3346
G1 X106.560 Y94.663 E11.3600
G1 X88.440 Y112.783 E12.5106
G1 X88.440 Y112.217 E12.5360
G1 X106.560 Y94.097 E13.6866
G1 X106.560 Y93.531 E13.7120
G1 X88.440 Y111.651 E14.8626
G1 X88.440 Y111.086 E14.8880
G1 X106.560 Y92.966 E16.0386
G1 X106.560 Y92.400 E16.0640
G1 X88.440 Y110.520 E17.2146
G1 X88.440 Y109.954 E17.2400
G1 X106.560 Y91.834 E18.3907
G1 X106.560 Y91.268 E18.4161
G1 X88.440 Y109.388 E19.5667
G1 X88.440 Y108.823 E19.5921
G1 X106.560 Y90.703 E20.7427
G1 X106.560 Y90.137 E20.7681
G1 X88.440 Y108.257 E21.9187
G1 X88.440 Y107.691 E21.9441
G1 X106.560 Y89.571 E23.0947
G1 X106.560 Y89.006 E23.1201
G1 X88.440 Y107.126 E24.2708
G1 X88.440 Y106.560 E24.2962
G1 X106.560 Y88.440 E25.4468
G1 X106.560 Y87.874 E25.4722
G1 X88.440 Y105.994 E26.6228
G1 X88.440 Y105.429 E26.6482
G1 X106.560 Y87.309 E27.7988
G1 X106.560 Y86.743 E27.8242
G1 X100.595 Y92.708 E28.2030
G1 X100.526 Y92.840 E28.2097
G1 X100.248 Y93.235 E28.2314
G1 X99.918 Y93.589 E28.2531
G1 X99.543 Y93.894 E28.2748
G1 X99.202 Y94.101 E28.2927
G1 X88.440 Y104.863 E28.9761
G1 X88.440 Y104.297 E29.0015
G1 X98.288 Y94.449 E29.6268
G1 X98.221 Y94.468 E29.6300
G1 X97.742 Y94.534 E29.6517
G1 X97.638 Y94.534 E29.6564
G1 X88.440 Y103.732 E30.2404
G1 X88.440 Y103.166 E30.2658
G1 X97.095 Y94.511 E30.8154
G1 X96.779 Y94.468 E30.8297
G1 X96.617 Y94.423 E30.8372
G1 X88.440 Y102.600 E31.3565
G1 X88.440 Y102.035 E31.3819
G1 X96.190 Y94.284 E31.8740
G1 X95.870 Y94.145 E31.8897
G1 X95.804 Y94.105 E31.8932
G1 X88.440 Y101.469 E32.3608
G1 X88.440 Y100.903 E32.3862
G1 X95.453 Y93.890 E32.8315
G1 X95.141 Y93.637 E32.8496
