; G-Code generated by Simplify3D(R) Version 3.0.2
; 1ÔÂ 22, 2016 at 12:44:47 ÉÏÎç
; Settings Summary
;   processName,Process3
;   applyToModels,13
;   profileName,me
;   profileVersion,2015-09-08 10:04:24
;   baseProfile,Default
;   printMaterial,PLA
;   printQuality,Medium
;   printExtruders,
;   extruderName,Extruder 1
;   extruderToolheadNumber,0
;   extruderDiameter,0.4
;   extruderAutoWidth,0
;   extruderWidth,0.4
;   extrusionMultiplier,0.9
;   extruderUseRetract,1
;   extruderRetractionDistance,5
;   extruderExtraRestartDistance,0
;   extruderRetractionZLift,0
;   extruderRetractionSpeed,6000
;   extruderUseCoasting,0
;   extruderCoastingDistance,0.2
;   extruderUseWipe,0
;   extruderWipeDistance,5
;   primaryExtruder,0
;   layerHeight,0.3
;   topSolidLayers,3
;   bottomSolidLayers,3
;   perimeterOutlines,2
;   printPerimetersInsideOut,1
;   startPointOption,2
;   startPointOriginX,0
;   startPointOriginY,0
;   startPointOriginZ,300
;   sequentialIslands,0
;   spiralVaseMode,0
;   firstLayerHeightPercentage,90
;   firstLayerWidthPercentage,100
;   firstLayerUnderspeed,0.5
;   useRaft,0
;   raftExtruder,0
;   raftLayers,3
;   raftOffset,3
;   raftSeparationDistance,0.14
;   raftInfill,85
;   disableRaftBaseLayers,0
;   useSkirt,1
;   skirtExtruder,0
;   skirtLayers,1
;   skirtOutlines,2
;   skirtOffset,10
;   usePrimePillar,0
;   primePillarExtruder,999
;   primePillarWidth,12
;   primePillarLocation,7
;   primePillarSpeedMultiplier,1
;   useOozeShield,0
;   oozeShieldExtruder,999
;   oozeShieldOffset,2
;   oozeShieldOutlines,1
;   oozeShieldSidewallShape,1
;   oozeShieldSidewallAngle,30
;   oozeShieldSpeedMultiplier,1
;   infillExtruder,0
;   internalInfillPattern,Rectilinear
;   externalInfillPattern,Rectilinear
;   infillPercentage,60
;   outlineOverlapPercentage,15
;   infillExtrusionWidthPercentage,100
;   minInfillLength,5
;   infillLayerInterval,1
;   infillAngles,45,-45
;   overlapInfillAngles,0
;   generateSupport,1
;   supportExtruder,0
;   supportInfillPercentage,20
;   supportExtraInflation,0
;   denseSupportLayers,0
;   denseSupportInfillPercentage,70
;   supportLayerInterval,1
;   supportHorizontalPartOffset,0.3
;   supportUpperSeparationLayers,1
;   supportLowerSeparationLayers,1
;   supportType,0
;   supportGridSpacing,4
;   maxOverhangAngle,45
;   supportAngles,0
;   temperatureName,Extruder 1 Temperature,Bed
;   temperatureNumber,0,0
;   temperatureSetpointCount,1,1
;   temperatureSetpointLayers,1,1
;   temperatureSetpointTemperatures,210,75
;   temperatureStabilizeAtStartup,1,1
;   temperatureHeatedBed,0,1
;   temperatureRelayBetweenLayers,0,0
;   temperatureRelayBetweenLoops,0,0
;   fanLayers,1,2
;   fanSpeeds,0,100
;   blipFanToFullPower,0
;   adjustSpeedForCooling,1
;   minSpeedLayerTime,15
;   minCoolingSpeedSlowdown,20
;   increaseFanForCooling,0
;   minFanLayerTime,45
;   maxCoolingFanSpeed,100
;   increaseFanForBridging,0
;   bridgingFanSpeed,100
;   use5D,1
;   relativeEdistances,0
;   allowEaxisZeroing,1
;   independentExtruderAxes,0
;   includeM10123,0
;   stickySupport,1
;   applyToolheadOffsets,0
;   gcodeXoffset,0
;   gcodeYoffset,0
;   gcodeZoffset,0
;   overrideMachineDefinition,1
;   machineTypeOverride,0
;   strokeXoverride,195
;   strokeYoverride,195
;   strokeZoverride,195
;   originOffsetXoverride,0
;   originOffsetYoverride,0
;   originOffsetZoverride,0
;   homeXdirOverride,-1
;   homeYdirOverride,-1
;   homeZdirOverride,-1
;   flipXoverride,1
;   flipYoverride,-1
;   flipZoverride,1
;   toolheadOffsets,0,0|0,0|0,0|0,0|0,0|0,0
;   overrideFirmwareConfiguration,1
;   firmwareTypeOverride,RepRap (Marlin/Repetier/Sprinter)
;   GPXconfigOverride,r2
;   baudRateOverride,115200
;   overridePrinterModels,0
;   printerModelsOverride
;   startingGcode,G28 ; home all axes
;   layerChangeGcode,
;   retractionGcode,
;   toolChangeGcode,
;   endingGcode,M104 S0 ; turn off extruder,M140 S0 ; turn off bed,M84 ; disable motors,G28 X0 Y0
;   createX3G,0
;   celebration,0
;   celebrationSong,Random Song
;   createMB5G,0
;   postProcessing,
;   defaultSpeed,3600
;   outlineUnderspeed,0.5
;   solidInfillUnderspeed,0.8
;   supportUnderspeed,0.8
;   rapidXYspeed,4800
;   rapidZspeed,1000
;   minBridgingArea,50
;   bridgingExtraInflation,0
;   bridgingExtrusionMultiplier,1
;   bridgingSpeedMultiplier,1
;   filamentDiameter,1.75
;   filamentPricePerKg,46
;   filamentDensity,1.25
;   useMinPrintHeight,0
;   minPrintHeight,0
;   useMaxPrintHeight,0
;   maxPrintHeight,0
;   useDiaphragm,0
;   diaphragmLayerInterval,20
;   robustSlicing,1
;   mergeAllIntoSolid,0
;   onlyRetractWhenCrossingOutline,1
;   retractBetweenLayers,1
;   useRetractionMinTravel,0
;   retractionMinTravel,3
;   retractWhileWiping,0
;   onlyWipeOutlines,1
;   avoidCrossingOutline,0
;   maxMovementDetourFactor,3
;   toolChangeRetractionDistance,12
;   toolChangeExtraRestartDistance,-0.5
;   toolChangeRetractionSpeed,600
;   allowThinWallGapFill,1
;   thinWallAllowedOverlapPercentage,10
;   horizontalSizeCompensation,0
G90
M82
M106 S0
M140 S75
M190 S75
M104 S210 T0
M109 S210 T0
G28 ; home all axes
G92 E0
G1 E-5.0000 F6000
G1 Z0.270 F1000
; layer 1, Z = 0.27
T0
; tool H0.300 W0.400
; skirt
G1 X81.591 Y81.018 F4800
G1 E0.0000 F1800
G92 E0
G1 X87.618 Y74.991 E0.3827 F1800
G1 X87.838 Y74.900 E0.3934
G1 X107.161 Y74.900 E1.2610
G1 X107.382 Y74.991 E1.2718
G1 X113.409 Y81.018 E1.6544
G1 X113.500 Y81.239 E1.6652
G1 X113.500 Y113.761 E3.1255
G1 X113.409 Y113.982 E3.1362
G1 X107.382 Y120.009 E3.5189
G1 X107.161 Y120.100 E3.5296
G1 X87.838 Y120.100 E4.3972
G1 X87.618 Y120.009 E4.4079
G1 X81.591 Y113.982 E4.7906
G1 X81.500 Y113.761 E4.8014
G1 X81.500 Y81.239 E6.2617
G1 X81.591 Y81.018 E6.2724
G1 X81.930 Y81.245 F4800
G92 E0
G1 X87.845 Y75.330 E0.3755 F1800
G1 X87.918 Y75.300 E0.3791
G1 X107.082 Y75.300 E1.2396
G1 X107.155 Y75.330 E1.2432
G1 X113.070 Y81.245 E1.6187
G1 X113.100 Y81.318 E1.6223
G1 X113.100 Y113.682 E3.0755
G1 X113.070 Y113.755 E3.0790
G1 X107.155 Y119.670 E3.4546
G1 X107.082 Y119.700 E3.4582
G1 X87.918 Y119.700 E4.3186
G1 X87.845 Y119.670 E4.3222
G1 X81.930 Y113.755 E4.6978
G1 X81.900 Y113.682 E4.7013
G1 X81.900 Y81.318 E6.1545
G1 X81.930 Y81.245 E6.1581
G92 E0
G1 E-5.0000 F6000
; inner perimeter
G1 X92.700 Y86.100 F4800
G1 E0.0000 F6000
G92 E0
G1 X102.300 Y86.100 E0.4311 F1350
G1 X102.300 Y108.900 E1.4548
G1 X92.700 Y108.900 E1.8859
G1 X92.700 Y104.895 E2.0657
G1 X93.447 Y105.473 E2.1081
G1 X94.083 Y105.785 E2.1399
G1 X94.770 Y105.963 E2.1718
G1 X95.477 Y105.999 E2.2036
G1 X96.178 Y105.891 E2.2354
G1 X96.843 Y105.645 E2.2672
G1 X97.444 Y105.270 E2.2991
G1 X97.958 Y104.782 E2.3309
G1 X98.363 Y104.200 E2.3627
G1 X98.642 Y103.549 E2.3945
G1 X98.785 Y102.854 E2.4264
G1 X98.785 Y102.146 E2.4582
G1 X98.642 Y101.451 E2.4900
G1 X98.363 Y100.800 E2.5219
G1 X97.958 Y100.218 E2.5537
G1 X97.444 Y99.730 E2.5855
G1 X96.843 Y99.355 E2.6173
G1 X96.178 Y99.109 E2.6492
G1 X95.477 Y99.001 E2.6810
G1 X94.770 Y99.037 E2.7128
G1 X94.083 Y99.215 E2.7446
G1 X93.447 Y99.527 E2.7765
G1 X92.700 Y100.105 E2.8189
G1 X92.700 Y86.100 E3.4477
; outer perimeter
G1 X92.300 Y85.700 F4800
G92 E0
G1 X102.700 Y85.700 E0.4670 F900
G1 X102.700 Y109.300 E1.5266
G1 X92.300 Y109.300 E1.9936
G1 X92.300 Y103.244 E2.2655
G1 X92.450 Y103.723 E2.2881
G1 X92.755 Y104.272 E2.3162
G1 X93.163 Y104.748 E2.3444
G1 X93.660 Y105.132 E2.3726
G1 X94.223 Y105.408 E2.4008
G1 X94.830 Y105.565 E2.4289
G1 X95.457 Y105.597 E2.4571
G1 X96.077 Y105.502 E2.4853
G1 X96.666 Y105.284 E2.5135
G1 X97.198 Y104.952 E2.5416
G1 X97.653 Y104.520 E2.5698
G1 X98.011 Y104.005 E2.5980
G1 X98.259 Y103.428 E2.6262
G1 X98.385 Y102.814 E2.6543
G1 X98.385 Y102.186 E2.6825
G1 X98.259 Y101.572 E2.7107
G1 X98.011 Y100.995 E2.7388
G1 X97.653 Y100.480 E2.7670
G1 X97.198 Y100.048 E2.7952
G1 X96.666 Y99.716 E2.8234
G1 X96.077 Y99.498 E2.8515
G1 X95.457 Y99.403 E2.8797
G1 X94.830 Y99.435 E2.9079
G1 X94.223 Y99.592 E2.9361
G1 X93.660 Y99.868 E2.9642
G1 X93.163 Y100.252 E2.9924
G1 X92.755 Y100.728 E3.0206
G1 X92.450 Y101.277 E3.0488
G1 X92.300 Y101.756 E3.0713
G1 X92.300 Y85.700 E3.7922
; inner perimeter
; outer perimeter
; solid layer
G1 X93.040 Y86.687 F4800
G92 E0
G1 X93.287 Y86.440 E0.0157 F1440
G1 X93.852 Y86.440 E0.0411
G1 X93.040 Y87.252 E0.0926
G1 X93.040 Y87.818 E0.1180
G1 X94.418 Y86.440 E0.2055
G1 X94.984 Y86.440 E0.2309
G1 X93.040 Y88.384 E0.3543
G1 X93.040 Y88.949 E0.3797
G1 X95.549 Y86.440 E0.5391
G1 X96.115 Y86.440 E0.5645
G1 X93.040 Y89.515 E0.7597
G1 X93.040 Y90.081 E0.7851
G1 X96.681 Y86.440 E1.0163
G1 X97.246 Y86.440 E1.0417
G1 X93.040 Y90.646 E1.3088
G1 X93.040 Y91.212 E1.3342
G1 X97.812 Y86.440 E1.6372
G1 X98.378 Y86.440 E1.6626
G1 X93.040 Y91.778 E2.0016
G1 X93.040 Y92.343 E2.0270
G1 X98.943 Y86.440 E2.4019
G1 X99.509 Y86.440 E2.4273
G1 X93.040 Y92.909 E2.8380
G1 X93.040 Y93.475 E2.8634
G1 X100.075 Y86.440 E3.3101
G1 X100.640 Y86.440 E3.3355
G1 X93.040 Y94.040 E3.8182
G1 X93.040 Y94.606 E3.8436
G1 X101.206 Y86.440 E4.3621
G1 X101.772 Y86.440 E4.3875
G1 X93.040 Y95.172 E4.9420
G1 X93.040 Y95.738 E4.9674
G1 X101.960 Y86.817 E5.5338
G1 X101.960 Y87.383 E5.5592
G1 X93.040 Y96.303 E6.1256
G1 X93.040 Y96.869 E6.1510
G1 X101.960 Y87.949 E6.7174
G1 X101.960 Y88.515 E6.7428
G1 X93.040 Y97.435 E7.3093
G1 X93.040 Y98.000 E7.3347
G1 X101.960 Y89.080 E7.9011
G1 X101.960 Y89.646 E7.9265
G1 X93.040 Y98.566 E8.4929
G1 X93.040 Y99.132 E8.5183
G1 X101.960 Y90.212 E9.0847
G1 X101.960 Y90.777 E9.1101
G1 X93.726 Y99.012 E9.6330
G1 X93.965 Y98.894 E9.6450
G1 X94.564 Y98.739 E9.6728
G1 X101.960 Y91.343 E10.1424
G1 X101.960 Y91.909 E10.1678
G1 X95.193 Y98.675 E10.5975
G1 X95.495 Y98.660 E10.6111
G1 X95.737 Y98.697 E10.6221
G1 X101.960 Y92.474 E11.0172
G1 X101.960 Y93.040 E11.0426
G1 X96.228 Y98.772 E11.4066
G1 X96.264 Y98.778 E11.4083
G1 X96.646 Y98.920 E11.4266
G1 X101.960 Y93.606 E11.7640
G1 X101.960 Y94.171 E11.7894
G1 X97.049 Y99.083 E12.1013
G1 X97.397 Y99.300 E12.1197
G1 X101.960 Y94.737 E12.4094
G1 X101.960 Y95.303 E12.4348
G1 X97.730 Y99.533 E12.7034
G1 X98.020 Y99.808 E12.7214
G1 X101.960 Y95.868 E12.9716
G1 X101.960 Y96.434 E12.9970
G1 X98.292 Y100.102 E13.2299
G1 X98.524 Y100.436 E13.2482
G1 X101.960 Y97.000 E13.4664
G1 X101.960 Y97.566 E13.4918
G1 X98.731 Y100.795 E13.6968
G1 X98.901 Y101.191 E13.7162
G1 X101.960 Y98.131 E13.9104
G1 X101.960 Y98.697 E13.9358
G1 X99.026 Y101.631 E14.1221
G1 X99.123 Y102.100 E14.1436
G1 X101.960 Y99.263 E14.3238
G1 X101.960 Y99.828 E14.3492
G1 X99.125 Y102.663 E14.5292
G1 X99.125 Y102.889 E14.5393
G1 X99.037 Y103.317 E14.5590
G1 X101.960 Y100.394 E14.7446
G1 X101.960 Y100.960 E14.7700
G1 X98.743 Y104.177 E14.9742
G1 X98.662 Y104.366 E14.9835
G1 X98.217 Y105.004 E15.0184
G1 X97.653 Y105.540 E15.0533
G1 X96.993 Y105.952 E15.0883
G1 X96.953 Y105.967 E15.0902
G1 X94.360 Y108.560 E15.2549
G1 X93.794 Y108.560 E15.2803
G1 X96.108 Y106.246 E15.4272
G1 X95.495 Y106.340 E15.4551
G1 X95.451 Y106.338 E15.4571
G1 X93.228 Y108.560 E15.5982
G1 X93.040 Y108.560 E15.6066
G1 X93.040 Y108.183 E15.6236
G1 X94.912 Y106.310 E15.7425
G1 X94.718 Y106.301 E15.7512
G1 X94.431 Y106.226 E15.7645
G1 X93.040 Y107.617 E15.8528
G1 X93.040 Y107.051 E15.8782
G1 X93.981 Y106.110 E15.9380
G1 X93.965 Y106.106 E15.9388
G1 X93.599 Y105.926 E15.9571
G1 X93.040 Y106.486 E15.9926
G1 X93.040 Y105.920 E16.0180
G1 X93.227 Y105.733 E16.0299
G1 X94.925 Y108.560 F4800
G92 E0
G1 X101.960 Y101.525 E0.4467 F1440
G1 X101.960 Y102.091 E0.4721
G1 X95.491 Y108.560 E0.8829
G1 X96.057 Y108.560 E0.9083
G1 X101.960 Y102.657 E1.2831
G1 X101.960 Y103.222 E1.3085
G1 X96.622 Y108.560 E1.6475
G1 X97.188 Y108.560 E1.6729
G1 X101.960 Y103.788 E1.9759
G1 X101.960 Y104.354 E2.0013
G1 X97.754 Y108.560 E2.2684
G1 X98.319 Y108.560 E2.2938
G1 X101.960 Y104.919 E2.5250
G1 X101.960 Y105.485 E2.5504
G1 X98.885 Y108.560 E2.7456
G1 X99.451 Y108.560 E2.7710
G1 X101.960 Y106.051 E2.9304
G1 X101.960 Y106.616 E2.9558
G1 X100.016 Y108.560 E3.0792
G1 X100.582 Y108.560 E3.1046
G1 X101.960 Y107.182 E3.1921
G1 X101.960 Y107.748 E3.2175
G1 X101.148 Y108.560 E3.2690
G1 X101.714 Y108.560 E3.2944
G1 X101.960 Y108.314 E3.3101
G92 E0
G1 E-5.0000 F6000
; layer 2, Z = 0.57
M106 S255
; inner perimeter
G1 X102.300 Y108.900 F4800
G1 Z0.570 F1000
G1 E0.0000 F6000
G92 E0
G1 X92.700 Y108.900 E0.4311 F2434
G1 X92.700 Y104.895 E0.6109
G1 X93.447 Y105.473 E0.6533
G1 X94.083 Y105.785 E0.6851
G1 X94.770 Y105.963 E0.7170
G1 X95.477 Y105.999 E0.7488
G1 X96.178 Y105.891 E0.7806
G1 X96.843 Y105.645 E0.8124
G1 X97.444 Y105.270 E0.8443
G1 X97.958 Y104.782 E0.8761
G1 X98.363 Y104.200 E0.9079
G1 X98.642 Y103.549 E0.9397
G1 X98.785 Y102.854 E0.9716
G1 X98.785 Y102.146 E1.0034
G1 X98.642 Y101.451 E1.0352
G1 X98.363 Y100.800 E1.0671
G1 X97.958 Y100.218 E1.0989
G1 X97.444 Y99.730 E1.1307
G1 X96.843 Y99.355 E1.1625
G1 X96.178 Y99.109 E1.1944
G1 X95.477 Y99.001 E1.2262
G1 X94.770 Y99.037 E1.2580
G1 X94.083 Y99.215 E1.2898
G1 X93.447 Y99.527 E1.3217
G1 X92.700 Y100.105 E1.3641
G1 X92.700 Y86.100 E1.9929
G1 X102.300 Y86.100 E2.4240
G1 X102.300 Y108.900 E3.4477
; outer perimeter
G1 X102.700 Y109.300 F4800
G92 E0
G1 X92.300 Y109.300 E0.4670 F1623
G1 X92.300 Y103.244 E0.7389
G1 X92.450 Y103.723 E0.7614
G1 X92.755 Y104.272 E0.7896
G1 X93.163 Y104.748 E0.8178
G1 X93.660 Y105.132 E0.8460
G1 X94.223 Y105.408 E0.8741
G1 X94.830 Y105.565 E0.9023
G1 X95.457 Y105.597 E0.9305
G1 X96.077 Y105.502 E0.9587
G1 X96.666 Y105.284 E0.9868
G1 X97.198 Y104.952 E1.0150
G1 X97.653 Y104.520 E1.0432
G1 X98.011 Y104.005 E1.0713
G1 X98.259 Y103.428 E1.0995
G1 X98.385 Y102.814 E1.1277
G1 X98.385 Y102.186 E1.1559
G1 X98.259 Y101.572 E1.1840
G1 X98.011 Y100.995 E1.2122
G1 X97.653 Y100.480 E1.2404
G1 X97.198 Y100.048 E1.2686
G1 X96.666 Y99.716 E1.2967
G1 X96.077 Y99.498 E1.3249
G1 X95.457 Y99.403 E1.3531
G1 X94.830 Y99.435 E1.3812
G1 X94.223 Y99.592 E1.4094
G1 X93.660 Y99.868 E1.4376
G1 X93.163 Y100.252 E1.4658
G1 X92.755 Y100.728 E1.4939
G1 X92.450 Y101.277 E1.5221
G1 X92.300 Y101.756 E1.5447
G1 X92.300 Y85.700 E2.2656
G1 X102.700 Y85.700 E2.7326
G1 X102.700 Y109.300 E3.7922
; inner perimeter
; outer perimeter
; solid layer
G1 X99.084 Y101.913 F4800
G92 E0
G1 X101.960 Y104.788 E0.1826 F2596
G1 X101.960 Y105.354 E0.2080
G1 X99.125 Y102.519 E0.3880
G1 X99.125 Y102.889 E0.4046
G1 X99.092 Y103.051 E0.4121
G1 X101.960 Y105.920 E0.5942
G1 X101.960 Y106.485 E0.6196
G1 X98.995 Y103.521 E0.8079
G1 X98.968 Y103.651 E0.8138
G1 X98.846 Y103.937 E0.8278
G1 X101.960 Y107.051 E1.0256
G1 X101.960 Y107.617 E1.0510
G1 X98.676 Y104.333 E1.2595
G1 X98.662 Y104.366 E1.2611
G1 X98.449 Y104.672 E1.2778
G1 X101.960 Y108.183 E1.5008
G1 X101.960 Y108.560 E1.5177
G1 X101.772 Y108.560 E1.5262
G1 X98.217 Y105.005 E1.7519
G1 X97.927 Y105.281 E1.7699
G1 X101.206 Y108.560 E1.9781
G1 X100.640 Y108.560 E2.0035
G1 X97.633 Y105.553 E2.1945
G1 X97.285 Y105.770 E2.2129
G1 X100.075 Y108.560 E2.3901
G1 X99.509 Y108.560 E2.4155
G1 X96.926 Y105.977 E2.5795
G1 X96.513 Y106.130 E2.5993
G1 X98.943 Y108.560 E2.7536
G1 X98.378 Y108.560 E2.7790
G1 X96.070 Y106.252 E2.9256
G1 X95.579 Y106.327 E2.9478
G1 X97.812 Y108.560 E3.0896
G1 X97.246 Y108.560 E3.1150
G1 X95.001 Y106.315 E3.2576
G1 X94.718 Y106.301 E3.2703
G1 X94.317 Y106.197 E3.2889
G1 X96.681 Y108.560 E3.4390
G1 X96.115 Y108.560 E3.4644
G1 X93.368 Y105.813 E3.6388
G1 X93.266 Y105.763 E3.6439
G1 X93.040 Y105.588 E3.6567
G1 X93.040 Y106.051 E3.6775
G1 X95.549 Y108.560 E3.8369
G1 X94.984 Y108.560 E3.8623
G1 X93.040 Y106.616 E3.9857
G1 X93.040 Y107.182 E4.0111
G1 X94.418 Y108.560 E4.0986
G1 X93.852 Y108.560 E4.1240
G1 X93.040 Y107.748 E4.1756
G1 X93.040 Y108.313 E4.2010
G1 X93.287 Y108.560 E4.2166
G92 E0
G1 E-5.0000 F6000
G1 X93.124 Y99.347 F4800
G1 E0.0000 F6000
G92 E0
G1 X93.040 Y99.263 E0.0054 F2596
G1 X93.040 Y98.697 E0.0308
G1 X93.477 Y99.134 E0.0585
G1 X93.856 Y98.948 E0.0775
G1 X93.040 Y98.131 E0.1293
G1 X93.040 Y97.565 E0.1547
G1 X94.286 Y98.811 E0.2338
G1 X94.718 Y98.699 E0.2539
G1 X94.739 Y98.698 E0.2548
G1 X93.040 Y97.000 E0.3627
G1 X93.040 Y96.434 E0.3881
G1 X95.277 Y98.671 E0.5301
G1 X95.495 Y98.660 E0.5399
G1 X95.893 Y98.721 E0.5580
G1 X93.040 Y95.868 E0.7391
