; G-Code generated by Simplify3D(R) Version 3.0.2
; 1ÔÂ 22, 2016 at 12:45:51 ÉÏÎç
; Settings Summary
;   processName,Process3
;   applyToModels,18
;   profileName,me
;   profileVersion,2015-09-08 10:04:24
;   baseProfile,Default
;   printMaterial,PLA
;   printQuality,Medium
;   printExtruders,
;   extruderName,Extruder 1
;   extruderToolheadNumber,0
;   extruderDiameter,0.4
;   extruderAutoWidth,0
;   extruderWidth,0.4
;   extrusionMultiplier,0.9
;   extruderUseRetract,1
;   extruderRetractionDistance,5
;   extruderExtraRestartDistance,0
;   extruderRetractionZLift,0
;   extruderRetractionSpeed,6000
;   extruderUseCoasting,0
;   extruderCoastingDistance,0.2
;   extruderUseWipe,0
;   extruderWipeDistance,5
;   primaryExtruder,0
;   layerHeight,0.3
;   topSolidLayers,3
;   bottomSolidLayers,3
;   perimeterOutlines,2
;   printPerimetersInsideOut,1
;   startPointOption,2
;   startPointOriginX,0
;   startPointOriginY,0
;   startPointOriginZ,300
;   sequentialIslands,0
;   spiralVaseMode,0
;   firstLayerHeightPercentage,90
;   firstLayerWidthPercentage,100
;   firstLayerUnderspeed,0.5
;   useRaft,0
;   raftExtruder,0
;   raftLayers,3
;   raftOffset,3
;   raftSeparationDistance,0.14
;   raftInfill,85
;   disableRaftBaseLayers,0
;   useSkirt,1
;   skirtExtruder,0
;   skirtLayers,1
;   skirtOutlines,2
;   skirtOffset,10
;   usePrimePillar,0
;   primePillarExtruder,999
;   primePillarWidth,12
;   primePillarLocation,7
;   primePillarSpeedMultiplier,1
;   useOozeShield,0
;   oozeShieldExtruder,999
;   oozeShieldOffset,2
;   oozeShieldOutlines,1
;   oozeShieldSidewallShape,1
;   oozeShieldSidewallAngle,30
;   oozeShieldSpeedMultiplier,1
;   infillExtruder,0
;   internalInfillPattern,Rectilinear
;   externalInfillPattern,Rectilinear
;   infillPercentage,60
;   outlineOverlapPercentage,15
;   infillExtrusionWidthPercentage,100
;   minInfillLength,5
;   infillLayerInterval,1
;   infillAngles,45,-45
;   overlapInfillAngles,0
;   generateSupport,1
;   supportExtruder,0
;   supportInfillPercentage,20
;   supportExtraInflation,0
;   denseSupportLayers,0
;   denseSupportInfillPercentage,70
;   supportLayerInterval,1
;   supportHorizontalPartOffset,0.3
;   supportUpperSeparationLayers,1
;   supportLowerSeparationLayers,1
;   supportType,0
;   supportGridSpacing,4
;   maxOverhangAngle,45
;   supportAngles,0
;   temperatureName,Extruder 1 Temperature,Bed
;   temperatureNumber,0,0
;   temperatureSetpointCount,1,1
;   temperatureSetpointLayers,1,1
;   temperatureSetpointTemperatures,210,75
;   temperatureStabilizeAtStartup,1,1
;   temperatureHeatedBed,0,1
;   temperatureRelayBetweenLayers,0,0
;   temperatureRelayBetweenLoops,0,0
;   fanLayers,1,2
;   fanSpeeds,0,100
;   blipFanToFullPower,0
;   adjustSpeedForCooling,1
;   minSpeedLayerTime,15
;   minCoolingSpeedSlowdown,20
;   increaseFanForCooling,0
;   minFanLayerTime,45
;   maxCoolingFanSpeed,100
;   increaseFanForBridging,0
;   bridgingFanSpeed,100
;   use5D,1
;   relativeEdistances,0
;   allowEaxisZeroing,1
;   independentExtruderAxes,0
;   includeM10123,0
;   stickySupport,1
;   applyToolheadOffsets,0
;   gcodeXoffset,0
;   gcodeYoffset,0
;   gcodeZoffset,0
;   overrideMachineDefinition,1
;   machineTypeOverride,0
;   strokeXoverride,195
;   strokeYoverride,195
;   strokeZoverride,195
;   originOffsetXoverride,0
;   originOffsetYoverride,0
;   originOffsetZoverride,0
;   homeXdirOverride,-1
;   homeYdirOverride,-1
;   homeZdirOverride,-1
;   flipXoverride,1
;   flipYoverride,-1
;   flipZoverride,1
;   toolheadOffsets,0,0|0,0|0,0|0,0|0,0|0,0
;   overrideFirmwareConfiguration,1
;   firmwareTypeOverride,RepRap (Marlin/Repetier/Sprinter)
;   GPXconfigOverride,r2
;   baudRateOverride,115200
;   overridePrinterModels,0
;   printerModelsOverride
;   startingGcode,G28 ; home all axes
;   layerChangeGcode,
;   retractionGcode,
;   toolChangeGcode,
;   endingGcode,M104 S0 ; turn off extruder,M140 S0 ; turn off bed,M84 ; disable motors,G28 X0 Y0
;   createX3G,0
;   celebration,0
;   celebrationSong,Random Song
;   createMB5G,0
;   postProcessing,
;   defaultSpeed,3600
;   outlineUnderspeed,0.5
;   solidInfillUnderspeed,0.8
;   supportUnderspeed,0.8
;   rapidXYspeed,4800
;   rapidZspeed,1000
;   minBridgingArea,50
;   bridgingExtraInflation,0
;   bridgingExtrusionMultiplier,1
;   bridgingSpeedMultiplier,1
;   filamentDiameter,1.75
;   filamentPricePerKg,46
;   filamentDensity,1.25
;   useMinPrintHeight,0
;   minPrintHeight,0
;   useMaxPrintHeight,0
;   maxPrintHeight,0
;   useDiaphragm,0
;   diaphragmLayerInterval,20
;   robustSlicing,1
;   mergeAllIntoSolid,0
;   onlyRetractWhenCrossingOutline,1
;   retractBetweenLayers,1
;   useRetractionMinTravel,0
;   retractionMinTravel,3
;   retractWhileWiping,0
;   onlyWipeOutlines,1
;   avoidCrossingOutline,0
;   maxMovementDetourFactor,3
;   toolChangeRetractionDistance,12
;   toolChangeExtraRestartDistance,-0.5
;   toolChangeRetractionSpeed,600
;   allowThinWallGapFill,1
;   thinWallAllowedOverlapPercentage,10
;   horizontalSizeCompensation,0
G90
M82
M106 S0
M140 S75
M190 S75
M104 S210 T0
M109 S210 T0
G28 ; home all axes
G92 E0
G1 E-5.0000 F6000
G1 Z0.270 F1000
; layer 1, Z = 0.27
T0
; tool H0.300 W0.400
; skirt
G1 X61.518 Y88.741 F4800
G1 E0.0000 F1800
G92 E0
G1 X61.739 Y88.650 E0.0107 F1800
G1 X79.281 Y88.650 E0.7984
G1 X79.568 Y88.363 E0.8166
G1 X79.597 Y88.337 E0.8184
G1 X81.083 Y87.197 E0.9024
G1 X81.115 Y87.176 E0.9042
G1 X82.285 Y86.500 E0.9648
G1 X82.320 Y86.483 E0.9666
G1 X84.050 Y85.767 E1.0507
G1 X84.087 Y85.754 E1.0524
G1 X85.391 Y85.405 E1.1130
G1 X85.429 Y85.397 E1.1148
G1 X86.951 Y85.197 E1.1837
G1 X86.970 Y85.195 E1.1846
G1 X87.643 Y85.151 E1.2149
G1 X87.663 Y85.150 E1.2157
G1 X106.709 Y85.150 E2.0710
G1 X111.618 Y80.241 E2.3827
G1 X111.839 Y80.150 E2.3934
G1 X126.161 Y80.150 E3.0365
G1 X126.382 Y80.241 E3.0472
G1 X131.291 Y85.150 E3.3589
G1 X133.261 Y85.150 E3.4474
G1 X133.482 Y85.241 E3.4581
G1 X139.509 Y91.268 E3.8408
G1 X139.600 Y91.489 E3.8515
G1 X139.600 Y105.011 E4.4587
G1 X139.509 Y105.232 E4.4694
G1 X133.482 Y111.259 E4.8521
G1 X133.261 Y111.350 E4.8629
G1 X97.719 Y111.350 E6.4587
G1 X97.432 Y111.637 E6.4770
G1 X97.403 Y111.663 E6.4787
G1 X95.917 Y112.803 E6.5628
G1 X95.885 Y112.824 E6.5646
G1 X94.715 Y113.499 E6.6252
G1 X94.680 Y113.517 E6.6270
G1 X92.950 Y114.233 E6.7110
G1 X92.913 Y114.246 E6.7128
G1 X91.609 Y114.595 E6.7734
G1 X91.571 Y114.603 E6.7752
G1 X90.049 Y114.803 E6.8441
G1 X90.030 Y114.805 E6.8449
G1 X89.357 Y114.849 E6.8752
G1 X89.337 Y114.850 E6.8761
G1 X61.739 Y114.850 E8.1153
G1 X61.518 Y114.759 E8.1260
G1 X55.491 Y108.732 E8.5087
G1 X55.400 Y108.511 E8.5194
G1 X55.400 Y94.989 E9.1266
G1 X55.491 Y94.768 E9.1374
G1 X61.518 Y88.741 E9.5201
G1 X61.745 Y89.080 F4800
G92 E0
G1 X61.818 Y89.050 E0.0036 F1800
G1 X79.447 Y89.050 E0.7951
G1 X79.841 Y88.655 E0.8202
G1 X79.851 Y88.647 E0.8208
G1 X81.316 Y87.523 E0.9037
G1 X81.327 Y87.516 E0.9042
G1 X82.473 Y86.853 E0.9637
G1 X82.485 Y86.848 E0.9643
G1 X84.191 Y86.141 E1.0472
G1 X84.203 Y86.137 E1.0478
G1 X85.482 Y85.794 E1.1072
G1 X85.495 Y85.792 E1.1078
G1 X86.996 Y85.594 E1.1758
G1 X87.003 Y85.593 E1.1761
G1 X87.663 Y85.550 E1.2058
G1 X87.669 Y85.550 E1.2061
G1 X106.875 Y85.550 E2.0684
G1 X111.845 Y80.580 E2.3840
G1 X111.918 Y80.550 E2.3876
G1 X126.082 Y80.550 E3.0236
G1 X126.155 Y80.580 E3.0271
G1 X131.125 Y85.550 E3.3427
G1 X133.182 Y85.550 E3.4351
G1 X133.255 Y85.580 E3.4386
G1 X139.170 Y91.495 E3.8142
G1 X139.200 Y91.568 E3.8177
G1 X139.200 Y104.932 E4.4178
G1 X139.170 Y105.005 E4.4214
G1 X133.255 Y110.920 E4.7969
G1 X133.182 Y110.950 E4.8005
G1 X97.553 Y110.950 E6.4003
G1 X97.159 Y111.345 E6.4253
G1 X97.149 Y111.353 E6.4259
G1 X95.684 Y112.477 E6.5088
G1 X95.673 Y112.484 E6.5094
G1 X94.527 Y113.147 E6.5688
G1 X94.515 Y113.152 E6.5694
G1 X92.809 Y113.859 E6.6523
G1 X92.797 Y113.863 E6.6529
G1 X91.518 Y114.206 E6.7124
G1 X91.505 Y114.208 E6.7129
G1 X90.004 Y114.406 E6.7810
G1 X89.997 Y114.407 E6.7812
G1 X89.337 Y114.450 E6.8109
G1 X89.331 Y114.450 E6.8112
G1 X61.818 Y114.450 E8.0466
G1 X61.745 Y114.420 E8.0502
G1 X55.830 Y108.505 E8.4257
G1 X55.800 Y108.432 E8.4293
G1 X55.800 Y95.068 E9.0293
G1 X55.830 Y94.995 E9.0329
G1 X61.745 Y89.080 E9.4084
G92 E0
G1 E-5.0000 F6000
; inner perimeter
G1 X66.600 Y99.850 F4800
G1 E0.0000 F6000
G92 E0
G1 X86.600 Y99.850 E0.8980 F1350
G1 X86.600 Y97.789 E0.9906
G1 X86.653 Y97.389 E1.0087
G1 X86.792 Y97.053 E1.0250
G1 X87.014 Y96.764 E1.0414
G1 X87.303 Y96.542 E1.0577
G1 X87.639 Y96.403 E1.0741
G1 X88.039 Y96.350 E1.0922
G1 X116.700 Y96.350 E2.3791
G1 X116.700 Y91.350 E2.6036
G1 X121.300 Y91.350 E2.8102
G1 X121.300 Y96.350 E3.0347
G1 X128.400 Y96.350 E3.3535
G1 X128.400 Y100.150 E3.5241
G1 X90.400 Y100.150 E5.2303
G1 X90.400 Y102.211 E5.3229
G1 X90.347 Y102.611 E5.3410
G1 X90.208 Y102.947 E5.3573
G1 X89.986 Y103.236 E5.3737
G1 X89.697 Y103.458 E5.3900
G1 X89.361 Y103.597 E5.4064
G1 X88.961 Y103.650 E5.4245
G1 X66.600 Y103.650 E6.4285
G1 X66.600 Y99.850 E6.5992
; outer perimeter
G1 X66.200 Y99.450 F4800
G92 E0
G1 X86.200 Y99.450 E0.8980 F900
G1 X86.200 Y97.763 E0.9738
G1 X86.263 Y97.285 E0.9954
G1 X86.443 Y96.851 E1.0165
G1 X86.728 Y96.478 E1.0376
G1 X87.101 Y96.193 E1.0587
G1 X87.535 Y96.013 E1.0798
G1 X88.013 Y95.950 E1.1014
G1 X116.300 Y95.950 E2.3715
G1 X116.300 Y90.950 E2.5960
G1 X121.700 Y90.950 E2.8385
G1 X121.700 Y95.950 E3.0630
G1 X128.800 Y95.950 E3.3818
G1 X128.800 Y100.550 E3.5884
G1 X90.800 Y100.550 E5.2946
G1 X90.800 Y102.237 E5.3704
G1 X90.737 Y102.715 E5.3920
G1 X90.557 Y103.149 E5.4131
G1 X90.272 Y103.522 E5.4342
G1 X89.899 Y103.807 E5.4553
G1 X89.465 Y103.987 E5.4763
G1 X88.987 Y104.050 E5.4980
G1 X66.200 Y104.050 E6.5212
G1 X66.200 Y99.450 E6.7277
; solid layer
G1 X66.940 Y100.341 F4800
G92 E0
G1 X67.091 Y100.190 E0.0096 F1440
G1 X67.657 Y100.190 E0.0350
G1 X66.940 Y100.907 E0.0806
G1 X66.940 Y101.473 E0.1060
G1 X68.223 Y100.190 E0.1874
G1 X68.789 Y100.190 E0.2128
G1 X66.940 Y102.039 E0.3302
G1 X66.940 Y102.604 E0.3556
G1 X69.354 Y100.190 E0.5089
G1 X69.920 Y100.190 E0.5343
G1 X66.940 Y103.170 E0.7235
G1 X66.940 Y103.310 E0.7298
G1 X67.366 Y103.310 E0.7489
G1 X70.486 Y100.190 E0.9470
G1 X71.051 Y100.190 E0.9724
G1 X67.931 Y103.310 E1.1706
G1 X68.497 Y103.310 E1.1960
G1 X71.617 Y100.190 E1.3941
G1 X72.183 Y100.190 E1.4195
G1 X69.063 Y103.310 E1.6176
G1 X69.628 Y103.310 E1.6430
G1 X72.748 Y100.190 E1.8411
G1 X73.314 Y100.190 E1.8665
G1 X70.194 Y103.310 E2.0646
G1 X70.760 Y103.310 E2.0900
G1 X73.880 Y100.190 E2.2882
G1 X74.445 Y100.190 E2.3136
G1 X71.325 Y103.310 E2.5117
G1 X71.891 Y103.310 E2.5371
G1 X75.011 Y100.190 E2.7352
G1 X75.577 Y100.190 E2.7606
G1 X72.457 Y103.310 E2.9587
G1 X73.022 Y103.310 E2.9841
G1 X76.142 Y100.190 E3.1822
G1 X76.708 Y100.190 E3.2076
G1 X73.588 Y103.310 E3.4058
G1 X74.154 Y103.310 E3.4312
G1 X77.274 Y100.190 E3.6293
G1 X77.839 Y100.190 E3.6547
G1 X74.719 Y103.310 E3.8528
G1 X75.285 Y103.310 E3.8782
G1 X78.405 Y100.190 E4.0763
G1 X78.971 Y100.190 E4.1017
G1 X75.851 Y103.310 E4.2998
G1 X76.417 Y103.310 E4.3252
G1 X79.537 Y100.190 E4.5233
G1 X80.102 Y100.190 E4.5487
G1 X76.982 Y103.310 E4.7469
G1 X77.548 Y103.310 E4.7723
G1 X80.668 Y100.190 E4.9704
G1 X81.234 Y100.190 E4.9958
G1 X78.114 Y103.310 E5.1939
G1 X78.679 Y103.310 E5.2193
G1 X81.799 Y100.190 E5.4174
G1 X82.365 Y100.190 E5.4428
G1 X79.245 Y103.310 E5.6409
G1 X79.811 Y103.310 E5.6663
G1 X82.931 Y100.190 E5.8645
G1 X83.496 Y100.190 E5.8899
G1 X80.376 Y103.310 E6.0880
G1 X80.942 Y103.310 E6.1134
G1 X84.062 Y100.190 E6.3115
G1 X84.628 Y100.190 E6.3369
G1 X81.508 Y103.310 E6.5350
G1 X82.073 Y103.310 E6.5604
G1 X85.193 Y100.190 E6.7585
G1 X85.759 Y100.190 E6.7839
G1 X82.639 Y103.310 E6.9821
G1 X83.205 Y103.310 E7.0075
G1 X86.325 Y100.190 E7.2056
G1 X86.890 Y100.190 E7.2310
G1 X83.770 Y103.310 E7.4291
G1 X84.336 Y103.310 E7.4545
G1 X90.956 Y96.690 E7.8749
G1 X91.522 Y96.690 E7.9003
G1 X84.902 Y103.310 E8.3206
G1 X85.467 Y103.310 E8.3460
G1 X92.087 Y96.690 E8.7664
G1 X92.653 Y96.690 E8.7918
G1 X86.033 Y103.310 E9.2122
G1 X86.599 Y103.310 E9.2376
G1 X90.060 Y99.849 E9.4574
G1 X90.060 Y100.415 E9.4828
G1 X87.165 Y103.310 E9.6666
G1 X87.730 Y103.310 E9.6920
G1 X90.060 Y100.980 E9.8400
G1 X90.060 Y101.546 E9.8654
G1 X88.296 Y103.310 E9.9774
G1 X88.862 Y103.310 E10.0028
G1 X90.060 Y102.112 E10.0789
G1 X90.060 Y102.188 E10.0823
G1 X90.016 Y102.522 E10.0974
G1 X89.911 Y102.776 E10.1098
G1 X89.745 Y102.993 E10.1220
G1 X89.743 Y102.995 E10.1222
G1 X90.099 Y99.810 F4800
G92 E0
G1 X93.219 Y96.690 E0.1981 F1440
G1 X93.785 Y96.690 E0.2235
G1 X90.665 Y99.810 E0.4216
G1 X91.230 Y99.810 E0.4470
G1 X94.350 Y96.690 E0.6452
G1 X94.916 Y96.690 E0.6706
G1 X91.796 Y99.810 E0.8687
G1 X92.362 Y99.810 E0.8941
G1 X95.482 Y96.690 E1.0922
G1 X96.047 Y96.690 E1.1176
G1 X92.927 Y99.810 E1.3157
G1 X93.493 Y99.810 E1.3411
G1 X96.613 Y96.690 E1.5392
G1 X97.179 Y96.690 E1.5646
G1 X94.059 Y99.810 E1.7628
G1 X94.624 Y99.810 E1.7882
G1 X97.744 Y96.690 E1.9863
G1 X98.310 Y96.690 E2.0117
G1 X95.190 Y99.810 E2.2098
G1 X95.756 Y99.810 E2.2352
G1 X98.876 Y96.690 E2.4333
G1 X99.441 Y96.690 E2.4587
G1 X96.321 Y99.810 E2.6568
G1 X96.887 Y99.810 E2.6822
G1 X100.007 Y96.690 E2.8804
G1 X100.573 Y96.690 E2.9058
G1 X97.453 Y99.810 E3.1039
G1 X98.018 Y99.810 E3.1293
G1 X101.138 Y96.690 E3.3274
G1 X101.704 Y96.690 E3.3528
G1 X98.584 Y99.810 E3.5509
G1 X99.150 Y99.810 E3.5763
G1 X102.270 Y96.690 E3.7744
G1 X102.836 Y96.690 E3.7998
G1 X99.716 Y99.810 E3.9980
G1 X100.281 Y99.810 E4.0234
G1 X103.401 Y96.690 E4.2215
G1 X103.967 Y96.690 E4.2469
G1 X100.847 Y99.810 E4.4450
G1 X101.413 Y99.810 E4.4704
G1 X104.533 Y96.690 E4.6685
G1 X105.098 Y96.690 E4.6939
G1 X101.978 Y99.810 E4.8920
G1 X102.544 Y99.810 E4.9174
G1 X105.664 Y96.690 E5.1155
G1 X106.230 Y96.690 E5.1409
G1 X103.110 Y99.810 E5.3391
G1 X103.675 Y99.810 E5.3645
G1 X106.795 Y96.690 E5.5626
G1 X107.361 Y96.690 E5.5880
G1 X104.241 Y99.810 E5.7861
G1 X104.807 Y99.810 E5.8115
G1 X107.927 Y96.690 E6.0096
G1 X108.492 Y96.690 E6.0350
G1 X105.372 Y99.810 E6.2331
G1 X105.938 Y99.810 E6.2585
G1 X109.058 Y96.690 E6.4567
G1 X109.624 Y96.690 E6.4821
G1 X106.504 Y99.810 E6.6802
G1 X107.069 Y99.810 E6.7056
G1 X110.189 Y96.690 E6.9037
G1 X110.755 Y96.690 E6.9291
G1 X107.635 Y99.810 E7.1272
G1 X108.201 Y99.810 E7.1526
G1 X111.321 Y96.690 E7.3507
G1 X111.886 Y96.690 E7.3761
G1 X108.766 Y99.810 E7.5743
G1 X109.332 Y99.810 E7.5997
G1 X112.452 Y96.690 E7.7978
G1 X113.018 Y96.690 E7.8232
G1 X109.898 Y99.810 E8.0213
G1 X110.464 Y99.810 E8.0467
G1 X113.584 Y96.690 E8.2448
G1 X114.149 Y96.690 E8.2702
G1 X111.029 Y99.810 E8.4683
G1 X111.595 Y99.810 E8.4937
G1 X114.715 Y96.690 E8.6919
G1 X115.281 Y96.690 E8.7173
G1 X112.161 Y99.810 E8.9154
G1 X112.726 Y99.810 E8.9408
G1 X115.846 Y96.690 E9.1389
G1 X116.412 Y96.690 E9.1643
G1 X113.292 Y99.810 E9.3624
G1 X113.858 Y99.810 E9.3878
G1 X116.978 Y96.690 E9.5859
G1 X117.040 Y96.690 E9.5887
G1 X117.040 Y96.628 E9.5915
G1 X120.960 Y92.708 E9.8405
G1 X120.960 Y93.273 E9.8659
G1 X114.423 Y99.810 E10.2809
G1 X114.989 Y99.810 E10.3063
G1 X120.960 Y93.839 E10.6855
G1 X120.960 Y94.405 E10.7109
G1 X115.555 Y99.810 E11.0541
G1 X116.120 Y99.810 E11.0795
G1 X120.960 Y94.970 E11.3868
G1 X120.960 Y95.536 E11.4122
G1 X116.686 Y99.810 E11.6836
G1 X117.252 Y99.810 E11.7090
G1 X120.960 Y96.102 E11.9445
G1 X120.960 Y96.667 E11.9699
G1 X117.817 Y99.810 E12.1695
G1 X118.383 Y99.810 E12.1949
G1 X121.503 Y96.690 E12.3930
G1 X122.069 Y96.690 E12.4184
G1 X118.949 Y99.810 E12.6165
G1 X119.515 Y99.810 E12.6419
G1 X122.635 Y96.690 E12.8400
G1 X123.200 Y96.690 E12.8654
G1 X120.080 Y99.810 E13.0635
G1 X120.646 Y99.810 E13.0889
G1 X123.766 Y96.690 E13.2871
G1 X124.332 Y96.690 E13.3125
G1 X121.212 Y99.810 E13.5106
G1 X121.777 Y99.810 E13.5360
G1 X124.897 Y96.690 E13.7341
G1 X125.463 Y96.690 E13.7595
G1 X122.343 Y99.810 E13.9576
G1 X122.909 Y99.810 E13.9830
G1 X126.029 Y96.690 E14.1811
G1 X126.594 Y96.690 E14.2065
G1 X123.474 Y99.810 E14.4046
G1 X124.040 Y99.810 E14.4300
G1 X127.160 Y96.690 E14.6282
G1 X127.726 Y96.690 E14.6536
G1 X124.606 Y99.810 E14.8517
G1 X125.171 Y99.810 E14.8771
G1 X128.060 Y96.921 E15.0605
