; G-Code generated by Simplify3D(R) Version 3.0.2
; 1ÔÂ 22, 2016 at 12:42:33 ÉÏÎç
; Settings Summary
;   processName,Process3
;   applyToModels,3
;   profileName,me
;   profileVersion,2015-09-08 10:04:24
;   baseProfile,Default
;   printMaterial,PLA
;   printQuality,Medium
;   printExtruders,
;   extruderName,Extruder 1
;   extruderToolheadNumber,0
;   extruderDiameter,0.4
;   extruderAutoWidth,0
;   extruderWidth,0.4
;   extrusionMultiplier,0.9
;   extruderUseRetract,1
;   extruderRetractionDistance,5
;   extruderExtraRestartDistance,0
;   extruderRetractionZLift,0
;   extruderRetractionSpeed,6000
;   extruderUseCoasting,0
;   extruderCoastingDistance,0.2
;   extruderUseWipe,0
;   extruderWipeDistance,5
;   primaryExtruder,0
;   layerHeight,0.3
;   topSolidLayers,3
;   bottomSolidLayers,3
;   perimeterOutlines,2
;   printPerimetersInsideOut,1
;   startPointOption,2
;   startPointOriginX,0
;   startPointOriginY,0
;   startPointOriginZ,300
;   sequentialIslands,0
;   spiralVaseMode,0
;   firstLayerHeightPercentage,90
;   firstLayerWidthPercentage,100
;   firstLayerUnderspeed,0.5
;   useRaft,0
;   raftExtruder,0
;   raftLayers,3
;   raftOffset,3
;   raftSeparationDistance,0.14
;   raftInfill,85
;   disableRaftBaseLayers,0
;   useSkirt,1
;   skirtExtruder,0
;   skirtLayers,1
;   skirtOutlines,2
;   skirtOffset,10
;   usePrimePillar,0
;   primePillarExtruder,999
;   primePillarWidth,12
;   primePillarLocation,7
;   primePillarSpeedMultiplier,1
;   useOozeShield,0
;   oozeShieldExtruder,999
;   oozeShieldOffset,2
;   oozeShieldOutlines,1
;   oozeShieldSidewallShape,1
;   oozeShieldSidewallAngle,30
;   oozeShieldSpeedMultiplier,1
;   infillExtruder,0
;   internalInfillPattern,Rectilinear
;   externalInfillPattern,Rectilinear
;   infillPercentage,60
;   outlineOverlapPercentage,15
;   infillExtrusionWidthPercentage,100
;   minInfillLength,5
;   infillLayerInterval,1
;   infillAngles,45,-45
;   overlapInfillAngles,0
;   generateSupport,1
;   supportExtruder,0
;   supportInfillPercentage,20
;   supportExtraInflation,0
;   denseSupportLayers,0
;   denseSupportInfillPercentage,70
;   supportLayerInterval,1
;   supportHorizontalPartOffset,0.3
;   supportUpperSeparationLayers,1
;   supportLowerSeparationLayers,1
;   supportType,0
;   supportGridSpacing,4
;   maxOverhangAngle,45
;   supportAngles,0
;   temperatureName,Extruder 1 Temperature,Bed
;   temperatureNumber,0,0
;   temperatureSetpointCount,1,1
;   temperatureSetpointLayers,1,1
;   temperatureSetpointTemperatures,210,75
;   temperatureStabilizeAtStartup,1,1
;   temperatureHeatedBed,0,1
;   temperatureRelayBetweenLayers,0,0
;   temperatureRelayBetweenLoops,0,0
;   fanLayers,1,2
;   fanSpeeds,0,100
;   blipFanToFullPower,0
;   adjustSpeedForCooling,1
;   minSpeedLayerTime,15
;   minCoolingSpeedSlowdown,20
;   increaseFanForCooling,0
;   minFanLayerTime,45
;   maxCoolingFanSpeed,100
;   increaseFanForBridging,0
;   bridgingFanSpeed,100
;   use5D,1
;   relativeEdistances,0
;   allowEaxisZeroing,1
;   independentExtruderAxes,0
;   includeM10123,0
;   stickySupport,1
;   applyToolheadOffsets,0
;   gcodeXoffset,0
;   gcodeYoffset,0
;   gcodeZoffset,0
;   overrideMachineDefinition,1
;   machineTypeOverride,0
;   strokeXoverride,195
;   strokeYoverride,195
;   strokeZoverride,195
;   originOffsetXoverride,0
;   originOffsetYoverride,0
;   originOffsetZoverride,0
;   homeXdirOverride,-1
;   homeYdirOverride,-1
;   homeZdirOverride,-1
;   flipXoverride,1
;   flipYoverride,-1
;   flipZoverride,1
;   toolheadOffsets,0,0|0,0|0,0|0,0|0,0|0,0
;   overrideFirmwareConfiguration,1
;   firmwareTypeOverride,RepRap (Marlin/Repetier/Sprinter)
;   GPXconfigOverride,r2
;   baudRateOverride,115200
;   overridePrinterModels,0
;   printerModelsOverride
;   startingGcode,G28 ; home all axes
;   layerChangeGcode,
;   retractionGcode,
;   toolChangeGcode,
;   endingGcode,M104 S0 ; turn off extruder,M140 S0 ; turn off bed,M84 ; disable motors,G28 X0 Y0
;   createX3G,0
;   celebration,0
;   celebrationSong,Random Song
;   createMB5G,0
;   postProcessing,
;   defaultSpeed,3600
;   outlineUnderspeed,0.5
;   solidInfillUnderspeed,0.8
;   supportUnderspeed,0.8
;   rapidXYspeed,4800
;   rapidZspeed,1000
;   minBridgingArea,50
;   bridgingExtraInflation,0
;   bridgingExtrusionMultiplier,1
;   bridgingSpeedMultiplier,1
;   filamentDiameter,1.75
;   filamentPricePerKg,46
;   filamentDensity,1.25
;   useMinPrintHeight,0
;   minPrintHeight,0
;   useMaxPrintHeight,0
;   maxPrintHeight,0
;   useDiaphragm,0
;   diaphragmLayerInterval,20
;   robustSlicing,1
;   mergeAllIntoSolid,0
;   onlyRetractWhenCrossingOutline,1
;   retractBetweenLayers,1
;   useRetractionMinTravel,0
;   retractionMinTravel,3
;   retractWhileWiping,0
;   onlyWipeOutlines,1
;   avoidCrossingOutline,0
;   maxMovementDetourFactor,3
;   toolChangeRetractionDistance,12
;   toolChangeExtraRestartDistance,-0.5
;   toolChangeRetractionSpeed,600
;   allowThinWallGapFill,1
;   thinWallAllowedOverlapPercentage,10
;   horizontalSizeCompensation,0
G90
M82
M106 S0
M140 S75
M190 S75
M104 S210 T0
M109 S210 T0
G28 ; home all axes
G92 E0
G1 E-5.0000 F6000
G1 Z0.270 F1000
; layer 1, Z = 0.27
T0
; tool H0.300 W0.400
; skirt
G1 X67.374 Y58.980 F4800
G1 E0.0000 F1800
G92 E0
G1 X67.390 Y58.962 E0.0011 F1800
G1 X67.962 Y58.390 E0.0374
G1 X67.980 Y58.374 E0.0385
G1 X69.073 Y57.441 E0.1030
G1 X69.091 Y57.426 E0.1041
G1 X69.746 Y56.950 E0.1404
G1 X69.765 Y56.937 E0.1414
G1 X70.991 Y56.187 E0.2060
G1 X71.011 Y56.175 E0.2070
G1 X71.732 Y55.808 E0.2434
G1 X71.754 Y55.798 E0.2444
G1 X73.081 Y55.248 E0.3090
G1 X73.103 Y55.240 E0.3100
G1 X73.873 Y54.990 E0.3464
G1 X73.896 Y54.983 E0.3474
G1 X75.293 Y54.648 E0.4119
G1 X75.316 Y54.643 E0.4130
G1 X76.116 Y54.516 E0.4493
G1 X76.139 Y54.514 E0.4504
G1 X77.370 Y54.417 E0.5058
G1 X77.382 Y54.416 E0.5064
G1 X77.786 Y54.400 E0.5245
G1 X77.798 Y54.400 E0.5251
G1 X117.202 Y54.400 E2.2943
G1 X117.214 Y54.400 E2.2949
G1 X117.617 Y54.416 E2.3130
G1 X117.629 Y54.417 E2.3135
G1 X118.858 Y54.513 E2.3689
G1 X118.881 Y54.516 E2.3699
G1 X119.679 Y54.642 E2.4062
G1 X119.702 Y54.647 E2.4073
G1 X121.097 Y54.981 E2.4717
G1 X121.120 Y54.987 E2.4727
G1 X121.888 Y55.237 E2.5090
G1 X121.910 Y55.245 E2.5101
G1 X123.236 Y55.793 E2.5745
G1 X123.257 Y55.803 E2.5755
G1 X123.978 Y56.169 E2.6118
G1 X123.998 Y56.180 E2.6129
G1 X125.222 Y56.929 E2.6773
G1 X125.242 Y56.942 E2.6783
G1 X125.896 Y57.416 E2.7146
G1 X125.914 Y57.431 E2.7157
G1 X127.006 Y58.361 E2.7801
G1 X127.024 Y58.377 E2.7811
G1 X127.596 Y58.948 E2.8174
G1 X127.612 Y58.965 E2.8185
G1 X128.548 Y60.058 E2.8831
G1 X128.563 Y60.077 E2.8842
G1 X129.044 Y60.738 E2.9209
G1 X129.057 Y60.758 E2.9220
G1 X129.820 Y62.003 E2.9875
G1 X129.831 Y62.024 E2.9886
G1 X130.202 Y62.752 E3.0253
G1 X130.212 Y62.773 E3.0263
G1 X130.760 Y64.105 E3.0910
G1 X130.769 Y64.127 E3.0921
G1 X131.018 Y64.898 E3.1285
G1 X131.024 Y64.921 E3.1295
G1 X131.356 Y66.317 E3.1940
G1 X131.361 Y66.340 E3.1950
G1 X131.485 Y67.132 E3.2310
G1 X131.488 Y67.156 E3.2321
G1 X131.583 Y68.374 E3.2870
G1 X131.584 Y68.386 E3.2875
G1 X131.600 Y68.787 E3.3055
G1 X131.600 Y68.799 E3.3060
G1 X131.600 Y134.261 E6.2454
G1 X131.509 Y134.482 E6.2561
G1 X125.482 Y140.509 E6.6388
G1 X125.261 Y140.600 E6.6495
G1 X69.739 Y140.600 E9.1426
G1 X69.518 Y140.509 E9.1533
G1 X63.491 Y134.482 E9.5360
G1 X63.400 Y134.261 E9.5467
G1 X63.400 Y68.798 E12.4861
G1 X63.400 Y68.786 E12.4866
G1 X63.416 Y68.382 E12.5048
G1 X63.417 Y68.370 E12.5053
G1 X63.514 Y67.139 E12.5607
G1 X63.516 Y67.116 E12.5618
G1 X63.643 Y66.316 E12.5981
G1 X63.648 Y66.293 E12.5992
G1 X63.983 Y64.896 E12.6637
G1 X63.990 Y64.873 E12.6648
G1 X64.240 Y64.103 E12.7011
G1 X64.248 Y64.081 E12.7022
G1 X64.798 Y62.754 E12.7667
G1 X64.808 Y62.732 E12.7678
G1 X65.175 Y62.011 E12.8041
G1 X65.187 Y61.991 E12.8052
G1 X65.937 Y60.765 E12.8697
G1 X65.950 Y60.746 E12.8708
G1 X66.426 Y60.091 E12.9071
G1 X66.441 Y60.073 E12.9081
G1 X67.374 Y58.980 E12.9727
G1 X67.673 Y59.246 F4800
G92 E0
G1 X67.678 Y59.240 E0.0004 F1800
G1 X68.240 Y58.678 E0.0360
G1 X68.245 Y58.673 E0.0364
G1 X69.326 Y57.750 E0.1002
G1 X69.332 Y57.745 E0.1005
G1 X69.975 Y57.279 E0.1362
G1 X69.981 Y57.274 E0.1365
G1 X71.193 Y56.532 E0.2003
G1 X71.200 Y56.528 E0.2007
G1 X71.907 Y56.168 E0.2363
G1 X71.914 Y56.164 E0.2367
G1 X73.227 Y55.620 E0.3005
G1 X73.235 Y55.618 E0.3008
G1 X73.989 Y55.372 E0.3365
G1 X73.997 Y55.370 E0.3368
G1 X75.379 Y55.038 E0.4006
G1 X75.387 Y55.037 E0.4010
G1 X76.171 Y54.913 E0.4366
G1 X76.178 Y54.912 E0.4370
G1 X77.398 Y54.816 E0.4919
G1 X77.401 Y54.816 E0.4921
G1 X77.798 Y54.800 E0.5099
G1 X77.802 Y54.800 E0.5101
G1 X117.198 Y54.800 E2.2790
G1 X117.202 Y54.800 E2.2792
G1 X117.598 Y54.816 E2.2970
G1 X117.602 Y54.816 E2.2971
G1 X118.818 Y54.911 E2.3519
G1 X118.826 Y54.912 E2.3523
G1 X119.609 Y55.036 E2.3879
G1 X119.616 Y55.038 E2.3882
G1 X120.996 Y55.368 E2.4519
G1 X121.004 Y55.370 E2.4523
G1 X121.757 Y55.615 E2.4879
G1 X121.765 Y55.618 E2.4882
G1 X123.076 Y56.160 E2.5519
G1 X123.083 Y56.163 E2.5523
G1 X123.789 Y56.522 E2.5878
G1 X123.796 Y56.526 E2.5882
G1 X125.007 Y57.266 E2.6519
G1 X125.013 Y57.270 E2.6523
G1 X125.655 Y57.735 E2.6878
G1 X125.661 Y57.740 E2.6882
G1 X126.741 Y58.660 E2.7519
G1 X126.747 Y58.666 E2.7522
G1 X127.308 Y59.225 E2.7878
G1 X127.313 Y59.231 E2.7882
G1 X128.239 Y60.312 E2.8521
G1 X128.244 Y60.318 E2.8525
G1 X128.716 Y60.967 E2.8885
G1 X128.720 Y60.974 E2.8888
G1 X129.475 Y62.205 E2.9537
G1 X129.478 Y62.212 E2.9540
G1 X129.841 Y62.926 E2.9900
G1 X129.845 Y62.933 E2.9903
G1 X130.388 Y64.250 E3.0543
G1 X130.390 Y64.257 E3.0547
G1 X130.635 Y65.014 E3.0903
G1 X130.637 Y65.021 E3.0907
G1 X130.965 Y66.402 E3.1544
G1 X130.967 Y66.410 E3.1548
G1 X131.089 Y67.187 E3.1901
G1 X131.090 Y67.195 E3.1904
G1 X131.184 Y68.401 E3.2448
G1 X131.185 Y68.405 E3.2450
G1 X131.200 Y68.799 E3.2627
G1 X131.200 Y68.803 E3.2628
G1 X131.200 Y134.182 E6.1984
G1 X131.170 Y134.255 E6.2020
G1 X125.255 Y140.170 E6.5776
G1 X125.182 Y140.200 E6.5811
G1 X69.818 Y140.200 E9.0670
G1 X69.745 Y140.170 E9.0706
G1 X63.830 Y134.255 E9.4461
G1 X63.800 Y134.182 E9.4497
G1 X63.800 Y68.802 E12.3854
G1 X63.800 Y68.798 E12.3855
G1 X63.816 Y68.401 E12.4034
G1 X63.816 Y68.398 E12.4035
G1 X63.912 Y67.178 E12.4584
G1 X63.913 Y67.171 E12.4588
G1 X64.037 Y66.387 E12.4944
G1 X64.038 Y66.379 E12.4948
G1 X64.370 Y64.997 E12.5586
G1 X64.372 Y64.989 E12.5590
G1 X64.618 Y64.235 E12.5946
G1 X64.620 Y64.227 E12.5949
G1 X65.164 Y62.914 E12.6588
G1 X65.168 Y62.907 E12.6591
G1 X65.528 Y62.200 E12.6948
G1 X65.532 Y62.193 E12.6951
G1 X66.274 Y60.981 E12.7589
G1 X66.279 Y60.974 E12.7593
G1 X66.745 Y60.333 E12.7949
G1 X66.750 Y60.326 E12.7953
G1 X67.673 Y59.246 E12.8591
G92 E0
G1 E-5.0000 F6000
; inner perimeter
G1 X75.597 Y66.597 F4800
G1 E0.0000 F6000
G92 E0
G1 X76.003 Y66.251 E0.0239 F1350
G1 X76.457 Y65.972 E0.0479
G1 X76.950 Y65.768 E0.0718
G1 X77.468 Y65.644 E0.0958
G1 X78.024 Y65.600 E0.1208
G1 X116.976 Y65.600 E1.8698
G1 X117.531 Y65.644 E1.8948
G1 X118.048 Y65.768 E1.9187
G1 X118.540 Y65.971 E1.9426
G1 X118.994 Y66.249 E1.9665
G1 X119.399 Y66.594 E1.9904
G1 X119.745 Y66.997 E2.0142
G1 X120.031 Y67.464 E2.0388
G1 X120.233 Y67.955 E2.0627
G1 X120.357 Y68.475 E2.0866
G1 X120.400 Y69.023 E2.1113
G1 X120.400 Y129.400 E4.8223
G1 X74.600 Y129.400 E6.8788
G1 X74.600 Y69.024 E9.5898
G1 X74.644 Y68.468 E9.6148
G1 X74.768 Y67.950 E9.6387
G1 X74.972 Y67.457 E9.6627
G1 X75.251 Y67.003 E9.6866
G1 X75.597 Y66.597 E9.7105
; outer perimeter
G1 X75.313 Y66.313 F4800
G92 E0
G1 X75.767 Y65.926 E0.0268 F900
G1 X76.275 Y65.615 E0.0535
G1 X76.826 Y65.387 E0.0803
G1 X77.406 Y65.247 E0.1071
G1 X78.008 Y65.200 E0.1342
G1 X116.992 Y65.200 E1.8846
G1 X117.593 Y65.247 E1.9117
G1 X118.172 Y65.386 E1.9384
G1 X118.722 Y65.613 E1.9652
G1 X119.230 Y65.924 E1.9919
G1 X119.683 Y66.310 E2.0186
G1 X120.070 Y66.761 E2.0453
G1 X120.388 Y67.282 E2.0727
G1 X120.615 Y67.832 E2.0994
G1 X120.754 Y68.413 E2.1262
G1 X120.800 Y69.008 E2.1530
G1 X120.800 Y129.800 E4.8827
G1 X74.200 Y129.800 E6.9751
G1 X74.200 Y69.008 E9.7047
G1 X74.247 Y68.406 E9.7318
G1 X74.387 Y67.826 E9.7586
G1 X74.615 Y67.275 E9.7854
G1 X74.926 Y66.767 E9.8121
G1 X75.313 Y66.313 E9.8389
; inner perimeter
G1 X78.095 Y71.801 F4800
G92 E0
G1 X77.716 Y72.204 E0.0248 F1350
G1 X77.450 Y72.688 E0.0496
G1 X77.313 Y73.224 E0.0744
G1 X77.313 Y73.776 E0.0993
G1 X77.450 Y74.312 E0.1241
G1 X77.716 Y74.796 E0.1489
G1 X78.095 Y75.199 E0.1737
G1 X78.561 Y75.495 E0.1985
G1 X79.087 Y75.666 E0.2233
G1 X79.638 Y75.700 E0.2481
G1 X80.181 Y75.597 E0.2730
G1 X80.681 Y75.362 E0.2978
G1 X81.107 Y75.009 E0.3226
G1 X81.432 Y74.562 E0.3474
G1 X81.635 Y74.048 E0.3722
G1 X81.705 Y73.500 E0.3970
G1 X81.635 Y72.952 E0.4219
G1 X81.432 Y72.438 E0.4467
G1 X81.107 Y71.991 E0.4715
G1 X80.681 Y71.638 E0.4963
G1 X80.181 Y71.403 E0.5211
G1 X79.638 Y71.300 E0.5459
G1 X79.087 Y71.334 E0.5707
G1 X78.561 Y71.505 E0.5956
G1 X78.095 Y71.801 E0.6204
; outer perimeter
G1 X78.352 Y72.112 F4800
G92 E0
G1 X78.042 Y72.441 E0.0203 F900
G1 X77.825 Y72.837 E0.0406
G1 X77.713 Y73.274 E0.0608
G1 X77.713 Y73.726 E0.0811
G1 X77.825 Y74.163 E0.1014
G1 X78.042 Y74.559 E0.1217
G1 X78.352 Y74.888 E0.1419
G1 X78.733 Y75.130 E0.1622
G1 X79.162 Y75.270 E0.1825
G1 X79.613 Y75.298 E0.2028
G1 X80.057 Y75.213 E0.2230
G1 X80.465 Y75.021 E0.2433
G1 X80.813 Y74.733 E0.2636
G1 X81.079 Y74.368 E0.2839
G1 X81.245 Y73.948 E0.3042
G1 X81.302 Y73.500 E0.3244
G1 X81.245 Y73.052 E0.3447
G1 X81.079 Y72.632 E0.3650
G1 X80.813 Y72.267 E0.3853
G1 X80.465 Y71.979 E0.4055
G1 X80.057 Y71.787 E0.4258
G1 X79.613 Y71.702 E0.4461
G1 X79.162 Y71.730 E0.4664
G1 X78.733 Y71.870 E0.4867
G1 X78.352 Y72.112 E0.5069
; inner perimeter
G1 X90.767 Y68.840 F4800
G92 E0
G1 X90.482 Y69.529 E0.0335 F1350
G1 X90.307 Y70.254 E0.0670
G1 X90.248 Y70.997 E0.1004
G1 X90.306 Y71.740 E0.1339
G1 X90.480 Y72.466 E0.1674
G1 X90.765 Y73.155 E0.2009
G1 X91.154 Y73.791 E0.2344
G1 X91.638 Y74.358 E0.2678
G1 X92.205 Y74.843 E0.3013
G1 X92.840 Y75.233 E0.3348
G1 X93.529 Y75.518 E0.3683
G1 X94.147 Y75.667 E0.3969
G1 X94.128 Y75.938 E0.4091
G1 X93.241 Y76.018 E0.4490
G1 X92.085 Y76.228 E0.5018
G1 X90.952 Y76.541 E0.5546
G1 X89.851 Y76.954 E0.6073
G1 X88.792 Y77.464 E0.6601
G1 X87.783 Y78.067 E0.7129
G1 X86.832 Y78.757 E0.7657
G1 X85.947 Y79.531 E0.8185
G1 X85.134 Y80.381 E0.8713
G1 X84.401 Y81.300 E0.9240
G1 X83.754 Y82.281 E0.9768
G1 X83.197 Y83.316 E1.0296
G1 X82.735 Y84.397 E1.0824
G1 X82.371 Y85.515 E1.1352
G1 X82.110 Y86.661 E1.1879
G1 X81.952 Y87.826 E1.2407
G1 X81.899 Y89.000 E1.2935
G1 X81.952 Y90.174 E1.3463
G1 X82.110 Y91.339 E1.3991
G1 X82.371 Y92.485 E1.4519
G1 X82.735 Y93.603 E1.5046
G1 X83.197 Y94.684 E1.5574
G1 X83.754 Y95.719 E1.6102
G1 X84.401 Y96.700 E1.6630
G1 X85.134 Y97.619 E1.7158
G1 X85.947 Y98.469 E1.7685
G1 X86.832 Y99.242 E1.8213
G1 X87.783 Y99.933 E1.8741
G1 X88.792 Y100.536 E1.9269
G1 X89.851 Y101.046 E1.9797
G1 X90.952 Y101.459 E2.0325
G1 X92.085 Y101.772 E2.0852
G1 X93.241 Y101.982 E2.1380
G1 X94.412 Y102.087 E2.1908
G1 X95.588 Y102.087 E2.2436
G1 X96.759 Y101.982 E2.2964
G1 X97.915 Y101.772 E2.3492
G1 X99.048 Y101.459 E2.4019
G1 X100.149 Y101.046 E2.4547
G1 X101.208 Y100.536 E2.5075
G1 X102.217 Y99.933 E2.5603
G1 X103.168 Y99.242 E2.6131
G1 X104.053 Y98.469 E2.6658
G1 X104.866 Y97.619 E2.7186
G1 X105.599 Y96.700 E2.7714
G1 X106.246 Y95.719 E2.8242
G1 X106.803 Y94.684 E2.8770
G1 X107.265 Y93.603 E2.9297
G1 X107.628 Y92.485 E2.9825
G1 X107.890 Y91.339 E3.0353
G1 X108.048 Y90.174 E3.0881
G1 X108.101 Y89.000 E3.1409
G1 X108.048 Y87.826 E3.1937
G1 X107.890 Y86.661 E3.2464
G1 X107.628 Y85.515 E3.2992
G1 X107.265 Y84.397 E3.3520
G1 X106.803 Y83.316 E3.4048
G1 X106.246 Y82.281 E3.4576
G1 X105.599 Y81.300 E3.5103
G1 X104.866 Y80.381 E3.5631
G1 X104.053 Y79.531 E3.6159
G1 X103.168 Y78.757 E3.6687
G1 X102.217 Y78.067 E3.7215
G1 X101.208 Y77.464 E3.7743
G1 X100.149 Y76.954 E3.8270
G1 X99.048 Y76.541 E3.8798
G1 X97.915 Y76.228 E3.9326
G1 X96.759 Y76.018 E3.9854
G1 X95.872 Y75.938 E4.0254
G1 X95.852 Y75.667 E4.0376
G1 X96.466 Y75.520 E4.0659
G1 X97.155 Y75.235 E4.0994
G1 X97.791 Y74.846 E4.1328
G1 X98.358 Y74.362 E4.1663
