; G-Code generated by Simplify3D(R) Version 3.0.2
; 1ÔÂ 22, 2016 at 12:42:55 ÉÏÎç
; Settings Summary
;   processName,Process3
;   applyToModels,4
;   profileName,me
;   profileVersion,2015-09-08 10:04:24
;   baseProfile,Default
;   printMaterial,PLA
;   printQuality,Medium
;   printExtruders,
;   extruderName,Extruder 1
;   extruderToolheadNumber,0
;   extruderDiameter,0.4
;   extruderAutoWidth,0
;   extruderWidth,0.4
;   extrusionMultiplier,0.9
;   extruderUseRetract,1
;   extruderRetractionDistance,5
;   extruderExtraRestartDistance,0
;   extruderRetractionZLift,0
;   extruderRetractionSpeed,6000
;   extruderUseCoasting,0
;   extruderCoastingDistance,0.2
;   extruderUseWipe,0
;   extruderWipeDistance,5
;   primaryExtruder,0
;   layerHeight,0.3
;   topSolidLayers,3
;   bottomSolidLayers,3
;   perimeterOutlines,2
;   printPerimetersInsideOut,1
;   startPointOption,2
;   startPointOriginX,0
;   startPointOriginY,0
;   startPointOriginZ,300
;   sequentialIslands,0
;   spiralVaseMode,0
;   firstLayerHeightPercentage,90
;   firstLayerWidthPercentage,100
;   firstLayerUnderspeed,0.5
;   useRaft,0
;   raftExtruder,0
;   raftLayers,3
;   raftOffset,3
;   raftSeparationDistance,0.14
;   raftInfill,85
;   disableRaftBaseLayers,0
;   useSkirt,1
;   skirtExtruder,0
;   skirtLayers,1
;   skirtOutlines,2
;   skirtOffset,10
;   usePrimePillar,0
;   primePillarExtruder,999
;   primePillarWidth,12
;   primePillarLocation,7
;   primePillarSpeedMultiplier,1
;   useOozeShield,0
;   oozeShieldExtruder,999
;   oozeShieldOffset,2
;   oozeShieldOutlines,1
;   oozeShieldSidewallShape,1
;   oozeShieldSidewallAngle,30
;   oozeShieldSpeedMultiplier,1
;   infillExtruder,0
;   internalInfillPattern,Rectilinear
;   externalInfillPattern,Rectilinear
;   infillPercentage,60
;   outlineOverlapPercentage,15
;   infillExtrusionWidthPercentage,100
;   minInfillLength,5
;   infillLayerInterval,1
;   infillAngles,45,-45
;   overlapInfillAngles,0
;   generateSupport,1
;   supportExtruder,0
;   supportInfillPercentage,20
;   supportExtraInflation,0
;   denseSupportLayers,0
;   denseSupportInfillPercentage,70
;   supportLayerInterval,1
;   supportHorizontalPartOffset,0.3
;   supportUpperSeparationLayers,1
;   supportLowerSeparationLayers,1
;   supportType,0
;   supportGridSpacing,4
;   maxOverhangAngle,45
;   supportAngles,0
;   temperatureName,Extruder 1 Temperature,Bed
;   temperatureNumber,0,0
;   temperatureSetpointCount,1,1
;   temperatureSetpointLayers,1,1
;   temperatureSetpointTemperatures,210,75
;   temperatureStabilizeAtStartup,1,1
;   temperatureHeatedBed,0,1
;   temperatureRelayBetweenLayers,0,0
;   temperatureRelayBetweenLoops,0,0
;   fanLayers,1,2
;   fanSpeeds,0,100
;   blipFanToFullPower,0
;   adjustSpeedForCooling,1
;   minSpeedLayerTime,15
;   minCoolingSpeedSlowdown,20
;   increaseFanForCooling,0
;   minFanLayerTime,45
;   maxCoolingFanSpeed,100
;   increaseFanForBridging,0
;   bridgingFanSpeed,100
;   use5D,1
;   relativeEdistances,0
;   allowEaxisZeroing,1
;   independentExtruderAxes,0
;   includeM10123,0
;   stickySupport,1
;   applyToolheadOffsets,0
;   gcodeXoffset,0
;   gcodeYoffset,0
;   gcodeZoffset,0
;   overrideMachineDefinition,1
;   machineTypeOverride,0
;   strokeXoverride,195
;   strokeYoverride,195
;   strokeZoverride,195
;   originOffsetXoverride,0
;   originOffsetYoverride,0
;   originOffsetZoverride,0
;   homeXdirOverride,-1
;   homeYdirOverride,-1
;   homeZdirOverride,-1
;   flipXoverride,1
;   flipYoverride,-1
;   flipZoverride,1
;   toolheadOffsets,0,0|0,0|0,0|0,0|0,0|0,0
;   overrideFirmwareConfiguration,1
;   firmwareTypeOverride,RepRap (Marlin/Repetier/Sprinter)
;   GPXconfigOverride,r2
;   baudRateOverride,115200
;   overridePrinterModels,0
;   printerModelsOverride
;   startingGcode,G28 ; home all axes
;   layerChangeGcode,
;   retractionGcode,
;   toolChangeGcode,
;   endingGcode,M104 S0 ; turn off extruder,M140 S0 ; turn off bed,M84 ; disable motors,G28 X0 Y0
;   createX3G,0
;   celebration,0
;   celebrationSong,Random Song
;   createMB5G,0
;   postProcessing,
;   defaultSpeed,3600
;   outlineUnderspeed,0.5
;   solidInfillUnderspeed,0.8
;   supportUnderspeed,0.8
;   rapidXYspeed,4800
;   rapidZspeed,1000
;   minBridgingArea,50
;   bridgingExtraInflation,0
;   bridgingExtrusionMultiplier,1
;   bridgingSpeedMultiplier,1
;   filamentDiameter,1.75
;   filamentPricePerKg,46
;   filamentDensity,1.25
;   useMinPrintHeight,0
;   minPrintHeight,0
;   useMaxPrintHeight,0
;   maxPrintHeight,0
;   useDiaphragm,0
;   diaphragmLayerInterval,20
;   robustSlicing,1
;   mergeAllIntoSolid,0
;   onlyRetractWhenCrossingOutline,1
;   retractBetweenLayers,1
;   useRetractionMinTravel,0
;   retractionMinTravel,3
;   retractWhileWiping,0
;   onlyWipeOutlines,1
;   avoidCrossingOutline,0
;   maxMovementDetourFactor,3
;   toolChangeRetractionDistance,12
;   toolChangeExtraRestartDistance,-0.5
;   toolChangeRetractionSpeed,600
;   allowThinWallGapFill,1
;   thinWallAllowedOverlapPercentage,10
;   horizontalSizeCompensation,0
G90
M82
M106 S0
M140 S75
M190 S75
M104 S210 T0
M109 S210 T0
G28 ; home all axes
G92 E0
G1 E-5.0000 F6000
G1 Z0.270 F1000
; layer 1, Z = 0.27
T0
; tool H0.300 W0.400
; skirt
G1 X67.376 Y58.978 F4800
G1 E0.0000 F1800
G92 E0
G1 X67.392 Y58.960 E0.0011 F1800
G1 X67.972 Y58.381 E0.0379
G1 X67.989 Y58.365 E0.0389
G1 X69.086 Y57.431 E0.1036
G1 X69.104 Y57.416 E0.1047
G1 X69.758 Y56.942 E0.1409
G1 X69.778 Y56.929 E0.1420
G1 X71.002 Y56.180 E0.2064
G1 X71.022 Y56.169 E0.2075
G1 X71.743 Y55.803 E0.2437
G1 X71.764 Y55.793 E0.2448
G1 X73.090 Y55.245 E0.3092
G1 X73.112 Y55.237 E0.3103
G1 X73.880 Y54.987 E0.3465
G1 X73.903 Y54.981 E0.3476
G1 X75.298 Y54.647 E0.4120
G1 X75.321 Y54.642 E0.4131
G1 X76.119 Y54.516 E0.4493
G1 X76.142 Y54.513 E0.4504
G1 X77.371 Y54.417 E0.5057
G1 X77.383 Y54.416 E0.5063
G1 X77.786 Y54.400 E0.5244
G1 X77.798 Y54.400 E0.5249
G1 X117.202 Y54.400 E2.2942
G1 X117.214 Y54.400 E2.2947
G1 X117.618 Y54.416 E2.3129
G1 X117.630 Y54.417 E2.3134
G1 X118.861 Y54.514 E2.3689
G1 X118.884 Y54.516 E2.3699
G1 X119.684 Y54.643 E2.4063
G1 X119.707 Y54.648 E2.4073
G1 X121.104 Y54.983 E2.4719
G1 X121.127 Y54.990 E2.4729
G1 X121.897 Y55.240 E2.5093
G1 X121.919 Y55.248 E2.5103
G1 X123.246 Y55.798 E2.5748
G1 X123.268 Y55.808 E2.5759
G1 X123.989 Y56.175 E2.6122
G1 X124.009 Y56.187 E2.6133
G1 X125.235 Y56.937 E2.6778
G1 X125.254 Y56.951 E2.6789
G1 X125.909 Y57.426 E2.7152
G1 X125.928 Y57.441 E2.7163
G1 X127.020 Y58.374 E2.7808
G1 X127.038 Y58.390 E2.7819
G1 X127.610 Y58.962 E2.8182
G1 X127.626 Y58.980 E2.8193
G1 X128.559 Y60.072 E2.8838
G1 X128.574 Y60.091 E2.8848
G1 X129.049 Y60.746 E2.9212
G1 X129.063 Y60.765 E2.9222
G1 X129.813 Y61.991 E2.9868
G1 X129.825 Y62.011 E2.9878
G1 X130.192 Y62.732 E3.0242
G1 X130.202 Y62.754 E3.0252
G1 X130.752 Y64.081 E3.0898
G1 X130.760 Y64.104 E3.0908
G1 X131.010 Y64.873 E3.1272
G1 X131.017 Y64.896 E3.1282
G1 X131.352 Y66.293 E3.1927
G1 X131.357 Y66.316 E3.1938
G1 X131.484 Y67.116 E3.2301
G1 X131.486 Y67.139 E3.2312
G1 X131.583 Y68.370 E3.2866
G1 X131.584 Y68.382 E3.2872
G1 X131.600 Y68.786 E3.3053
G1 X131.600 Y68.798 E3.3059
G1 X131.600 Y134.261 E6.2453
G1 X131.509 Y134.482 E6.2560
G1 X125.482 Y140.509 E6.6387
G1 X125.261 Y140.600 E6.6494
G1 X69.739 Y140.600 E9.1424
G1 X69.518 Y140.509 E9.1531
G1 X63.491 Y134.482 E9.5358
G1 X63.400 Y134.261 E9.5466
G1 X63.400 Y68.799 E12.4859
G1 X63.400 Y68.787 E12.4864
G1 X63.416 Y68.386 E12.5045
G1 X63.417 Y68.374 E12.5050
G1 X63.512 Y67.156 E12.5599
G1 X63.515 Y67.133 E12.5609
G1 X63.639 Y66.340 E12.5969
G1 X63.644 Y66.317 E12.5980
G1 X63.976 Y64.921 E12.6624
G1 X63.982 Y64.898 E12.6635
G1 X64.231 Y64.127 E12.6999
G1 X64.240 Y64.105 E12.7009
G1 X64.787 Y62.778 E12.7654
G1 X64.796 Y62.756 E12.7664
G1 X65.162 Y62.036 E12.8027
G1 X65.174 Y62.015 E12.8038
G1 X65.923 Y60.787 E12.8684
G1 X65.936 Y60.767 E12.8694
G1 X66.414 Y60.107 E12.9061
G1 X66.429 Y60.088 E12.9071
G1 X67.376 Y58.978 E12.9727
G1 X67.675 Y59.243 F4800
G92 E0
G1 X67.681 Y59.237 E0.0004 F1800
G1 X68.249 Y58.669 E0.0364
G1 X68.255 Y58.664 E0.0368
G1 X69.339 Y57.740 E0.1007
G1 X69.345 Y57.735 E0.1011
G1 X69.987 Y57.270 E0.1367
G1 X69.993 Y57.266 E0.1370
G1 X71.204 Y56.526 E0.2007
G1 X71.211 Y56.522 E0.2011
G1 X71.917 Y56.163 E0.2367
G1 X71.924 Y56.160 E0.2370
G1 X73.235 Y55.618 E0.3007
G1 X73.243 Y55.615 E0.3011
G1 X73.996 Y55.370 E0.3366
G1 X74.004 Y55.368 E0.3370
G1 X75.384 Y55.038 E0.4007
G1 X75.391 Y55.036 E0.4011
G1 X76.174 Y54.912 E0.4366
G1 X76.182 Y54.911 E0.4370
G1 X77.399 Y54.816 E0.4918
G1 X77.402 Y54.816 E0.4920
G1 X77.798 Y54.800 E0.5098
G1 X77.802 Y54.800 E0.5099
G1 X117.198 Y54.800 E2.2789
G1 X117.202 Y54.800 E2.2790
G1 X117.599 Y54.816 E2.2969
G1 X117.602 Y54.816 E2.2970
G1 X118.822 Y54.912 E2.3519
G1 X118.829 Y54.913 E2.3523
G1 X119.613 Y55.037 E2.3879
G1 X119.621 Y55.038 E2.3883
G1 X121.003 Y55.370 E2.4521
G1 X121.011 Y55.372 E2.4525
G1 X121.765 Y55.618 E2.4881
G1 X121.773 Y55.620 E2.4884
G1 X123.086 Y56.164 E2.5523
G1 X123.093 Y56.168 E2.5526
G1 X123.800 Y56.528 E2.5883
G1 X123.807 Y56.532 E2.5886
G1 X125.019 Y57.274 E2.6524
G1 X125.026 Y57.279 E2.6528
G1 X125.668 Y57.745 E2.6884
G1 X125.674 Y57.750 E2.6888
G1 X126.754 Y58.673 E2.7526
G1 X126.760 Y58.678 E2.7529
G1 X127.322 Y59.240 E2.7886
G1 X127.327 Y59.245 E2.7889
G1 X128.250 Y60.326 E2.8527
G1 X128.255 Y60.332 E2.8531
G1 X128.721 Y60.974 E2.8887
G1 X128.726 Y60.981 E2.8891
G1 X129.468 Y62.193 E2.9529
G1 X129.472 Y62.200 E2.9533
G1 X129.832 Y62.907 E2.9889
G1 X129.836 Y62.914 E2.9893
G1 X130.380 Y64.227 E3.0531
G1 X130.382 Y64.235 E3.0534
G1 X130.628 Y64.989 E3.0891
G1 X130.630 Y64.997 E3.0894
G1 X130.962 Y66.379 E3.1532
G1 X130.963 Y66.387 E3.1536
G1 X131.087 Y67.170 E3.1892
G1 X131.088 Y67.178 E3.1896
G1 X131.184 Y68.397 E3.2445
G1 X131.184 Y68.401 E3.2446
G1 X131.200 Y68.798 E3.2625
G1 X131.200 Y68.802 E3.2626
G1 X131.200 Y134.182 E6.1983
G1 X131.170 Y134.255 E6.2019
G1 X125.255 Y140.170 E6.5774
G1 X125.182 Y140.200 E6.5810
G1 X69.818 Y140.200 E9.0669
G1 X69.745 Y140.170 E9.0705
G1 X63.830 Y134.255 E9.4460
G1 X63.800 Y134.182 E9.4496
G1 X63.800 Y68.803 E12.3852
G1 X63.800 Y68.799 E12.3853
G1 X63.815 Y68.405 E12.4030
G1 X63.816 Y68.402 E12.4032
G1 X63.910 Y67.195 E12.4576
G1 X63.911 Y67.187 E12.4579
G1 X64.033 Y66.410 E12.4932
G1 X64.035 Y66.402 E12.4936
G1 X64.363 Y65.021 E12.5573
G1 X64.365 Y65.014 E12.5577
G1 X64.610 Y64.258 E12.5934
G1 X64.612 Y64.250 E12.5937
G1 X65.154 Y62.937 E12.6575
G1 X65.157 Y62.930 E12.6578
G1 X65.515 Y62.224 E12.6934
G1 X65.519 Y62.217 E12.6937
G1 X66.260 Y61.002 E12.7576
G1 X66.264 Y60.996 E12.7580
G1 X66.734 Y60.348 E12.7939
G1 X66.739 Y60.342 E12.7942
G1 X67.675 Y59.243 E12.8591
G92 E0
G1 E-5.0000 F6000
; inner perimeter
G1 X75.601 Y66.593 F4800
G1 E0.0000 F6000
G92 E0
G1 X76.006 Y66.249 E0.0239 F1350
G1 X76.460 Y65.971 E0.0478
G1 X76.952 Y65.768 E0.0717
G1 X77.469 Y65.644 E0.0956
G1 X78.024 Y65.600 E0.1205
G1 X116.976 Y65.600 E1.8696
G1 X117.532 Y65.644 E1.8946
G1 X118.050 Y65.768 E1.9185
G1 X118.543 Y65.972 E1.9424
G1 X118.997 Y66.251 E1.9664
G1 X119.403 Y66.597 E1.9903
G1 X119.749 Y67.003 E2.0143
G1 X120.028 Y67.457 E2.0382
G1 X120.232 Y67.950 E2.0622
G1 X120.356 Y68.468 E2.0861
G1 X120.400 Y69.024 E2.1111
G1 X120.400 Y129.400 E4.8221
G1 X74.600 Y129.400 E6.8786
G1 X74.600 Y69.023 E9.5895
G1 X74.643 Y68.475 E9.6142
G1 X74.767 Y67.955 E9.6382
G1 X74.969 Y67.463 E9.6621
G1 X75.246 Y67.009 E9.6860
G1 X75.601 Y66.593 E9.7105
; outer perimeter
G1 X75.318 Y66.310 F4800
G92 E0
G1 X75.770 Y65.924 E0.0267 F900
G1 X76.278 Y65.613 E0.0534
G1 X76.828 Y65.386 E0.0802
G1 X77.407 Y65.247 E0.1069
G1 X78.008 Y65.200 E0.1339
G1 X116.992 Y65.200 E1.8844
G1 X117.594 Y65.247 E1.9115
G1 X118.174 Y65.387 E1.9383
G1 X118.725 Y65.615 E1.9651
G1 X119.233 Y65.926 E1.9918
G1 X119.687 Y66.313 E2.0186
G1 X120.074 Y66.767 E2.0454
G1 X120.385 Y67.275 E2.0721
G1 X120.613 Y67.826 E2.0989
G1 X120.753 Y68.406 E2.1257
G1 X120.800 Y69.008 E2.1528
G1 X120.800 Y129.800 E4.8824
G1 X74.200 Y129.800 E6.9748
G1 X74.200 Y69.008 E9.7045
G1 X74.246 Y68.413 E9.7313
G1 X74.385 Y67.832 E9.7581
G1 X74.612 Y67.282 E9.7848
G1 X74.921 Y66.774 E9.8115
G1 X75.318 Y66.310 E9.8389
; inner perimeter
G1 X82.893 Y71.991 F4800
G92 E0
G1 X82.568 Y72.438 E0.0248 F1350
G1 X82.364 Y72.952 E0.0496
G1 X82.295 Y73.500 E0.0744
G1 X82.364 Y74.048 E0.0993
G1 X82.568 Y74.562 E0.1241
G1 X82.893 Y75.009 E0.1489
G1 X83.319 Y75.362 E0.1737
G1 X83.819 Y75.597 E0.1985
G1 X84.362 Y75.700 E0.2233
G1 X84.913 Y75.666 E0.2482
G1 X85.439 Y75.495 E0.2730
G1 X85.905 Y75.199 E0.2978
G1 X86.284 Y74.796 E0.3226
G1 X86.550 Y74.312 E0.3474
G1 X86.687 Y73.776 E0.3722
G1 X86.687 Y73.224 E0.3970
G1 X86.550 Y72.688 E0.4219
G1 X86.284 Y72.204 E0.4467
G1 X85.905 Y71.801 E0.4715
G1 X85.439 Y71.505 E0.4963
G1 X84.913 Y71.334 E0.5211
G1 X84.362 Y71.300 E0.5459
G1 X83.819 Y71.403 E0.5707
G1 X83.319 Y71.638 E0.5956
G1 X82.893 Y71.991 E0.6204
; outer perimeter
G1 X83.187 Y72.267 F4800
G92 E0
G1 X82.921 Y72.632 E0.0203 F900
G1 X82.755 Y73.052 E0.0406
G1 X82.698 Y73.500 E0.0608
G1 X82.755 Y73.948 E0.0811
G1 X82.921 Y74.368 E0.1014
G1 X83.187 Y74.733 E0.1217
G1 X83.535 Y75.021 E0.1419
G1 X83.943 Y75.213 E0.1622
G1 X84.387 Y75.298 E0.1825
G1 X84.838 Y75.270 E0.2028
G1 X85.267 Y75.130 E0.2231
G1 X85.648 Y74.888 E0.2433
G1 X85.958 Y74.559 E0.2636
G1 X86.175 Y74.163 E0.2839
G1 X86.287 Y73.726 E0.3042
G1 X86.287 Y73.274 E0.3244
G1 X86.175 Y72.837 E0.3447
G1 X85.958 Y72.441 E0.3650
G1 X85.648 Y72.112 E0.3853
G1 X85.267 Y71.870 E0.4055
G1 X84.838 Y71.730 E0.4258
G1 X84.387 Y71.702 E0.4461
G1 X83.943 Y71.787 E0.4664
G1 X83.535 Y71.979 E0.4867
G1 X83.187 Y72.267 E0.5069
G92 E0
G1 E-5.0000 F6000
; inner perimeter
G1 X95.480 Y69.534 F4800
G1 E0.0000 F6000
G92 E0
G1 X95.306 Y70.260 E0.0335 F1350
G1 X95.248 Y71.003 E0.0670
G1 X95.307 Y71.746 E0.1004
G1 X95.482 Y72.471 E0.1339
G1 X95.767 Y73.160 E0.1674
G1 X96.157 Y73.795 E0.2009
G1 X96.642 Y74.362 E0.2344
G1 X97.209 Y74.846 E0.2678
G1 X97.845 Y75.235 E0.3013
G1 X98.534 Y75.520 E0.3348
G1 X99.148 Y75.667 E0.3631
G1 X99.128 Y75.938 E0.3753
G1 X98.241 Y76.018 E0.4153
G1 X97.085 Y76.228 E0.4681
G1 X95.952 Y76.541 E0.5209
G1 X94.851 Y76.954 E0.5736
G1 X93.792 Y77.464 E0.6264
G1 X92.783 Y78.067 E0.6792
G1 X91.832 Y78.757 E0.7320
G1 X90.947 Y79.531 E0.7848
G1 X90.134 Y80.381 E0.8376
G1 X89.401 Y81.300 E0.8903
G1 X88.754 Y82.281 E0.9431
G1 X88.197 Y83.316 E0.9959
G1 X87.735 Y84.397 E1.0487
G1 X87.371 Y85.515 E1.1015
G1 X87.110 Y86.661 E1.1543
G1 X86.952 Y87.826 E1.2070
G1 X86.899 Y89.000 E1.2598
G1 X86.952 Y90.174 E1.3126
G1 X87.110 Y91.339 E1.3654
G1 X87.371 Y92.485 E1.4182
G1 X87.735 Y93.603 E1.4709
G1 X88.197 Y94.684 E1.5237
G1 X88.754 Y95.719 E1.5765
G1 X89.401 Y96.700 E1.6293
G1 X90.134 Y97.619 E1.6821
G1 X90.947 Y98.469 E1.7349
G1 X91.832 Y99.242 E1.7876
G1 X92.783 Y99.933 E1.8404
G1 X93.792 Y100.536 E1.8932
G1 X94.851 Y101.046 E1.9460
G1 X95.952 Y101.459 E1.9988
G1 X97.085 Y101.772 E2.0515
G1 X98.241 Y101.982 E2.1043
G1 X99.412 Y102.087 E2.1571
G1 X100.588 Y102.087 E2.2099
G1 X101.759 Y101.982 E2.2627
G1 X102.915 Y101.772 E2.3155
G1 X104.048 Y101.459 E2.3682
G1 X105.149 Y101.046 E2.4210
G1 X106.208 Y100.536 E2.4738
G1 X107.217 Y99.933 E2.5266
G1 X108.168 Y99.242 E2.5794
G1 X109.053 Y98.469 E2.6321
G1 X109.866 Y97.619 E2.6849
G1 X110.599 Y96.700 E2.7377
G1 X111.246 Y95.719 E2.7905
G1 X111.803 Y94.684 E2.8433
G1 X112.265 Y93.603 E2.8961
G1 X112.628 Y92.485 E2.9488
G1 X112.890 Y91.339 E3.0016
G1 X113.048 Y90.174 E3.0544
G1 X113.101 Y89.000 E3.1072
G1 X113.048 Y87.826 E3.1600
G1 X112.890 Y86.661 E3.2127
G1 X112.628 Y85.515 E3.2655
G1 X112.265 Y84.397 E3.3183
G1 X111.803 Y83.316 E3.3711
G1 X111.246 Y82.281 E3.4239
G1 X110.599 Y81.300 E3.4767
G1 X109.866 Y80.381 E3.5294
G1 X109.053 Y79.531 E3.5822
G1 X108.168 Y78.757 E3.6350
G1 X107.217 Y78.067 E3.6878
G1 X106.208 Y77.464 E3.7406
G1 X105.149 Y76.954 E3.7933
G1 X104.048 Y76.541 E3.8461
G1 X102.915 Y76.228 E3.8989
G1 X101.759 Y76.018 E3.9517
G1 X100.872 Y75.938 E3.9916
G1 X100.853 Y75.667 E4.0038
G1 X101.471 Y75.518 E4.0324
G1 X102.160 Y75.233 E4.0659
G1 X102.795 Y74.843 E4.0994
