; G-Code generated by Simplify3D(R) Version 3.0.2
; 1ÔÂ 22, 2016 at 12:43:47 ÉÏÎç
; Settings Summary
;   processName,Process3
;   applyToModels,8
;   profileName,me
;   profileVersion,2015-09-08 10:04:24
;   baseProfile,Default
;   printMaterial,PLA
;   printQuality,Medium
;   printExtruders,
;   extruderName,Extruder 1
;   extruderToolheadNumber,0
;   extruderDiameter,0.4
;   extruderAutoWidth,0
;   extruderWidth,0.4
;   extrusionMultiplier,0.9
;   extruderUseRetract,1
;   extruderRetractionDistance,5
;   extruderExtraRestartDistance,0
;   extruderRetractionZLift,0
;   extruderRetractionSpeed,6000
;   extruderUseCoasting,0
;   extruderCoastingDistance,0.2
;   extruderUseWipe,0
;   extruderWipeDistance,5
;   primaryExtruder,0
;   layerHeight,0.3
;   topSolidLayers,3
;   bottomSolidLayers,3
;   perimeterOutlines,2
;   printPerimetersInsideOut,1
;   startPointOption,2
;   startPointOriginX,0
;   startPointOriginY,0
;   startPointOriginZ,300
;   sequentialIslands,0
;   spiralVaseMode,0
;   firstLayerHeightPercentage,90
;   firstLayerWidthPercentage,100
;   firstLayerUnderspeed,0.5
;   useRaft,0
;   raftExtruder,0
;   raftLayers,3
;   raftOffset,3
;   raftSeparationDistance,0.14
;   raftInfill,85
;   disableRaftBaseLayers,0
;   useSkirt,1
;   skirtExtruder,0
;   skirtLayers,1
;   skirtOutlines,2
;   skirtOffset,10
;   usePrimePillar,0
;   primePillarExtruder,999
;   primePillarWidth,12
;   primePillarLocation,7
;   primePillarSpeedMultiplier,1
;   useOozeShield,0
;   oozeShieldExtruder,999
;   oozeShieldOffset,2
;   oozeShieldOutlines,1
;   oozeShieldSidewallShape,1
;   oozeShieldSidewallAngle,30
;   oozeShieldSpeedMultiplier,1
;   infillExtruder,0
;   internalInfillPattern,Rectilinear
;   externalInfillPattern,Rectilinear
;   infillPercentage,60
;   outlineOverlapPercentage,15
;   infillExtrusionWidthPercentage,100
;   minInfillLength,5
;   infillLayerInterval,1
;   infillAngles,45,-45
;   overlapInfillAngles,0
;   generateSupport,1
;   supportExtruder,0
;   supportInfillPercentage,20
;   supportExtraInflation,0
;   denseSupportLayers,0
;   denseSupportInfillPercentage,70
;   supportLayerInterval,1
;   supportHorizontalPartOffset,0.3
;   supportUpperSeparationLayers,1
;   supportLowerSeparationLayers,1
;   supportType,0
;   supportGridSpacing,4
;   maxOverhangAngle,45
;   supportAngles,0
;   temperatureName,Extruder 1 Temperature,Bed
;   temperatureNumber,0,0
;   temperatureSetpointCount,1,1
;   temperatureSetpointLayers,1,1
;   temperatureSetpointTemperatures,210,75
;   temperatureStabilizeAtStartup,1,1
;   temperatureHeatedBed,0,1
;   temperatureRelayBetweenLayers,0,0
;   temperatureRelayBetweenLoops,0,0
;   fanLayers,1,2
;   fanSpeeds,0,100
;   blipFanToFullPower,0
;   adjustSpeedForCooling,1
;   minSpeedLayerTime,15
;   minCoolingSpeedSlowdown,20
;   increaseFanForCooling,0
;   minFanLayerTime,45
;   maxCoolingFanSpeed,100
;   increaseFanForBridging,0
;   bridgingFanSpeed,100
;   use5D,1
;   relativeEdistances,0
;   allowEaxisZeroing,1
;   independentExtruderAxes,0
;   includeM10123,0
;   stickySupport,1
;   applyToolheadOffsets,0
;   gcodeXoffset,0
;   gcodeYoffset,0
;   gcodeZoffset,0
;   overrideMachineDefinition,1
;   machineTypeOverride,0
;   strokeXoverride,195
;   strokeYoverride,195
;   strokeZoverride,195
;   originOffsetXoverride,0
;   originOffsetYoverride,0
;   originOffsetZoverride,0
;   homeXdirOverride,-1
;   homeYdirOverride,-1
;   homeZdirOverride,-1
;   flipXoverride,1
;   flipYoverride,-1
;   flipZoverride,1
;   toolheadOffsets,0,0|0,0|0,0|0,0|0,0|0,0
;   overrideFirmwareConfiguration,1
;   firmwareTypeOverride,RepRap (Marlin/Repetier/Sprinter)
;   GPXconfigOverride,r2
;   baudRateOverride,115200
;   overridePrinterModels,0
;   printerModelsOverride
;   startingGcode,G28 ; home all axes
;   layerChangeGcode,
;   retractionGcode,
;   toolChangeGcode,
;   endingGcode,M104 S0 ; turn off extruder,M140 S0 ; turn off bed,M84 ; disable motors,G28 X0 Y0
;   createX3G,0
;   celebration,0
;   celebrationSong,Random Song
;   createMB5G,0
;   postProcessing,
;   defaultSpeed,3600
;   outlineUnderspeed,0.5
;   solidInfillUnderspeed,0.8
;   supportUnderspeed,0.8
;   rapidXYspeed,4800
;   rapidZspeed,1000
;   minBridgingArea,50
;   bridgingExtraInflation,0
;   bridgingExtrusionMultiplier,1
;   bridgingSpeedMultiplier,1
;   filamentDiameter,1.75
;   filamentPricePerKg,46
;   filamentDensity,1.25
;   useMinPrintHeight,0
;   minPrintHeight,0
;   useMaxPrintHeight,0
;   maxPrintHeight,0
;   useDiaphragm,0
;   diaphragmLayerInterval,20
;   robustSlicing,1
;   mergeAllIntoSolid,0
;   onlyRetractWhenCrossingOutline,1
;   retractBetweenLayers,1
;   useRetractionMinTravel,0
;   retractionMinTravel,3
;   retractWhileWiping,0
;   onlyWipeOutlines,1
;   avoidCrossingOutline,0
;   maxMovementDetourFactor,3
;   toolChangeRetractionDistance,12
;   toolChangeExtraRestartDistance,-0.5
;   toolChangeRetractionSpeed,600
;   allowThinWallGapFill,1
;   thinWallAllowedOverlapPercentage,10
;   horizontalSizeCompensation,0
G90
M82
M106 S0
M140 S75
M190 S75
M104 S210 T0
M109 S210 T0
G28 ; home all axes
G92 E0
G1 E-5.0000 F6000
G1 Z0.270 F1000
; layer 1, Z = 0.27
T0
; tool H0.300 W0.400
; skirt
G1 X62.944 Y84.978 F4800
G1 E0.0000 F1800
G92 E0
G1 X62.956 Y84.969 E0.0007 F1800
G1 X63.376 Y84.688 E0.0234
G1 X63.389 Y84.680 E0.0240
G1 X64.791 Y83.839 E0.0975
G1 X64.804 Y83.832 E0.0981
G1 X65.250 Y83.593 E0.1208
G1 X65.263 Y83.586 E0.1215
G1 X66.741 Y82.887 E0.1949
G1 X66.755 Y82.881 E0.1956
G1 X67.222 Y82.687 E0.2183
G1 X67.236 Y82.682 E0.2190
G1 X68.775 Y82.131 E0.2924
G1 X68.789 Y82.126 E0.2930
G1 X69.273 Y81.979 E0.3158
G1 X69.288 Y81.975 E0.3164
G1 X70.874 Y81.578 E0.3899
G1 X70.888 Y81.574 E0.3905
G1 X71.384 Y81.476 E0.4132
G1 X71.399 Y81.473 E0.4139
G1 X73.016 Y81.233 E0.4873
G1 X73.031 Y81.231 E0.4880
G1 X73.534 Y81.182 E0.5107
G1 X73.549 Y81.181 E0.5114
G1 X75.056 Y81.107 E0.5791
G1 X75.063 Y81.106 E0.5794
G1 X75.316 Y81.100 E0.5908
G1 X75.324 Y81.100 E0.5911
G1 X97.746 Y81.100 E1.5979
G1 X97.967 Y81.191 E1.6086
G1 X103.994 Y87.218 E1.9913
G1 X104.085 Y87.439 E2.0021
G1 X104.085 Y99.961 E2.5644
G1 X103.994 Y100.182 E2.5751
G1 X97.985 Y106.191 E2.9566
G1 X97.451 Y107.480 E3.0193
G1 X97.433 Y107.515 E3.0211
G1 X96.758 Y108.685 E3.0817
G1 X96.737 Y108.717 E3.0834
G1 X95.756 Y109.996 E3.1558
G1 X95.730 Y110.025 E3.1575
G1 X94.775 Y110.980 E3.2182
G1 X94.746 Y111.006 E3.2199
G1 X93.467 Y111.987 E3.2923
G1 X93.435 Y112.008 E3.2940
G1 X92.265 Y112.683 E3.3547
G1 X92.230 Y112.701 E3.3564
G1 X90.742 Y113.317 E3.4288
G1 X90.704 Y113.330 E3.4305
G1 X89.400 Y113.679 E3.4912
G1 X89.362 Y113.687 E3.4929
G1 X88.099 Y113.853 E3.5501
G1 X88.080 Y113.855 E3.5510
G1 X87.407 Y113.899 E3.5813
G1 X87.387 Y113.900 E3.5821
G1 X77.493 Y113.900 E4.0264
G1 X77.280 Y113.816 E4.0367
G1 X75.549 Y112.200 E4.1430
G1 X73.813 Y113.820 E4.2497
G1 X73.600 Y113.904 E4.2599
G1 X59.543 Y113.891 E4.8911
G1 X59.317 Y113.794 E4.9021
G1 X53.246 Y107.432 E5.2970
G1 X53.160 Y107.202 E5.3080
G1 X53.429 Y101.318 E5.5725
G1 X53.431 Y101.303 E5.5732
G1 X53.481 Y100.779 E5.5968
G1 X53.483 Y100.764 E5.5975
G1 X53.726 Y99.138 E5.6713
G1 X53.728 Y99.123 E5.6720
G1 X53.827 Y98.627 E5.6947
G1 X53.830 Y98.613 E5.6954
G1 X54.229 Y97.027 E5.7688
G1 X54.233 Y97.013 E5.7694
G1 X54.380 Y96.529 E5.7921
G1 X54.384 Y96.515 E5.7928
G1 X54.936 Y94.976 E5.8662
G1 X54.941 Y94.963 E5.8668
G1 X55.135 Y94.495 E5.8896
G1 X55.141 Y94.482 E5.8902
G1 X55.840 Y93.006 E5.9636
G1 X55.847 Y92.993 E5.9642
G1 X56.084 Y92.550 E5.9868
G1 X56.091 Y92.537 E5.9874
G1 X56.928 Y91.142 E6.0605
G1 X56.936 Y91.130 E6.0611
G1 X57.216 Y90.710 E6.0838
G1 X57.225 Y90.698 E6.0845
G1 X58.197 Y89.387 E6.1577
G1 X58.206 Y89.375 E6.1584
G1 X58.526 Y88.985 E6.1811
G1 X58.536 Y88.974 E6.1817
G1 X59.631 Y87.765 E6.2550
G1 X59.642 Y87.754 E6.2557
G1 X59.999 Y87.397 E6.2783
G1 X60.009 Y87.387 E6.2790
G1 X61.218 Y86.291 E6.3522
G1 X61.229 Y86.281 E6.3529
G1 X61.619 Y85.961 E6.3756
G1 X61.631 Y85.952 E6.3762
G1 X62.944 Y84.978 E6.4497
G1 X63.178 Y85.302 F4800
G92 E0
G1 X63.182 Y85.299 E0.0002 F1800
G1 X63.595 Y85.023 E0.0225
G1 X63.599 Y85.020 E0.0227
G1 X64.993 Y84.184 E0.0957
G1 X64.997 Y84.182 E0.0959
G1 X65.434 Y83.948 E0.1182
G1 X65.439 Y83.946 E0.1184
G1 X66.908 Y83.251 E0.1914
G1 X66.912 Y83.249 E0.1916
G1 X67.371 Y83.059 E0.2139
G1 X67.375 Y83.057 E0.2141
G1 X68.905 Y82.509 E0.2871
G1 X68.910 Y82.507 E0.2873
G1 X69.385 Y82.363 E0.3096
G1 X69.390 Y82.362 E0.3098
G1 X70.966 Y81.967 E0.3828
G1 X70.971 Y81.966 E0.3830
G1 X71.458 Y81.869 E0.4053
G1 X71.462 Y81.868 E0.4055
G1 X73.070 Y81.630 E0.4785
G1 X73.075 Y81.629 E0.4787
G1 X73.569 Y81.580 E0.5010
G1 X73.574 Y81.580 E0.5012
G1 X75.073 Y81.506 E0.5686
G1 X75.076 Y81.506 E0.5687
G1 X75.324 Y81.500 E0.5799
G1 X75.326 Y81.500 E0.5800
G1 X97.667 Y81.500 E1.5831
G1 X97.740 Y81.530 E1.5867
G1 X103.655 Y87.445 E1.9622
G1 X103.685 Y87.518 E1.9658
G1 X103.685 Y99.882 E2.5210
G1 X103.655 Y99.955 E2.5245
G1 X97.740 Y105.870 E2.9001
G1 X97.673 Y105.897 E2.9033
G1 X97.086 Y107.315 E2.9722
G1 X97.080 Y107.327 E2.9728
G1 X96.419 Y108.473 E3.0323
G1 X96.411 Y108.484 E3.0328
G1 X95.446 Y109.742 E3.1040
G1 X95.438 Y109.751 E3.1046
G1 X94.501 Y110.688 E3.1641
G1 X94.492 Y110.696 E3.1646
G1 X93.234 Y111.661 E3.2358
G1 X93.223 Y111.668 E3.2364
G1 X92.077 Y112.330 E3.2958
G1 X92.065 Y112.336 E3.2964
G1 X90.601 Y112.943 E3.3676
G1 X90.588 Y112.947 E3.3682
G1 X89.309 Y113.290 E3.4276
G1 X89.296 Y113.292 E3.4282
G1 X88.053 Y113.456 E3.4845
G1 X88.047 Y113.457 E3.4848
G1 X87.387 Y113.500 E3.5145
G1 X87.381 Y113.500 E3.5148
G1 X77.569 Y113.500 E3.9554
G1 X77.498 Y113.472 E3.9588
G1 X75.550 Y111.653 E4.0785
G1 X73.595 Y113.476 E4.1985
G1 X73.525 Y113.504 E4.2019
G1 X59.625 Y113.491 E4.8260
G1 X59.550 Y113.458 E4.8297
G1 X53.592 Y107.215 E5.2172
G1 X53.563 Y107.138 E5.2209
G1 X53.829 Y101.341 E5.4814
G1 X53.829 Y101.336 E5.4816
G1 X53.879 Y100.823 E5.5048
G1 X53.880 Y100.818 E5.5050
G1 X54.121 Y99.201 E5.5784
G1 X54.121 Y99.197 E5.5786
G1 X54.218 Y98.710 E5.6009
G1 X54.220 Y98.705 E5.6011
G1 X54.615 Y97.129 E5.6741
G1 X54.617 Y97.125 E5.6743
G1 X54.761 Y96.650 E5.6966
G1 X54.762 Y96.646 E5.6968
G1 X55.311 Y95.116 E5.7698
G1 X55.313 Y95.111 E5.7700
G1 X55.503 Y94.653 E5.7923
G1 X55.505 Y94.649 E5.7925
G1 X56.200 Y93.182 E5.8654
G1 X56.202 Y93.178 E5.8656
G1 X56.435 Y92.743 E5.8877
G1 X56.437 Y92.739 E5.8879
G1 X57.268 Y91.352 E5.9605
G1 X57.271 Y91.348 E5.9607
G1 X57.546 Y90.936 E5.9830
G1 X57.549 Y90.932 E5.9832
G1 X58.515 Y89.629 E6.0560
G1 X58.518 Y89.625 E6.0563
G1 X58.832 Y89.243 E6.0785
G1 X58.836 Y89.239 E6.0787
G1 X59.925 Y88.037 E6.1515
G1 X59.928 Y88.034 E6.1517
G1 X60.278 Y87.684 E6.1740
G1 X60.282 Y87.680 E6.1742
G1 X61.483 Y86.591 E6.2470
G1 X61.487 Y86.588 E6.2472
G1 X61.869 Y86.273 E6.2695
G1 X61.873 Y86.270 E6.2697
G1 X63.178 Y85.302 E6.3427
G92 E0
G1 E-5.0000 F6000
; inner perimeter
G1 X69.392 Y94.140 F4800
G1 E0.0000 F6000
G92 E0
G1 X70.310 Y93.589 E0.0481 F1350
G1 X71.277 Y93.131 E0.0961
G1 X72.284 Y92.771 E0.1442
G1 X73.322 Y92.510 E0.1922
G1 X74.381 Y92.353 E0.2403
G1 X75.465 Y92.300 E0.2890
G1 X92.885 Y92.300 E1.0712
G1 X92.885 Y95.100 E1.1969
G1 X87.450 Y95.100 E1.4409
G1 X87.449 Y102.267 E1.7627
G1 X87.431 Y102.402 E1.7689
G1 X87.392 Y102.497 E1.7735
G1 X87.329 Y102.579 E1.7781
G1 X87.247 Y102.642 E1.7827
G1 X87.152 Y102.681 E1.7874
G1 X87.011 Y102.700 E1.7938
G1 X82.110 Y102.700 E2.0138
G1 X82.090 Y102.401 E2.0273
G1 X81.907 Y101.519 E2.0677
G1 X81.605 Y100.670 E2.1082
G1 X81.190 Y99.870 E2.1486
G1 X80.671 Y99.134 E2.1891
G1 X80.056 Y98.475 E2.2295
G1 X79.357 Y97.907 E2.2700
G1 X78.587 Y97.439 E2.3104
G1 X77.761 Y97.080 E2.3509
G1 X76.893 Y96.837 E2.3914
G1 X76.000 Y96.714 E2.4318
G1 X75.100 Y96.714 E2.4723
G1 X74.207 Y96.837 E2.5127
G1 X73.339 Y97.080 E2.5532
G1 X72.513 Y97.439 E2.5936
G1 X71.743 Y97.907 E2.6341
G1 X71.044 Y98.475 E2.6745
G1 X70.429 Y99.134 E2.7150
G1 X69.910 Y99.870 E2.7555
G1 X69.495 Y100.670 E2.7959
G1 X69.193 Y101.519 E2.8364
G1 X69.010 Y102.401 E2.8768
G1 X68.990 Y102.699 E2.8903
G1 X64.578 Y102.695 E3.0883
G1 X64.604 Y102.124 E3.1140
G1 X64.762 Y101.067 E3.1620
G1 X65.022 Y100.030 E3.2100
G1 X65.383 Y99.023 E3.2581
G1 X65.842 Y98.055 E3.3061
G1 X66.389 Y97.143 E3.3539
G1 X67.025 Y96.286 E3.4018
G1 X67.742 Y95.495 E3.4498
G1 X68.533 Y94.777 E3.4977
G1 X69.392 Y94.140 E3.5457
; outer perimeter
G1 X69.169 Y93.807 F4800
G92 E0
G1 X70.121 Y93.236 E0.0498 F900
G1 X71.124 Y92.761 E0.0996
G1 X72.168 Y92.387 E0.1495
G1 X73.244 Y92.118 E0.1993
G1 X74.342 Y91.955 E0.2491
G1 X75.455 Y91.900 E0.2991
G1 X93.285 Y91.900 E1.0997
G1 X93.285 Y95.500 E1.2614
G1 X87.850 Y95.500 E1.5054
G1 X87.849 Y102.293 E1.8104
G1 X87.821 Y102.507 E1.8201
G1 X87.741 Y102.699 E1.8294
G1 X87.614 Y102.864 E1.8388
G1 X87.449 Y102.991 E1.8482
G1 X87.257 Y103.071 E1.8575
G1 X87.037 Y103.100 E1.8675
G1 X81.737 Y103.100 E2.1054
G1 X81.693 Y102.456 E2.1344
G1 X81.521 Y101.627 E2.1724
G1 X81.237 Y100.830 E2.2104
G1 X80.848 Y100.078 E2.2484
G1 X80.360 Y99.387 E2.2864
G1 X79.782 Y98.768 E2.3244
G1 X79.126 Y98.234 E2.3624
G1 X78.403 Y97.795 E2.4004
G1 X77.626 Y97.458 E2.4384
G1 X76.812 Y97.229 E2.4764
G1 X75.973 Y97.114 E2.5144
G1 X75.127 Y97.114 E2.5524
G1 X74.288 Y97.229 E2.5904
G1 X73.474 Y97.458 E2.6284
G1 X72.697 Y97.795 E2.6664
G1 X71.974 Y98.234 E2.7044
G1 X71.318 Y98.768 E2.7424
G1 X70.740 Y99.387 E2.7804
G1 X70.252 Y100.078 E2.8184
G1 X69.863 Y100.830 E2.8564
G1 X69.579 Y101.627 E2.8944
G1 X69.407 Y102.456 E2.9324
G1 X69.363 Y103.100 E2.9614
G1 X64.159 Y103.095 E3.1951
G1 X64.206 Y102.085 E3.2404
G1 X64.369 Y100.989 E3.2902
G1 X64.639 Y99.913 E3.3400
G1 X65.014 Y98.869 E3.3898
G1 X65.489 Y97.867 E3.4396
G1 X66.056 Y96.921 E3.4891
G1 X66.715 Y96.032 E3.5389
G1 X67.458 Y95.211 E3.5886
G1 X68.278 Y94.468 E3.6383
G1 X69.169 Y93.807 E3.6881
; solid layer
G1 X67.007 Y96.881 F4800
G92 E0
G1 X69.130 Y94.757 E0.1348 F1440
G1 X69.581 Y94.422 E0.1601
G1 X70.470 Y93.889 E0.2066
G1 X70.648 Y93.805 E0.2154
G1 X66.056 Y98.397 E0.5070
G1 X65.698 Y99.153 E0.5446
G1 X65.604 Y99.415 E0.5571
G1 X71.665 Y93.353 E0.9420
G1 X72.383 Y93.096 E0.9762
G1 X72.523 Y93.061 E0.9827
G1 X65.312 Y100.272 E1.4406
G1 X65.122 Y101.028 E1.4756
G1 X73.278 Y92.872 E1.9935
G1 X73.389 Y92.844 E1.9986
G1 X73.956 Y92.760 E2.0243
G1 X65.010 Y101.705 E2.5923
G1 X64.943 Y102.157 E2.6129
G1 X64.934 Y102.347 E2.6214
G1 X74.598 Y92.683 E3.2351
G1 X75.193 Y92.654 E3.2618
G1 X65.491 Y102.356 E3.8779
G1 X66.056 Y102.357 E3.9033
G1 X75.773 Y92.640 E4.5203
G1 X76.339 Y92.640 E4.5457
G1 X66.621 Y102.357 E5.1627
G1 X67.186 Y102.358 E5.1881
G1 X69.368 Y100.176 E5.3266
G1 X69.183 Y100.534 E5.3448
G1 X68.966 Y101.144 E5.3738
G1 X67.752 Y102.358 E5.4509
G1 X68.317 Y102.359 E5.4763
G1 X68.765 Y101.911 E5.5047
G1 X72.448 Y97.096 F4800
G92 E0
G1 X76.904 Y92.640 E0.2830 F1440
G1 X77.470 Y92.640 E0.3084
G1 X73.400 Y96.710 E0.5668
G1 X74.138 Y96.503 E0.6012
G1 X74.178 Y96.497 E0.6030
G1 X78.036 Y92.640 E0.8480
G1 X78.601 Y92.640 E0.8734
G1 X74.834 Y96.407 E1.1126
G1 X75.076 Y96.374 E1.1236
G1 X75.433 Y96.374 E1.1396
G1 X79.167 Y92.640 E1.3767
G1 X79.733 Y92.640 E1.4021
G1 X75.999 Y96.374 E1.6392
G1 X76.024 Y96.374 E1.6403
G1 X76.499 Y96.439 E1.6619
G1 X80.298 Y92.640 E1.9031
G1 X80.864 Y92.640 E1.9285
G1 X76.993 Y96.511 E2.1743
G1 X77.434 Y96.635 E2.1950
G1 X81.430 Y92.640 E2.4486
G1 X81.995 Y92.640 E2.4740
G1 X77.876 Y96.759 E2.7356
G1 X78.271 Y96.931 E2.7549
G1 X82.561 Y92.640 E3.0274
G1 X83.127 Y92.640 E3.0528
G1 X78.665 Y97.102 E3.3361
G1 X78.744 Y97.136 E3.3400
G1 X79.025 Y97.307 E3.3547
G1 X83.692 Y92.640 E3.6511
G1 X84.258 Y92.640 E3.6765
G1 X79.377 Y97.521 E3.9865
G1 X79.553 Y97.628 E3.9957
G1 X79.709 Y97.755 E4.0047
G1 X84.824 Y92.640 E4.3295
G1 X85.389 Y92.640 E4.3549
G1 X80.021 Y98.009 E4.6958
G1 X80.288 Y98.226 E4.7113
G1 X80.327 Y98.268 E4.7139
G1 X85.955 Y92.640 E5.0713
G1 X86.521 Y92.640 E5.0967
G1 X80.600 Y98.560 E5.4726
G1 X80.874 Y98.853 E5.4906
G1 X87.087 Y92.640 E5.8851
G1 X87.652 Y92.640 E5.9105
G1 X81.116 Y99.176 E6.3255
G1 X81.351 Y99.507 E6.3437
G1 X88.218 Y92.640 E6.7798
G1 X88.784 Y92.640 E6.8052
